;FLAVOR:Marlin
;TIME:13297
;Filament used: 11.7469m
;Layer height: 0.2
;MINX:70.345
;MINY:38.72
;MINZ:0.2
;MAXX:128.775
;MAXY:142.16
;MAXZ:55
;Generated with Cura_SteamEngine 5.4.0
M140 S60
M105
M190 S60
M104 S200
M105
M109 S200
M82 ;absolute extrusion mode
G28 ; home all axes
 M117 Purge extruder
 G92 E0 ; reset extruder
 G1 Z1.0 F3000 ; move z up little to prevent scratching of surface
 G1 X2 Y20 Z0.3 F5000.0 ; move to start-line position
 G1 X2 Y175.0 Z0.3 F1500.0 E15 ; draw 1st line
 G1 X2 Y175.0 Z0.4 F5000.0 ; move to side a little
 G1 X2 Y20 Z0.4 F1500.0 E30 ; draw 2nd line
 G92 E0 ; reset extruder
 G1 Z1.0 F3000 ; move z up little to prevent scratching of surface
G92 E0
G92 E0
G1 F2400 E-1
;LAYER_COUNT:275
;LAYER:0
M107
G1 F240 Z0.6
;MESH:Stair1.stl
G0 F6000 X94.895 Y88.4 Z0.6
;TYPE:WALL-INNER
G1 F240 Z0.2
G1 F2400 E0
G1 F1200 X94.895 Y45.5 E1.56955
G1 X94.918 Y45.274 E1.57786
G1 X94.985 Y45.063 E1.58596
G1 X95.088 Y44.876 E1.59377
G1 X95.217 Y44.722 E1.60112
G1 X95.371 Y44.593 E1.60847
G1 X95.558 Y44.49 E1.61628
G1 X95.805 Y44.416 E1.62571
G1 X95.995 Y44.4 E1.63269
G1 X127.895 Y44.4 E2.79979
G1 X127.895 Y39.6 E2.9754
G1 X90.096 Y39.601 E4.35832
G1 X90.095 Y88.4 E6.14369
G1 X94.895 Y88.4 E6.3193
G0 F6000 X95.335 Y88.84
G1 F1200 X95.335 Y45.5 E7.90494
G1 X95.348 Y45.364 E7.90994
G1 X95.389 Y45.237 E7.91482
G1 X95.451 Y45.125 E7.91951
G1 X95.528 Y45.033 E7.9239
G1 X95.621 Y44.956 E7.92831
G1 X95.732 Y44.894 E7.93297
G1 X95.859 Y44.853 E7.93785
G1 X95.995 Y44.84 E7.94285
G1 X128.335 Y44.84 E9.12604
G1 X128.335 Y39.16 E9.33385
G1 X89.656 Y39.161 E10.74897
G1 X89.655 Y88.84 E12.56653
G1 X95.335 Y88.84 E12.77434
G0 F6000 X95.775 Y89.28
;TYPE:WALL-OUTER
G1 F1200 X95.779 Y45.454 E14.37777
G1 X95.813 Y45.375 E14.38091
G1 X95.87 Y45.318 E14.38386
G1 X95.949 Y45.284 E14.38701
G1 X128.775 Y45.28 E15.58798
G1 X128.775 Y38.72 E15.82799
G1 X89.216 Y38.721 E17.2753
G1 X89.215 Y89.28 E19.12506
G1 X95.775 Y89.28 E19.36507
G1 F2400 E18.36507
G1 F240 Z0.6
G0 F6000 X94.499 Y88.004 Z0.6
;TYPE:SKIN
G1 F240 Z0.2
G1 F2400 E19.36507
G1 F1200 X90.491 Y88.004 E19.5117
G1 X90.492 Y39.997 E21.26809
G1 X127.499 Y39.996 E22.62204
G1 X127.499 Y44.004 E22.76867
G1 X95.975 Y44.005 E23.92202
G1 X95.669 Y44.04 E23.93329
G1 X95.375 Y44.137 E23.94461
G1 X95.165 Y44.254 E23.95341
G1 X94.935 Y44.441 E23.96425
G1 X94.774 Y44.632 E23.97339
G1 X94.633 Y44.881 E23.98386
G1 X94.536 Y45.173 E23.99512
G1 X94.5 Y45.479 E24.00639
G1 X94.499 Y88.004 E25.56222
G1 F2400 E24.56222
G1 F240 Z0.6
G0 F6000 X90.71 Y87.599 Z0.6
G1 F240 Z0.2
G1 F2400 E25.56222
G1 F1200 X90.895 Y87.783 E25.57176
G0 F6000 X91.517 Y87.783
G1 F1200 X90.71 Y86.976 E25.61352
G0 F6000 X90.71 Y86.354
G1 F1200 X92.139 Y87.783 E25.68745
G0 F6000 X92.761 Y87.783
G1 F1200 X90.71 Y85.732 E25.79357
G0 F6000 X90.71 Y85.11
G1 F1200 X93.384 Y87.783 E25.9319
G0 F6000 X94.006 Y87.783
G1 F1200 X90.71 Y84.487 E26.10244
G0 F6000 X90.71 Y83.865
G1 F1200 X94.278 Y87.433 E26.28705
G0 F6000 X94.278 Y86.811
G1 F1200 X90.71 Y83.243 E26.47166
G0 F6000 X90.71 Y82.621
G1 F1200 X94.278 Y86.189 E26.65627
G0 F6000 X94.278 Y85.566
G1 F1200 X90.71 Y81.998 E26.84088
G0 F6000 X90.71 Y81.376
G1 F1200 X94.278 Y84.944 E27.02549
G0 F6000 X94.278 Y84.322
G1 F1200 X90.71 Y80.754 E27.2101
G0 F6000 X90.71 Y80.132
G1 F1200 X94.278 Y83.7 E27.39471
G0 F6000 X94.278 Y83.077
G1 F1200 X90.71 Y79.509 E27.57932
G0 F6000 X90.71 Y78.887
G1 F1200 X94.278 Y82.455 E27.76394
G0 F6000 X94.278 Y81.833
G1 F1200 X90.71 Y78.265 E27.94855
G0 F6000 X90.71 Y77.643
G1 F1200 X94.278 Y81.211 E28.13316
G0 F6000 X94.278 Y80.588
G1 F1200 X90.71 Y77.02 E28.31777
G0 F6000 X90.71 Y76.398
G1 F1200 X94.278 Y79.966 E28.50238
G0 F6000 X94.278 Y79.344
G1 F1200 X90.71 Y75.776 E28.68699
G0 F6000 X90.71 Y75.154
G1 F1200 X94.278 Y78.722 E28.8716
G0 F6000 X94.278 Y78.099
G1 F1200 X90.71 Y74.531 E29.05621
G0 F6000 X90.71 Y73.909
G1 F1200 X94.278 Y77.477 E29.24082
G0 F6000 X94.278 Y76.855
G1 F1200 X90.71 Y73.287 E29.42543
G0 F6000 X90.71 Y72.665
G1 F1200 X94.278 Y76.233 E29.61004
G0 F6000 X94.278 Y75.61
G1 F1200 X90.71 Y72.042 E29.79465
G0 F6000 X90.71 Y71.42
G1 F1200 X94.278 Y74.988 E29.97926
G0 F6000 X94.278 Y74.366
G1 F1200 X90.71 Y70.798 E30.16387
G0 F6000 X90.71 Y70.176
G1 F1200 X94.278 Y73.744 E30.34848
G0 F6000 X94.279 Y73.122
G1 F1200 X90.71 Y69.553 E30.53315
G0 F6000 X90.71 Y68.931
G1 F1200 X94.279 Y72.5 E30.71781
G0 F6000 X94.279 Y71.878
G1 F1200 X90.71 Y68.309 E30.90247
G0 F6000 X90.71 Y67.687
G1 F1200 X94.279 Y71.255 E31.08711
G0 F6000 X94.279 Y70.633
G1 F1200 X90.71 Y67.064 E31.27177
G0 F6000 X90.71 Y66.442
G1 F1200 X94.279 Y70.011 E31.45643
G0 F6000 X94.279 Y69.389
G1 F1200 X90.71 Y65.82 E31.64109
G0 F6000 X90.71 Y65.198
G1 F1200 X94.279 Y68.766 E31.82573
G0 F6000 X94.279 Y68.144
G1 F1200 X90.71 Y64.575 E32.01039
G0 F6000 X90.71 Y63.953
G1 F1200 X94.279 Y67.522 E32.19505
G0 F6000 X94.279 Y66.9
G1 F1200 X90.71 Y63.331 E32.37972
G0 F6000 X90.71 Y62.709
G1 F1200 X94.279 Y66.277 E32.56435
G0 F6000 X94.279 Y65.655
G1 F1200 X90.71 Y62.086 E32.74902
G0 F6000 X90.71 Y61.464
G1 F1200 X94.279 Y65.033 E32.93368
G0 F6000 X94.279 Y64.411
G1 F1200 X90.71 Y60.842 E33.11834
G0 F6000 X90.71 Y60.22
G1 F1200 X94.279 Y63.788 E33.30298
G0 F6000 X94.279 Y63.166
G1 F1200 X90.71 Y59.597 E33.48764
G0 F6000 X90.71 Y58.975
G1 F1200 X94.279 Y62.544 E33.6723
G0 F6000 X94.279 Y61.922
G1 F1200 X90.71 Y58.353 E33.85696
G0 F6000 X90.71 Y57.731
G1 F1200 X94.279 Y61.299 E34.0416
G0 F6000 X94.279 Y60.677
G1 F1200 X90.71 Y57.108 E34.22626
G0 F6000 X90.71 Y56.486
G1 F1200 X94.279 Y60.055 E34.41092
G0 F6000 X94.279 Y59.433
G1 F1200 X90.71 Y55.864 E34.59559
G0 F6000 X90.71 Y55.242
G1 F1200 X94.279 Y58.811 E34.78025
G0 F6000 X94.279 Y58.189
G1 F1200 X90.71 Y54.619 E34.96494
G0 F6000 X90.71 Y53.997
G1 F1200 X94.279 Y57.566 E35.1496
G0 F6000 X94.279 Y56.944
G1 F1200 X90.71 Y53.375 E35.33426
G0 F6000 X90.71 Y52.752
G1 F1200 X94.279 Y56.322 E35.51895
G0 F6000 X94.279 Y55.7
G1 F1200 X90.71 Y52.13 E35.70364
G0 F6000 X90.71 Y51.508
G1 F1200 X94.279 Y55.077 E35.8883
G0 F6000 X94.279 Y54.455
G1 F1200 X90.71 Y50.886 E36.07296
G0 F6000 X90.71 Y50.263
G1 F1200 X94.279 Y53.833 E36.25765
G0 F6000 X94.279 Y53.211
G1 F1200 X90.71 Y49.641 E36.44234
G0 F6000 X90.71 Y49.019
G1 F1200 X94.279 Y52.588 E36.627
G0 F6000 X94.279 Y51.966
G1 F1200 X90.71 Y48.397 E36.81166
G0 F6000 X90.71 Y47.774
G1 F1200 X94.279 Y51.344 E36.99635
G0 F6000 X94.279 Y50.722
G1 F1200 X90.71 Y47.152 E37.18104
G0 F6000 X90.71 Y46.53
G1 F1200 X94.279 Y50.099 E37.3657
G0 F6000 X94.279 Y49.477
G1 F1200 X90.71 Y45.908 E37.55036
G0 F6000 X90.71 Y45.285
G1 F1200 X94.279 Y48.855 E37.73505
G0 F6000 X94.279 Y48.233
G1 F1200 X90.71 Y44.663 E37.91974
G0 F6000 X90.71 Y44.041
G1 F1200 X94.279 Y47.61 E38.1044
G0 F6000 X94.279 Y46.988
G1 F1200 X90.71 Y43.419 E38.28907
G0 F6000 X90.71 Y42.796
G1 F1200 X94.279 Y46.366 E38.47375
G0 F6000 X94.279 Y45.744
G1 F1200 X90.71 Y42.174 E38.65844
G0 F6000 X90.71 Y41.552
G1 F1200 X94.315 Y45.157 E38.84497
G0 F6000 X94.482 Y44.701
G1 F1200 X90.71 Y40.93 E39.04011
G0 F6000 X90.71 Y40.307
G1 F1200 X94.737 Y44.334 E39.24847
G0 F6000 X95.076 Y44.051
G1 F1200 X91.241 Y40.216 E39.44689
G0 F6000 X91.863 Y40.216
G1 F1200 X95.508 Y43.861 E39.63549
G0 F6000 X96.054 Y43.785
G1 F1200 X92.486 Y40.216 E39.82012
G0 F6000 X93.108 Y40.216
G1 F1200 X96.677 Y43.785 E40.00478
G0 F6000 X97.299 Y43.785
G1 F1200 X93.73 Y40.216 E40.18945
G0 F6000 X94.352 Y40.216
G1 F1200 X97.921 Y43.785 E40.37411
G0 F6000 X98.543 Y43.785
G1 F1200 X94.975 Y40.216 E40.55875
G0 F6000 X95.597 Y40.216
G1 F1200 X99.166 Y43.785 E40.74341
G0 F6000 X99.788 Y43.785
G1 F1200 X96.219 Y40.216 E40.92807
G0 F6000 X96.841 Y40.216
G1 F1200 X100.41 Y43.785 E41.11273
G0 F6000 X101.032 Y43.785
G1 F1200 X97.464 Y40.216 E41.29737
G0 F6000 X98.086 Y40.216
G1 F1200 X101.655 Y43.785 E41.48203
G0 F6000 X102.277 Y43.785
G1 F1200 X98.708 Y40.216 E41.66669
G0 F6000 X99.33 Y40.216
G1 F1200 X102.899 Y43.785 E41.85136
G0 F6000 X103.521 Y43.785
G1 F1200 X99.953 Y40.216 E42.03599
G0 F6000 X100.575 Y40.216
G1 F1200 X104.144 Y43.785 E42.22065
G0 F6000 X104.766 Y43.785
G1 F1200 X101.197 Y40.216 E42.40532
G0 F6000 X101.819 Y40.216
G1 F1200 X105.388 Y43.785 E42.58998
G0 F6000 X106.01 Y43.785
G1 F1200 X102.442 Y40.216 E42.77462
G0 F6000 X103.064 Y40.216
G1 F1200 X106.632 Y43.784 E42.95923
G0 F6000 X107.254 Y43.784
G1 F1200 X103.686 Y40.216 E43.14384
G0 F6000 X104.308 Y40.216
G1 F1200 X107.876 Y43.784 E43.32845
G0 F6000 X108.499 Y43.784
G1 F1200 X104.931 Y40.216 E43.51306
G0 F6000 X105.553 Y40.216
G1 F1200 X109.121 Y43.784 E43.69767
G0 F6000 X109.743 Y43.784
G1 F1200 X106.175 Y40.216 E43.88228
G0 F6000 X106.797 Y40.216
G1 F1200 X110.365 Y43.784 E44.06689
G0 F6000 X110.988 Y43.784
G1 F1200 X107.42 Y40.216 E44.2515
G0 F6000 X108.042 Y40.216
G1 F1200 X111.61 Y43.784 E44.43611
G0 F6000 X112.232 Y43.784
G1 F1200 X108.664 Y40.216 E44.62072
G0 F6000 X109.286 Y40.216
G1 F1200 X112.854 Y43.784 E44.80533
G0 F6000 X113.477 Y43.784
G1 F1200 X109.909 Y40.216 E44.98994
G0 F6000 X110.531 Y40.216
G1 F1200 X114.099 Y43.784 E45.17455
G0 F6000 X114.721 Y43.784
G1 F1200 X111.153 Y40.216 E45.35916
G0 F6000 X111.775 Y40.216
G1 F1200 X115.343 Y43.784 E45.54377
G0 F6000 X115.966 Y43.784
G1 F1200 X112.398 Y40.216 E45.72838
G0 F6000 X113.02 Y40.216
G1 F1200 X116.588 Y43.784 E45.913
G0 F6000 X117.21 Y43.784
G1 F1200 X113.642 Y40.216 E46.09761
G0 F6000 X114.264 Y40.216
G1 F1200 X117.832 Y43.784 E46.28222
G0 F6000 X118.454 Y43.784
G1 F1200 X114.887 Y40.216 E46.4668
G0 F6000 X115.509 Y40.216
G1 F1200 X119.076 Y43.784 E46.65139
G0 F6000 X119.699 Y43.784
G1 F1200 X116.131 Y40.216 E46.836
G0 F6000 X116.753 Y40.216
G1 F1200 X120.321 Y43.784 E47.02061
G0 F6000 X120.943 Y43.784
G1 F1200 X117.376 Y40.216 E47.20519
G0 F6000 X117.998 Y40.216
G1 F1200 X121.565 Y43.784 E47.38978
G0 F6000 X122.188 Y43.784
G1 F1200 X118.62 Y40.216 E47.57439
G0 F6000 X119.242 Y40.216
G1 F1200 X122.81 Y43.784 E47.759
G0 F6000 X123.432 Y43.784
G1 F1200 X119.865 Y40.216 E47.94358
G0 F6000 X120.487 Y40.216
G1 F1200 X124.054 Y43.784 E48.12817
G0 F6000 X124.677 Y43.784
G1 F1200 X121.109 Y40.216 E48.31278
G0 F6000 X121.731 Y40.216
G1 F1200 X125.299 Y43.784 E48.49739
G0 F6000 X125.921 Y43.784
G1 F1200 X122.354 Y40.216 E48.68197
G0 F6000 X122.976 Y40.216
G1 F1200 X126.543 Y43.784 E48.86656
G0 F6000 X127.166 Y43.784
G1 F1200 X123.598 Y40.216 E49.05117
G0 F6000 X124.22 Y40.216
G1 F1200 X127.277 Y43.273 E49.20934
G0 F6000 X127.277 Y42.651
G1 F1200 X124.843 Y40.216 E49.3353
G0 F6000 X125.465 Y40.216
G1 F1200 X127.277 Y42.029 E49.42908
G0 F6000 X127.277 Y41.406
G1 F1200 X126.087 Y40.216 E49.49065
G0 F6000 X126.709 Y40.216
G1 F1200 X127.277 Y40.784 E49.52004
G1 F2400 E48.52004
G1 F240 Z0.6
G0 F6000 X105.652 Y96.449 Z0.6
;TYPE:WALL-INNER
G1 F240 Z0.2
G1 F2400 E49.52004
G1 F1200 X118.452 Y96.449 E49.98834
G1 X118.452 Y56.649 E51.44447
G1 X105.652 Y56.649 E51.91278
G1 X105.652 Y96.449 E53.3689
G0 F6000 X105.212 Y96.889
G1 F1200 X118.892 Y96.889 E53.8694
G1 X118.892 Y56.209 E55.35773
G1 X105.212 Y56.209 E55.85823
G1 X105.212 Y96.889 E57.34655
G0 F6000 X104.772 Y97.329
;TYPE:WALL-OUTER
G1 F1200 X119.332 Y97.329 E57.87924
G1 X119.332 Y55.769 E59.39976
G1 X104.772 Y55.769 E59.93246
G1 X104.772 Y97.329 E61.45298
G1 F2400 E60.45298
G1 F240 Z0.6
G0 F6000 X106.048 Y96.053 Z0.6
;TYPE:SKIN
G1 F240 Z0.2
G1 F2400 E61.45298
G1 F1200 X106.048 Y57.045 E62.88013
G1 X118.056 Y57.045 E63.31946
G1 X118.056 Y96.053 E64.74661
G1 X106.048 Y96.053 E65.18594
G0 F6000 X106.266 Y95.688
G1 F1200 X106.411 Y95.832 E65.19341
G0 F6000 X107.033 Y95.832
G1 F1200 X106.266 Y95.066 E65.23307
G0 F6000 X106.266 Y94.444
G1 F1200 X107.655 Y95.832 E65.30491
G0 F6000 X108.277 Y95.832
G1 F1200 X106.266 Y93.821 E65.40897
G0 F6000 X106.266 Y93.199
G1 F1200 X108.9 Y95.832 E65.54522
G0 F6000 X109.522 Y95.832
G1 F1200 X106.266 Y92.577 E65.71367
G0 F6000 X106.266 Y91.954
G1 F1200 X110.144 Y95.832 E65.91432
G0 F6000 X110.766 Y95.832
G1 F1200 X106.266 Y91.332 E66.14715
G0 F6000 X106.266 Y90.71
G1 F1200 X111.389 Y95.832 E66.41219
G0 F6000 X112.011 Y95.832
G1 F1200 X106.266 Y90.088 E66.70941
G0 F6000 X106.266 Y89.465
G1 F1200 X112.633 Y95.832 E67.03885
G0 F6000 X113.255 Y95.832
G1 F1200 X106.266 Y88.843 E67.40046
G0 F6000 X106.266 Y88.221
G1 F1200 X113.878 Y95.832 E67.79429
G0 F6000 X114.5 Y95.832
G1 F1200 X106.266 Y87.599 E68.22029
G0 F6000 X106.266 Y86.976
G1 F1200 X115.122 Y95.832 E68.67851
G0 F6000 X115.744 Y95.832
G1 F1200 X106.266 Y86.354 E69.1689
G0 F6000 X106.266 Y85.732
G1 F1200 X116.367 Y95.832 E69.69151
G0 F6000 X116.989 Y95.832
G1 F1200 X106.266 Y85.11 E70.2463
G0 F6000 X106.266 Y84.487
G1 F1200 X117.611 Y95.832 E70.8333
G0 F6000 X117.835 Y95.434
G1 F1200 X106.266 Y83.865 E71.43188
G0 F6000 X106.266 Y83.243
G1 F1200 X117.835 Y94.812 E72.03047
G0 F6000 X117.835 Y94.19
G1 F1200 X106.266 Y82.621 E72.62906
G0 F6000 X106.266 Y81.998
G1 F1200 X117.835 Y93.567 E73.22765
G0 F6000 X117.835 Y92.945
G1 F1200 X106.266 Y81.376 E73.82623
G0 F6000 X106.266 Y80.754
G1 F1200 X117.835 Y92.323 E74.42482
G0 F6000 X117.835 Y91.701
G1 F1200 X106.266 Y80.132 E75.02341
G0 F6000 X106.266 Y79.509
G1 F1200 X117.835 Y91.078 E75.622
G0 F6000 X117.835 Y90.456
G1 F1200 X106.266 Y78.887 E76.22058
G0 F6000 X106.266 Y78.265
G1 F1200 X117.835 Y89.834 E76.81917
G0 F6000 X117.835 Y89.212
G1 F1200 X106.266 Y77.643 E77.41776
G0 F6000 X106.266 Y77.02
G1 F1200 X117.835 Y88.589 E78.01635
G0 F6000 X117.835 Y87.967
G1 F1200 X106.266 Y76.398 E78.61493
G0 F6000 X106.266 Y75.776
G1 F1200 X117.835 Y87.345 E79.21352
G0 F6000 X117.835 Y86.723
G1 F1200 X106.266 Y75.154 E79.81211
G0 F6000 X106.266 Y74.531
G1 F1200 X117.835 Y86.1 E80.41069
G0 F6000 X117.835 Y85.478
G1 F1200 X106.266 Y73.909 E81.00928
G0 F6000 X106.266 Y73.287
G1 F1200 X117.835 Y84.856 E81.60787
G0 F6000 X117.835 Y84.234
G1 F1200 X106.266 Y72.665 E82.20646
G0 F6000 X106.266 Y72.042
G1 F1200 X117.835 Y83.611 E82.80504
G0 F6000 X117.835 Y82.989
G1 F1200 X106.266 Y71.42 E83.40363
G0 F6000 X106.266 Y70.798
G1 F1200 X117.835 Y82.367 E84.00222
G0 F6000 X117.835 Y81.745
G1 F1200 X106.266 Y70.176 E84.60081
G0 F6000 X106.266 Y69.553
G1 F1200 X117.835 Y81.122 E85.19939
G0 F6000 X117.835 Y80.5
G1 F1200 X106.266 Y68.931 E85.79798
G0 F6000 X106.266 Y68.309
G1 F1200 X117.835 Y79.878 E86.39657
G0 F6000 X117.835 Y79.256
G1 F1200 X106.266 Y67.687 E86.99516
G0 F6000 X106.266 Y67.064
G1 F1200 X117.835 Y78.633 E87.59374
G0 F6000 X117.835 Y78.011
G1 F1200 X106.266 Y66.442 E88.19233
G0 F6000 X106.266 Y65.82
G1 F1200 X117.835 Y77.389 E88.79092
G0 F6000 X117.835 Y76.767
G1 F1200 X106.266 Y65.198 E89.3895
G0 F6000 X106.266 Y64.575
G1 F1200 X117.835 Y76.144 E89.98809
G0 F6000 X117.835 Y75.522
G1 F1200 X106.266 Y63.953 E90.58668
G0 F6000 X106.266 Y63.331
G1 F1200 X117.835 Y74.9 E91.18527
G0 F6000 X117.835 Y74.278
G1 F1200 X106.266 Y62.709 E91.78385
G0 F6000 X106.266 Y62.086
G1 F1200 X117.835 Y73.655 E92.38244
G0 F6000 X117.835 Y73.033
G1 F1200 X106.266 Y61.464 E92.98103
G0 F6000 X106.266 Y60.842
G1 F1200 X117.835 Y72.411 E93.57962
G0 F6000 X117.835 Y71.789
G1 F1200 X106.266 Y60.22 E94.1782
G0 F6000 X106.266 Y59.597
G1 F1200 X117.835 Y71.166 E94.77679
G0 F6000 X117.835 Y70.544
G1 F1200 X106.266 Y58.975 E95.37538
G0 F6000 X106.266 Y58.353
G1 F1200 X117.835 Y69.922 E95.97396
G0 F6000 X117.835 Y69.3
G1 F1200 X106.266 Y57.731 E96.57255
G0 F6000 X106.423 Y57.265
G1 F1200 X117.835 Y68.677 E97.16302
G0 F6000 X117.835 Y68.055
G1 F1200 X107.045 Y57.265 E97.7213
G0 F6000 X107.667 Y57.265
G1 F1200 X117.835 Y67.433 E98.2474
G0 F6000 X117.835 Y66.81
G1 F1200 X108.289 Y57.265 E98.74129
G0 F6000 X108.912 Y57.265
G1 F1200 X117.835 Y66.188 E99.20297
G0 F6000 X117.835 Y65.566
G1 F1200 X109.534 Y57.265 E99.63247
G0 F6000 X110.156 Y57.265
G1 F1200 X117.835 Y64.944 E100.02978
G0 F6000 X117.835 Y64.321
G1 F1200 X110.778 Y57.265 E100.39489
G0 F6000 X111.401 Y57.265
G1 F1200 X117.835 Y63.699 E100.72779
G0 F6000 X117.835 Y63.077
G1 F1200 X112.023 Y57.265 E101.02851
G0 F6000 X112.645 Y57.265
G1 F1200 X117.835 Y62.455 E101.29704
G0 F6000 X117.835 Y61.832
G1 F1200 X113.267 Y57.265 E101.53337
G0 F6000 X113.89 Y57.265
