;FLAVOR:Marlin
;TIME:11899
;Filament used: 10.5335m
;Layer height: 0.2
;MINX:22.22
;MINY:77.72
;MINZ:0.2
;MAXX:177.78
;MAXY:102.28
;MAXZ:37.8
;Generated with Cura_SteamEngine 5.4.0
M140 S60
M105
M190 S60
M104 S200
M105
M109 S200
M82 ;absolute extrusion mode
G28 ; home all axes
 M117 Purge extruder
 G92 E0 ; reset extruder
 G1 Z1.0 F3000 ; move z up little to prevent scratching of surface
 G1 X2 Y20 Z0.3 F5000.0 ; move to start-line position
 G1 X2 Y175.0 Z0.3 F1500.0 E15 ; draw 1st line
 G1 X2 Y175.0 Z0.4 F5000.0 ; move to side a little
 G1 X2 Y20 Z0.4 F1500.0 E30 ; draw 2nd line
 G92 E0 ; reset extruder
 G1 Z1.0 F3000 ; move z up little to prevent scratching of surface
G92 E0
G92 E0
G1 F2400 E-1
;LAYER_COUNT:187
;LAYER:0
M107
G1 F240 Z0.6
;MESH:Stair3.stl
G0 F6000 X97.9 Y99.146 Z0.6
;TYPE:WALL-INNER
G1 F240 Z0.2
G1 F2400 E0
G1 F1200 X97.9 Y91.346 E0.28537
G1 X36.1 Y91.346 E2.5464
G1 X36.1 Y99.146 E2.83177
G1 X97.9 Y99.146 E5.09279
G0 F6000 X98.34 Y99.586
G1 F1200 X98.34 Y90.906 E5.41036
G1 X35.66 Y90.906 E7.70358
G1 X35.66 Y99.586 E8.02115
G1 X98.34 Y99.586 E10.31437
G0 F6000 X98.78 Y100.026
;TYPE:WALL-OUTER
G1 F1200 X98.78 Y90.466 E10.66413
G1 X35.22 Y90.466 E12.98955
G1 X35.22 Y100.026 E13.33931
G1 X98.78 Y100.026 E15.66473
G1 F2400 E14.66473
G1 F240 Z0.6
G0 F6000 X97.504 Y98.75 Z0.6
;TYPE:SKIN
G1 F240 Z0.2
G1 F2400 E15.66473
G1 F1200 X36.496 Y98.75 E17.89677
G1 X36.496 Y91.742 E18.15317
G1 X97.504 Y91.742 E20.38522
G1 X97.504 Y98.75 E20.64161
G1 F2400 E19.64161
G1 F240 Z0.6
G0 F6000 X97.283 Y92.305 Z0.6
G1 F240 Z0.2
G1 F2400 E20.64161
G1 F1200 X96.94 Y91.962 E20.65936
G0 F6000 X96.317 Y91.962
G1 F1200 X97.283 Y92.927 E20.70931
G0 F6000 X97.283 Y93.55
G1 F1200 X95.695 Y91.962 E20.79148
G0 F6000 X95.073 Y91.962
G1 F1200 X97.283 Y94.172 E20.90583
G0 F6000 X97.283 Y94.794
G1 F1200 X94.451 Y91.962 E21.05236
G0 F6000 X93.828 Y91.962
G1 F1200 X97.283 Y95.416 E21.23109
G0 F6000 X97.283 Y96.039
G1 F1200 X93.206 Y91.962 E21.44204
G0 F6000 X92.584 Y91.962
G1 F1200 X97.283 Y96.661 E21.68517
G0 F6000 X97.283 Y97.283
G1 F1200 X91.962 Y91.962 E21.96048
G0 F6000 X91.339 Y91.962
G1 F1200 X97.283 Y97.906 E22.26803
G0 F6000 X97.283 Y98.528
G1 F1200 X90.717 Y91.962 E22.60776
G0 F6000 X90.095 Y91.962
G1 F1200 X96.662 Y98.529 E22.94754
G0 F6000 X96.04 Y98.529
G1 F1200 X89.473 Y91.962 E23.28732
G0 F6000 X88.85 Y91.962
G1 F1200 X95.418 Y98.529 E23.62712
G0 F6000 X94.796 Y98.529
G1 F1200 X88.228 Y91.962 E23.96693
G0 F6000 X87.606 Y91.962
G1 F1200 X94.173 Y98.529 E24.30671
G0 F6000 X93.551 Y98.529
G1 F1200 X86.984 Y91.962 E24.64649
G0 F6000 X86.361 Y91.962
G1 F1200 X92.929 Y98.529 E24.9863
G0 F6000 X92.307 Y98.529
G1 F1200 X85.739 Y91.962 E25.32611
G0 F6000 X85.117 Y91.962
G1 F1200 X91.684 Y98.529 E25.66589
G0 F6000 X91.062 Y98.529
G1 F1200 X84.495 Y91.962 E26.00567
G0 F6000 X83.872 Y91.962
G1 F1200 X90.44 Y98.529 E26.34547
G0 F6000 X89.818 Y98.529
G1 F1200 X83.25 Y91.962 E26.68528
G0 F6000 X82.628 Y91.962
G1 F1200 X89.195 Y98.529 E27.02506
G0 F6000 X88.573 Y98.529
G1 F1200 X82.006 Y91.962 E27.36484
G0 F6000 X81.383 Y91.962
G1 F1200 X87.951 Y98.529 E27.70465
G0 F6000 X87.329 Y98.529
G1 F1200 X80.761 Y91.962 E28.04445
G0 F6000 X80.139 Y91.962
G1 F1200 X86.706 Y98.529 E28.38424
G0 F6000 X86.084 Y98.529
G1 F1200 X79.516 Y91.962 E28.72404
G0 F6000 X78.894 Y91.962
G1 F1200 X85.462 Y98.529 E29.06385
G0 F6000 X84.84 Y98.529
G1 F1200 X78.272 Y91.962 E29.40365
G0 F6000 X77.65 Y91.962
G1 F1200 X84.217 Y98.529 E29.74344
G0 F6000 X83.595 Y98.529
G1 F1200 X77.027 Y91.962 E30.08324
G0 F6000 X76.405 Y91.962
G1 F1200 X82.973 Y98.529 E30.42305
G0 F6000 X82.351 Y98.529
G1 F1200 X75.783 Y91.962 E30.76286
G0 F6000 X75.161 Y91.962
G1 F1200 X81.728 Y98.529 E31.10264
G0 F6000 X81.106 Y98.529
G1 F1200 X74.538 Y91.962 E31.44244
G0 F6000 X73.916 Y91.962
G1 F1200 X80.484 Y98.529 E31.78225
G0 F6000 X79.862 Y98.529
G1 F1200 X73.294 Y91.962 E32.12206
G0 F6000 X72.672 Y91.962
G1 F1200 X79.239 Y98.529 E32.46184
G0 F6000 X78.617 Y98.529
G1 F1200 X72.049 Y91.962 E32.80164
G0 F6000 X71.427 Y91.962
G1 F1200 X77.995 Y98.529 E33.14145
G0 F6000 X77.373 Y98.529
G1 F1200 X70.805 Y91.962 E33.48126
G0 F6000 X70.183 Y91.962
G1 F1200 X76.75 Y98.529 E33.82104
G0 F6000 X76.128 Y98.529
G1 F1200 X69.56 Y91.962 E34.16084
G0 F6000 X68.938 Y91.962
G1 F1200 X75.506 Y98.529 E34.50065
G0 F6000 X74.884 Y98.529
G1 F1200 X68.316 Y91.962 E34.84046
G0 F6000 X67.694 Y91.962
G1 F1200 X74.261 Y98.529 E35.18024
G0 F6000 X73.639 Y98.529
G1 F1200 X67.071 Y91.962 E35.52004
G0 F6000 X66.449 Y91.962
G1 F1200 X73.017 Y98.529 E35.85985
G0 F6000 X72.395 Y98.529
G1 F1200 X65.827 Y91.962 E36.19966
G0 F6000 X65.205 Y91.962
G1 F1200 X71.772 Y98.529 E36.53944
G0 F6000 X71.15 Y98.529
G1 F1200 X64.582 Y91.962 E36.87924
G0 F6000 X63.96 Y91.962
G1 F1200 X70.528 Y98.529 E37.21905
G0 F6000 X69.905 Y98.529
G1 F1200 X63.338 Y91.962 E37.55883
G0 F6000 X62.716 Y91.962
G1 F1200 X69.283 Y98.529 E37.89861
G0 F6000 X68.661 Y98.529
G1 F1200 X62.093 Y91.962 E38.23842
G0 F6000 X61.471 Y91.962
G1 F1200 X68.039 Y98.529 E38.57823
G0 F6000 X67.416 Y98.529
G1 F1200 X60.849 Y91.962 E38.91801
G0 F6000 X60.227 Y91.962
G1 F1200 X66.794 Y98.529 E39.25779
G0 F6000 X66.172 Y98.529
G1 F1200 X59.604 Y91.962 E39.59759
G0 F6000 X58.982 Y91.962
G1 F1200 X65.55 Y98.529 E39.9374
G0 F6000 X64.927 Y98.529
G1 F1200 X58.36 Y91.962 E40.27718
G0 F6000 X57.738 Y91.962
G1 F1200 X64.305 Y98.529 E40.61696
G0 F6000 X63.683 Y98.529
G1 F1200 X57.115 Y91.962 E40.95677
G0 F6000 X56.493 Y91.962
G1 F1200 X63.061 Y98.529 E41.29657
G0 F6000 X62.438 Y98.529
G1 F1200 X55.871 Y91.962 E41.63636
G0 F6000 X55.249 Y91.962
G1 F1200 X61.816 Y98.529 E41.97614
G0 F6000 X61.194 Y98.529
G1 F1200 X54.626 Y91.962 E42.31594
G0 F6000 X54.004 Y91.962
G1 F1200 X60.572 Y98.529 E42.65575
G0 F6000 X59.949 Y98.529
G1 F1200 X53.382 Y91.962 E42.99553
G0 F6000 X52.76 Y91.962
G1 F1200 X59.327 Y98.529 E43.33531
G0 F6000 X58.705 Y98.529
G1 F1200 X52.137 Y91.962 E43.67512
G0 F6000 X51.515 Y91.962
G1 F1200 X58.083 Y98.529 E44.01492
G0 F6000 X57.46 Y98.529
G1 F1200 X50.893 Y91.962 E44.3547
G0 F6000 X50.271 Y91.962
G1 F1200 X56.838 Y98.529 E44.69448
G0 F6000 X56.216 Y98.529
G1 F1200 X49.648 Y91.962 E45.03429
G0 F6000 X49.026 Y91.962
G1 F1200 X55.594 Y98.529 E45.3741
G0 F6000 X54.971 Y98.529
G1 F1200 X48.404 Y91.962 E45.71388
G0 F6000 X47.782 Y91.962
G1 F1200 X54.349 Y98.529 E46.05366
G0 F6000 X53.727 Y98.529
G1 F1200 X47.159 Y91.962 E46.39347
G0 F6000 X46.537 Y91.962
G1 F1200 X53.105 Y98.529 E46.73327
G0 F6000 X52.482 Y98.529
G1 F1200 X45.915 Y91.962 E47.07305
G0 F6000 X45.293 Y91.962
G1 F1200 X51.86 Y98.529 E47.41283
G0 F6000 X51.238 Y98.529
G1 F1200 X44.67 Y91.962 E47.75264
G0 F6000 X44.048 Y91.962
G1 F1200 X50.616 Y98.529 E48.09245
G0 F6000 X49.993 Y98.529
G1 F1200 X43.426 Y91.962 E48.43223
G0 F6000 X42.804 Y91.962
G1 F1200 X49.371 Y98.529 E48.77201
G0 F6000 X48.749 Y98.529
G1 F1200 X42.181 Y91.962 E49.11182
G0 F6000 X41.559 Y91.962
G1 F1200 X48.127 Y98.529 E49.45162
G0 F6000 X47.504 Y98.529
G1 F1200 X40.937 Y91.962 E49.7914
G0 F6000 X40.314 Y91.962
G1 F1200 X46.882 Y98.529 E50.13121
G0 F6000 X46.26 Y98.529
G1 F1200 X39.692 Y91.962 E50.47102
G0 F6000 X39.07 Y91.962
G1 F1200 X45.638 Y98.529 E50.81082
G0 F6000 X45.015 Y98.529
G1 F1200 X38.448 Y91.962 E51.1506
G0 F6000 X37.825 Y91.962
G1 F1200 X44.393 Y98.529 E51.49041
G0 F6000 X43.771 Y98.529
G1 F1200 X37.203 Y91.962 E51.83022
G0 F6000 X36.715 Y92.096
G1 F1200 X43.149 Y98.529 E52.16309
G0 F6000 X42.526 Y98.529
G1 F1200 X36.715 Y92.718 E52.46375
G0 F6000 X36.715 Y93.34
G1 F1200 X41.904 Y98.529 E52.73224
G0 F6000 X41.282 Y98.529
G1 F1200 X36.715 Y93.963 E52.96851
G0 F6000 X36.715 Y94.585
G1 F1200 X40.66 Y98.529 E53.1726
G0 F6000 X40.037 Y98.529
G1 F1200 X36.715 Y95.207 E53.34448
G0 F6000 X36.715 Y95.829
G1 F1200 X39.415 Y98.529 E53.48418
G0 F6000 X38.793 Y98.529
G1 F1200 X36.715 Y96.452 E53.59167
G0 F6000 X36.715 Y97.074
G1 F1200 X38.171 Y98.529 E53.66698
G0 F6000 X37.548 Y98.529
G1 F1200 X36.715 Y97.696 E53.71008
G0 F6000 X36.715 Y98.318
G1 F1200 X36.926 Y98.529 E53.721
G1 F2400 E52.721
G1 F240 Z0.6
G0 F6000 X102.1 Y99.146 Z0.6
;TYPE:WALL-INNER
G1 F240 Z0.2
G1 F2400 E53.721
G1 F1200 X163.9 Y99.146 E55.98202
G1 X163.9 Y91.346 E56.2674
G1 X102.1 Y91.346 E58.52842
G1 X102.1 Y99.146 E58.81379
G0 F6000 X101.66 Y99.586
G1 F1200 X164.34 Y99.586 E61.10701
G1 X164.34 Y90.906 E61.42458
G1 X101.66 Y90.906 E63.7178
G1 X101.66 Y99.586 E64.03537
G0 F6000 X101.22 Y100.026
;TYPE:WALL-OUTER
G1 F1200 X164.78 Y100.026 E66.36078
G1 X164.78 Y90.466 E66.71055
G1 X101.22 Y90.466 E69.03596
G1 X101.22 Y100.026 E69.38572
G1 F2400 E68.38572
G1 F240 Z0.6
G0 F6000 X102.496 Y98.75 Z0.6
;TYPE:SKIN
G1 F240 Z0.2
G1 F2400 E69.38572
G1 F1200 X102.496 Y91.742 E69.64212
G1 X163.504 Y91.742 E71.87417
G1 X163.504 Y98.75 E72.13056
G1 X102.496 Y98.75 E74.36261
G0 F6000 X102.886 Y98.53
G1 F1200 X102.715 Y98.359 E74.37146
G0 F6000 X102.715 Y97.737
G1 F1200 X103.508 Y98.53 E74.41249
G0 F6000 X104.13 Y98.53
G1 F1200 X102.715 Y97.114 E74.48573
G0 F6000 X102.715 Y96.492
G1 F1200 X104.752 Y98.53 E74.59115
G0 F6000 X105.375 Y98.53
G1 F1200 X102.715 Y95.87 E74.72878
G0 F6000 X102.715 Y95.247
G1 F1200 X105.997 Y98.53 E74.89862
G0 F6000 X106.619 Y98.53
G1 F1200 X102.715 Y94.625 E75.10064
G0 F6000 X102.715 Y94.003
G1 F1200 X107.241 Y98.53 E75.33484
G0 F6000 X107.864 Y98.53
G1 F1200 X102.715 Y93.381 E75.60126
G0 F6000 X102.715 Y92.758
G1 F1200 X108.486 Y98.53 E75.89988
G0 F6000 X109.108 Y98.53
G1 F1200 X102.715 Y92.136 E76.23068
G0 F6000 X103.162 Y91.962
G1 F1200 X109.73 Y98.53 E76.57051
G0 F6000 X110.353 Y98.53
G1 F1200 X103.784 Y91.962 E76.91037
G0 F6000 X104.407 Y91.962
G1 F1200 X110.975 Y98.53 E77.2502
G0 F6000 X111.597 Y98.53
G1 F1200 X105.029 Y91.962 E77.59004
G0 F6000 X105.651 Y91.962
G1 F1200 X112.219 Y98.53 E77.92987
G0 F6000 X112.842 Y98.53
G1 F1200 X106.273 Y91.962 E78.26973
G0 F6000 X106.896 Y91.962
G1 F1200 X113.464 Y98.53 E78.60956
G0 F6000 X114.086 Y98.53
G1 F1200 X107.518 Y91.962 E78.94939
G0 F6000 X108.14 Y91.962
G1 F1200 X114.708 Y98.53 E79.28923
G0 F6000 X115.331 Y98.53
G1 F1200 X108.762 Y91.962 E79.62908
G0 F6000 X109.385 Y91.962
G1 F1200 X115.953 Y98.53 E79.96892
G0 F6000 X116.575 Y98.53
G1 F1200 X110.007 Y91.962 E80.30875
G0 F6000 X110.629 Y91.962
G1 F1200 X117.197 Y98.53 E80.64858
G0 F6000 X117.82 Y98.53
G1 F1200 X111.251 Y91.962 E80.98844
G0 F6000 X111.874 Y91.962
G1 F1200 X118.442 Y98.53 E81.32827
G0 F6000 X119.064 Y98.53
G1 F1200 X112.496 Y91.962 E81.6681
G0 F6000 X113.118 Y91.962
G1 F1200 X119.687 Y98.53 E82.00796
G0 F6000 X120.309 Y98.53
G1 F1200 X113.74 Y91.962 E82.34782
G0 F6000 X114.363 Y91.962
G1 F1200 X120.931 Y98.53 E82.68765
G0 F6000 X121.553 Y98.53
G1 F1200 X114.985 Y91.962 E83.02749
G0 F6000 X115.607 Y91.962
G1 F1200 X122.176 Y98.53 E83.36734
G0 F6000 X122.798 Y98.53
G1 F1200 X116.229 Y91.962 E83.7072
G0 F6000 X116.852 Y91.962
G1 F1200 X123.42 Y98.53 E84.04703
G0 F6000 X124.042 Y98.53
G1 F1200 X117.474 Y91.962 E84.38687
G0 F6000 X118.096 Y91.962
G1 F1200 X124.665 Y98.53 E84.72673
G0 F6000 X125.287 Y98.53
G1 F1200 X118.718 Y91.962 E85.06658
G0 F6000 X119.341 Y91.962
G1 F1200 X125.909 Y98.53 E85.40642
G0 F6000 X126.531 Y98.53
G1 F1200 X119.963 Y91.962 E85.74625
G0 F6000 X120.585 Y91.962
G1 F1200 X127.154 Y98.53 E86.08611
G0 F6000 X127.776 Y98.53
G1 F1200 X121.208 Y91.962 E86.42594
G0 F6000 X121.83 Y91.962
G1 F1200 X128.398 Y98.53 E86.76577
G0 F6000 X129.02 Y98.53
G1 F1200 X122.452 Y91.962 E87.1056
G0 F6000 X123.074 Y91.962
G1 F1200 X129.643 Y98.53 E87.44546
G0 F6000 X130.265 Y98.53
G1 F1200 X123.697 Y91.962 E87.78529
G0 F6000 X124.319 Y91.962
G1 F1200 X130.887 Y98.53 E88.12513
G0 F6000 X131.509 Y98.53
G1 F1200 X124.941 Y91.962 E88.46496
G0 F6000 X125.563 Y91.962
G1 F1200 X132.132 Y98.53 E88.80482
G0 F6000 X132.754 Y98.53
G1 F1200 X126.186 Y91.962 E89.14465
G0 F6000 X126.808 Y91.962
G1 F1200 X133.376 Y98.53 E89.48448
G0 F6000 X133.998 Y98.53
G1 F1200 X127.43 Y91.962 E89.82432
G0 F6000 X128.052 Y91.962
G1 F1200 X134.621 Y98.53 E90.16417
G0 F6000 X135.243 Y98.53
G1 F1200 X128.675 Y91.962 E90.50401
G0 F6000 X129.297 Y91.962
G1 F1200 X135.865 Y98.53 E90.84384
G0 F6000 X136.487 Y98.53
G1 F1200 X129.919 Y91.962 E91.18367
G0 F6000 X130.541 Y91.962
G1 F1200 X137.11 Y98.53 E91.52353
G0 F6000 X137.732 Y98.53
G1 F1200 X131.164 Y91.962 E91.86336
G0 F6000 X131.786 Y91.962
G1 F1200 X138.354 Y98.53 E92.20319
G0 F6000 X138.976 Y98.53
G1 F1200 X132.408 Y91.962 E92.54303
G0 F6000 X133.03 Y91.962
G1 F1200 X139.599 Y98.53 E92.88288
G0 F6000 X140.221 Y98.53
G1 F1200 X133.653 Y91.962 E93.22272
G0 F6000 X134.275 Y91.962
G1 F1200 X140.843 Y98.53 E93.56255
G0 F6000 X141.465 Y98.53
G1 F1200 X134.897 Y91.962 E93.90238
G0 F6000 X135.519 Y91.962
G1 F1200 X142.088 Y98.53 E94.24224
G0 F6000 X142.71 Y98.53
G1 F1200 X136.142 Y91.962 E94.58207
G0 F6000 X136.764 Y91.962
G1 F1200 X143.332 Y98.53 E94.92191
G0 F6000 X143.954 Y98.53
G1 F1200 X137.386 Y91.962 E95.26174
G0 F6000 X138.008 Y91.962
G1 F1200 X144.577 Y98.53 E95.6016
G0 F6000 X145.199 Y98.53
G1 F1200 X138.631 Y91.962 E95.94143
G0 F6000 X139.253 Y91.962
G1 F1200 X145.821 Y98.53 E96.28126
G0 F6000 X146.443 Y98.53
G1 F1200 X139.875 Y91.962 E96.62109
G0 F6000 X140.497 Y91.962
G1 F1200 X147.066 Y98.53 E96.96095
G0 F6000 X147.688 Y98.53
G1 F1200 X141.12 Y91.962 E97.30078
G0 F6000 X141.742 Y91.962
G1 F1200 X148.31 Y98.53 E97.64062
G0 F6000 X148.932 Y98.53
G1 F1200 X142.364 Y91.962 E97.98045
G0 F6000 X142.986 Y91.962
G1 F1200 X149.555 Y98.53 E98.32031
G0 F6000 X150.177 Y98.53
G1 F1200 X143.609 Y91.962 E98.66014
G0 F6000 X144.231 Y91.962
G1 F1200 X150.799 Y98.53 E98.99997
G0 F6000 X151.421 Y98.53
G1 F1200 X144.853 Y91.962 E99.3398
G0 F6000 X145.475 Y91.962
G1 F1200 X152.044 Y98.53 E99.67966
G0 F6000 X152.666 Y98.53
G1 F1200 X146.098 Y91.962 E100.0195
G0 F6000 X146.72 Y91.962
G1 F1200 X153.288 Y98.53 E100.35933
G0 F6000 X153.91 Y98.53
G1 F1200 X147.342 Y91.962 E100.69916
G0 F6000 X147.964 Y91.962
G1 F1200 X154.533 Y98.53 E101.03902
G0 F6000 X155.155 Y98.53
G1 F1200 X148.587 Y91.962 E101.37885
G0 F6000 X149.209 Y91.962
G1 F1200 X155.777 Y98.53 E101.71868
G0 F6000 X156.399 Y98.53
G1 F1200 X149.831 Y91.962 E102.05852
G0 F6000 X150.453 Y91.962
G1 F1200 X157.022 Y98.53 E102.39837
G0 F6000 X157.644 Y98.53
G1 F1200 X151.076 Y91.962 E102.73821
G0 F6000 X151.698 Y91.962
G1 F1200 X158.266 Y98.53 E103.07804
G0 F6000 X158.889 Y98.53
G1 F1200 X152.32 Y91.962 E103.4179
G0 F6000 X152.942 Y91.962
G1 F1200 X159.511 Y98.53 E103.75776
G0 F6000 X160.133 Y98.53
G1 F1200 X153.565 Y91.962 E104.09759
G0 F6000 X154.187 Y91.962
G1 F1200 X160.755 Y98.53 E104.43742
G0 F6000 X161.378 Y98.53
G1 F1200 X154.809 Y91.962 E104.77728
G0 F6000 X155.431 Y91.962
G1 F1200 X162 Y98.53 E105.11714
G0 F6000 X162.622 Y98.53
G1 F1200 X156.054 Y91.962 E105.45697
G0 F6000 X156.676 Y91.962
G1 F1200 X163.244 Y98.53 E105.7968
G0 F6000 X163.283 Y97.947
G1 F1200 X157.298 Y91.962 E106.10647
G0 F6000 X157.92 Y91.962
G1 F1200 X163.283 Y97.324 E106.38393
G0 F6000 X163.283 Y96.702
G1 F1200 X158.543 Y91.962 E106.62918
G0 F6000 X159.165 Y91.962
G1 F1200 X163.283 Y96.08 E106.84225
G0 F6000 X163.283 Y95.458
G1 F1200 X159.787 Y91.962 E107.02313
G0 F6000 X160.41 Y91.962
G1 F1200 X163.283 Y94.835 E107.17178
G0 F6000 X163.283 Y94.213
G1 F1200 X161.032 Y91.962 E107.28825
G0 F6000 X161.654 Y91.962
G1 F1200 X163.283 Y93.591 E107.37254
G0 F6000 X163.283 Y92.968
G1 F1200 X162.276 Y91.962 E107.42461
G0 F6000 X162.899 Y91.962
G1 F1200 X163.283 Y92.346 E107.44448
G1 F2400 E106.44448
G1 F240 Z0.6
G0 F6000 X169.1 Y101.4 Z0.6
;TYPE:WALL-INNER
G1 F240 Z0.2
G1 F2400 E107.44448
G1 F1200 X176.9 Y101.4 E107.72985
G1 X176.9 Y78.6 E108.56402
G1 X23.101 Y78.601 E114.19093
G1 X23.1 Y101.4 E115.02506
G1 X30.9 Y101.4 E115.31043
G1 X30.9 Y87.5 E115.81898
G1 X30.914 Y87.318 E115.82566
G1 X30.958 Y87.145 E115.83219
G1 X31.028 Y86.984 E115.83861
G1 X31.117 Y86.843 E115.84471
G1 X31.222 Y86.722 E115.85057
G1 X31.343 Y86.617 E115.85643
G1 X31.485 Y86.527 E115.86258
G1 X31.645 Y86.458 E115.86896
G1 X31.819 Y86.414 E115.87553
G1 X32 Y86.4 E115.88217
G1 X168 Y86.4 E120.85788
G1 X168.182 Y86.414 E120.86456
