;FLAVOR:Marlin
;TIME:6453
;Filament used: 5.5077m
;Layer height: 0.2
;MINX:54.47
;MINY:62.8
;MINZ:0.2
;MAXX:145.53
;MAXY:117.2
;MAXZ:41.2
;Generated with Cura_SteamEngine 5.4.0
M140 S60
M105
M190 S60
M104 S200
M105
M109 S200
M82 ;absolute extrusion mode
G28 ; home all axes
 M117 Purge extruder
 G92 E0 ; reset extruder
 G1 Z1.0 F3000 ; move z up little to prevent scratching of surface
 G1 X2 Y20 Z0.3 F5000.0 ; move to start-line position
 G1 X2 Y175.0 Z0.3 F1500.0 E15 ; draw 1st line
 G1 X2 Y175.0 Z0.4 F5000.0 ; move to side a little
 G1 X2 Y20 Z0.4 F1500.0 E30 ; draw 2nd line
 G92 E0 ; reset extruder
 G1 Z1.0 F3000 ; move z up little to prevent scratching of surface
G92 E0
G92 E0
G1 F2400 E-1
;LAYER_COUNT:204
;LAYER:0
M107
G1 F240 Z0.6
;MESH:Stair4.stl
G0 F6000 X64.019 Y93.32 Z0.6
;TYPE:WALL-INNER
G1 F240 Z0.2
G1 F2400 E0
G1 F1200 X141.319 Y93.32 E2.82811
G1 X141.319 Y80.52 E3.29641
G1 X64.019 Y80.52 E6.12452
G1 X64.019 Y93.32 E6.59282
G0 F6000 X63.579 Y93.76
G1 F1200 X141.759 Y93.76 E9.45313
G1 X141.759 Y80.08 E9.95363
G1 X63.579 Y80.08 E12.81393
G1 X63.579 Y93.76 E13.31443
G0 F6000 X63.139 Y94.2
;TYPE:WALL-OUTER
G1 F1200 X142.199 Y94.2 E16.20693
G1 X142.199 Y79.64 E16.73963
G1 X63.139 Y79.64 E19.63213
G1 X63.139 Y94.2 E20.16482
G1 F2400 E19.16482
G1 F240 Z0.6
G0 F6000 X64.415 Y92.924 Z0.6
;TYPE:SKIN
G1 F240 Z0.2
G1 F2400 E20.16482
G1 F1200 X64.415 Y80.916 E20.60415
G1 X140.923 Y80.916 E23.40328
G1 X140.923 Y92.924 E23.84261
G1 X64.415 Y92.924 E26.64174
G0 F6000 X64.701 Y92.703
G1 F1200 X64.635 Y92.636 E26.64518
G0 F6000 X64.635 Y92.014
G1 F1200 X65.323 Y92.703 E26.6808
G0 F6000 X65.946 Y92.703
G1 F1200 X64.635 Y91.392 E26.74864
G0 F6000 X64.635 Y90.769
G1 F1200 X66.568 Y92.703 E26.84868
G0 F6000 X67.19 Y92.703
G1 F1200 X64.635 Y90.147 E26.9809
G0 F6000 X64.635 Y89.525
G1 F1200 X67.812 Y92.703 E27.14531
G0 F6000 X68.435 Y92.703
G1 F1200 X64.635 Y88.903 E27.34192
G0 F6000 X64.635 Y88.28
G1 F1200 X69.057 Y92.703 E27.57074
G0 F6000 X69.679 Y92.703
G1 F1200 X64.635 Y87.658 E27.83175
G0 F6000 X64.635 Y87.036
G1 F1200 X70.301 Y92.703 E28.12494
G0 F6000 X70.924 Y92.703
G1 F1200 X64.635 Y86.414 E28.45033
G0 F6000 X64.635 Y85.791
G1 F1200 X71.546 Y92.703 E28.80794
G0 F6000 X72.168 Y92.703
G1 F1200 X64.635 Y85.169 E29.19773
G0 F6000 X64.635 Y84.547
G1 F1200 X72.79 Y92.703 E29.6197
G0 F6000 X73.413 Y92.703
G1 F1200 X64.635 Y83.925 E30.07388
G0 F6000 X64.635 Y83.302
G1 F1200 X74.035 Y92.703 E30.56027
G0 F6000 X74.657 Y92.703
G1 F1200 X64.635 Y82.68 E31.07884
G0 F6000 X64.635 Y82.058
G1 F1200 X75.28 Y92.703 E31.62961
G0 F6000 X75.902 Y92.703
G1 F1200 X64.635 Y81.436 E32.21258
G0 F6000 X64.956 Y81.135
G1 F1200 X76.524 Y92.703 E32.81111
G0 F6000 X77.146 Y92.703
G1 F1200 X65.579 Y81.135 E33.40962
G0 F6000 X66.201 Y81.135
G1 F1200 X77.769 Y92.703 E34.00816
G0 F6000 X78.391 Y92.703
G1 F1200 X66.823 Y81.135 E34.60669
G0 F6000 X67.445 Y81.135
G1 F1200 X79.013 Y92.703 E35.20523
G0 F6000 X79.635 Y92.703
G1 F1200 X68.068 Y81.135 E35.80374
G0 F6000 X68.69 Y81.135
G1 F1200 X80.258 Y92.703 E36.40227
G0 F6000 X80.88 Y92.703
G1 F1200 X69.312 Y81.135 E37.00081
G0 F6000 X69.934 Y81.135
G1 F1200 X81.502 Y92.703 E37.59935
G0 F6000 X82.124 Y92.703
G1 F1200 X70.557 Y81.135 E38.19785
G0 F6000 X71.179 Y81.135
G1 F1200 X82.747 Y92.703 E38.79639
G0 F6000 X83.369 Y92.703
G1 F1200 X71.801 Y81.135 E39.39493
G0 F6000 X72.423 Y81.135
G1 F1200 X83.991 Y92.703 E39.99346
G0 F6000 X84.613 Y92.703
G1 F1200 X73.046 Y81.135 E40.59197
G0 F6000 X73.668 Y81.135
G1 F1200 X85.236 Y92.703 E41.19051
G0 F6000 X85.858 Y92.703
G1 F1200 X74.29 Y81.135 E41.78904
G0 F6000 X74.913 Y81.135
G1 F1200 X86.48 Y92.703 E42.38755
G0 F6000 X87.102 Y92.703
G1 F1200 X75.535 Y81.135 E42.98606
G0 F6000 X76.157 Y81.135
G1 F1200 X87.725 Y92.703 E43.5846
G0 F6000 X88.347 Y92.703
G1 F1200 X76.779 Y81.135 E44.18313
G0 F6000 X77.402 Y81.135
G1 F1200 X88.969 Y92.703 E44.78164
G0 F6000 X89.591 Y92.703
G1 F1200 X78.024 Y81.135 E45.38015
G0 F6000 X78.646 Y81.135
G1 F1200 X90.214 Y92.703 E45.97869
G0 F6000 X90.836 Y92.703
G1 F1200 X79.268 Y81.135 E46.57722
G0 F6000 X79.891 Y81.135
G1 F1200 X91.458 Y92.703 E47.17573
G0 F6000 X92.08 Y92.703
G1 F1200 X80.513 Y81.135 E47.77424
G0 F6000 X81.135 Y81.135
G1 F1200 X92.703 Y92.703 E48.37278
G0 F6000 X93.325 Y92.703
G1 F1200 X81.757 Y81.135 E48.97131
G0 F6000 X82.38 Y81.135
G1 F1200 X93.947 Y92.703 E49.56982
G0 F6000 X94.569 Y92.703
G1 F1200 X83.002 Y81.135 E50.16833
G0 F6000 X83.624 Y81.135
G1 F1200 X95.192 Y92.703 E50.76687
G0 F6000 X95.814 Y92.703
G1 F1200 X84.246 Y81.135 E51.3654
G0 F6000 X84.869 Y81.135
G1 F1200 X96.436 Y92.703 E51.96391
G0 F6000 X97.058 Y92.703
G1 F1200 X85.491 Y81.135 E52.56242
G0 F6000 X86.113 Y81.135
G1 F1200 X97.681 Y92.703 E53.16096
G0 F6000 X98.303 Y92.703
G1 F1200 X86.735 Y81.135 E53.7595
G0 F6000 X87.358 Y81.135
G1 F1200 X98.925 Y92.703 E54.358
G0 F6000 X99.547 Y92.703
G1 F1200 X87.98 Y81.135 E54.95651
G0 F6000 X88.602 Y81.135
G1 F1200 X100.17 Y92.703 E55.55505
G0 F6000 X100.792 Y92.703
G1 F1200 X89.224 Y81.135 E56.15359
G0 F6000 X89.847 Y81.135
G1 F1200 X101.414 Y92.703 E56.7521
G0 F6000 X102.036 Y92.703
G1 F1200 X90.469 Y81.135 E57.35061
G0 F6000 X91.091 Y81.135
G1 F1200 X102.659 Y92.703 E57.94914
G0 F6000 X103.281 Y92.703
G1 F1200 X91.713 Y81.135 E58.54768
G0 F6000 X92.336 Y81.135
G1 F1200 X103.903 Y92.703 E59.14619
G0 F6000 X104.525 Y92.703
G1 F1200 X92.958 Y81.135 E59.7447
G0 F6000 X93.58 Y81.135
G1 F1200 X105.148 Y92.703 E60.34323
G0 F6000 X105.77 Y92.703
G1 F1200 X94.202 Y81.135 E60.94177
G0 F6000 X94.825 Y81.135
G1 F1200 X106.392 Y92.703 E61.54028
G0 F6000 X107.014 Y92.703
G1 F1200 X95.447 Y81.135 E62.13879
G0 F6000 X96.069 Y81.135
G1 F1200 X107.637 Y92.703 E62.73732
G0 F6000 X108.259 Y92.703
G1 F1200 X96.691 Y81.135 E63.33586
G0 F6000 X97.314 Y81.135
G1 F1200 X108.881 Y92.703 E63.93437
G0 F6000 X109.503 Y92.703
G1 F1200 X97.936 Y81.135 E64.53288
G0 F6000 X98.558 Y81.135
G1 F1200 X110.126 Y92.703 E65.13141
G0 F6000 X110.748 Y92.703
G1 F1200 X99.18 Y81.135 E65.72995
G0 F6000 X99.803 Y81.135
G1 F1200 X111.37 Y92.703 E66.32846
G0 F6000 X111.992 Y92.703
G1 F1200 X100.425 Y81.135 E66.92697
G0 F6000 X101.047 Y81.135
G1 F1200 X112.615 Y92.703 E67.5255
G0 F6000 X113.237 Y92.703
G1 F1200 X101.669 Y81.135 E68.12404
G0 F6000 X102.292 Y81.135
G1 F1200 X113.859 Y92.703 E68.72255
G0 F6000 X114.482 Y92.703
G1 F1200 X102.914 Y81.135 E69.32108
G0 F6000 X103.536 Y81.135
G1 F1200 X115.104 Y92.703 E69.91962
G0 F6000 X115.726 Y92.703
G1 F1200 X104.158 Y81.135 E70.51816
G0 F6000 X104.781 Y81.135
G1 F1200 X116.348 Y92.703 E71.11666
G0 F6000 X116.971 Y92.703
G1 F1200 X105.403 Y81.135 E71.7152
G0 F6000 X106.025 Y81.135
G1 F1200 X117.593 Y92.703 E72.31374
G0 F6000 X118.215 Y92.703
G1 F1200 X106.647 Y81.135 E72.91227
G0 F6000 X107.27 Y81.135
G1 F1200 X118.837 Y92.703 E73.51078
G0 F6000 X119.46 Y92.703
G1 F1200 X107.892 Y81.135 E74.10932
G0 F6000 X108.514 Y81.135
G1 F1200 X120.082 Y92.703 E74.70785
G0 F6000 X120.704 Y92.703
G1 F1200 X109.136 Y81.135 E75.30639
G0 F6000 X109.759 Y81.135
G1 F1200 X121.326 Y92.703 E75.9049
G0 F6000 X121.949 Y92.703
G1 F1200 X110.381 Y81.135 E76.50343
G0 F6000 X111.003 Y81.135
G1 F1200 X122.571 Y92.703 E77.10197
G0 F6000 X123.193 Y92.703
G1 F1200 X111.625 Y81.135 E77.7005
G0 F6000 X112.248 Y81.135
G1 F1200 X123.815 Y92.703 E78.29901
G0 F6000 X124.438 Y92.703
G1 F1200 X112.87 Y81.135 E78.89755
G0 F6000 X113.492 Y81.135
G1 F1200 X125.06 Y92.703 E79.49609
G0 F6000 X125.682 Y92.703
G1 F1200 X114.115 Y81.135 E80.0946
G0 F6000 X114.737 Y81.135
G1 F1200 X126.304 Y92.703 E80.6931
G0 F6000 X126.927 Y92.703
G1 F1200 X115.359 Y81.135 E81.29164
G0 F6000 X115.981 Y81.135
G1 F1200 X127.549 Y92.703 E81.89018
G0 F6000 X128.171 Y92.703
G1 F1200 X116.604 Y81.135 E82.48869
G0 F6000 X117.226 Y81.135
G1 F1200 X128.793 Y92.703 E83.0872
G0 F6000 X129.416 Y92.703
G1 F1200 X117.848 Y81.135 E83.68573
G0 F6000 X118.47 Y81.135
G1 F1200 X130.038 Y92.703 E84.28427
G0 F6000 X130.66 Y92.703
G1 F1200 X119.093 Y81.135 E84.88278
G0 F6000 X119.715 Y81.135
G1 F1200 X131.282 Y92.703 E85.48129
G0 F6000 X131.905 Y92.703
G1 F1200 X120.337 Y81.135 E86.07982
G0 F6000 X120.959 Y81.135
G1 F1200 X132.527 Y92.703 E86.67836
G0 F6000 X133.149 Y92.703
G1 F1200 X121.582 Y81.135 E87.27687
G0 F6000 X122.204 Y81.135
G1 F1200 X133.771 Y92.703 E87.87538
G0 F6000 X134.394 Y92.703
G1 F1200 X122.826 Y81.135 E88.47391
G0 F6000 X123.448 Y81.135
G1 F1200 X135.016 Y92.703 E89.07245
G0 F6000 X135.638 Y92.703
G1 F1200 X124.071 Y81.135 E89.67096
G0 F6000 X124.693 Y81.135
G1 F1200 X136.26 Y92.703 E90.26947
G0 F6000 X136.883 Y92.703
G1 F1200 X125.315 Y81.135 E90.868
G0 F6000 X125.937 Y81.135
G1 F1200 X137.505 Y92.703 E91.46654
G0 F6000 X138.127 Y92.703
G1 F1200 X126.56 Y81.135 E92.06505
G0 F6000 X127.182 Y81.135
G1 F1200 X138.749 Y92.703 E92.66356
G0 F6000 X139.372 Y92.703
G1 F1200 X127.804 Y81.135 E93.26209
G0 F6000 X128.426 Y81.135
G1 F1200 X139.994 Y92.703 E93.86063
G0 F6000 X140.616 Y92.703
G1 F1200 X129.049 Y81.135 E94.45914
G0 F6000 X129.671 Y81.135
G1 F1200 X140.702 Y92.166 E95.02989
G0 F6000 X140.702 Y91.544
G1 F1200 X130.293 Y81.135 E95.56846
G0 F6000 X130.915 Y81.135
G1 F1200 X140.702 Y90.921 E96.07482
G0 F6000 X140.702 Y90.299
G1 F1200 X131.538 Y81.135 E96.54897
G0 F6000 X132.16 Y81.135
G1 F1200 X140.702 Y89.677 E96.99094
G0 F6000 X140.702 Y89.055
G1 F1200 X132.782 Y81.135 E97.40072
G0 F6000 X133.404 Y81.135
G1 F1200 X140.702 Y88.432 E97.7783
G0 F6000 X140.702 Y87.81
G1 F1200 X134.027 Y81.135 E98.12367
G0 F6000 X134.649 Y81.135
G1 F1200 X140.702 Y87.188 E98.43685
G0 F6000 X140.702 Y86.566
G1 F1200 X135.271 Y81.135 E98.71786
G0 F6000 X135.893 Y81.135
G1 F1200 X140.702 Y85.943 E98.96665
G0 F6000 X140.702 Y85.321
G1 F1200 X136.516 Y81.135 E99.18324
G0 F6000 X137.138 Y81.135
G1 F1200 X140.702 Y84.699 E99.36764
G0 F6000 X140.702 Y84.077
G1 F1200 X137.76 Y81.135 E99.51986
G0 F6000 X138.382 Y81.135
G1 F1200 X140.702 Y83.454 E99.63988
G0 F6000 X140.702 Y82.832
G1 F1200 X139.005 Y81.135 E99.72768
G0 F6000 X139.627 Y81.135
G1 F1200 X140.702 Y82.21 E99.7833
G0 F6000 X140.702 Y81.588
G1 F1200 X140.249 Y81.135 E99.80674
G1 F2400 E98.80674
G1 F240 Z0.6
G0 F6000 X115.019 Y116.32 Z0.6
;TYPE:WALL-INNER
G1 F240 Z0.2
G1 F2400 E99.80674
G1 F1200 X139.819 Y116.32 E100.71408
G1 X139.819 Y103.52 E101.18238
G1 X115.019 Y103.52 E102.08971
G1 X115.019 Y116.32 E102.55802
G0 F6000 X114.579 Y116.76
G1 F1200 X140.259 Y116.76 E103.49755
G1 X140.259 Y103.08 E103.99805
G1 X114.579 Y103.08 E104.93758
G1 X114.579 Y116.76 E105.43808
G0 F6000 X114.139 Y117.2
;TYPE:WALL-OUTER
G1 F1200 X140.699 Y117.2 E106.40981
G1 X140.699 Y102.64 E106.9425
G1 X114.139 Y102.64 E107.91423
G1 X114.139 Y117.2 E108.44692
G1 F2400 E107.44692
G1 F240 Z0.6
G0 F6000 X115.415 Y115.924 Z0.6
;TYPE:SKIN
G1 F240 Z0.2
G1 F2400 E108.44692
G1 F1200 X115.415 Y103.916 E108.88625
G1 X139.423 Y103.916 E109.76461
G1 X139.423 Y115.924 E110.20394
G1 X115.415 Y115.924 E111.0823
G0 F6000 X115.703 Y115.703
G1 F1200 X115.634 Y115.634 E111.08587
G0 F6000 X115.634 Y115.012
G1 F1200 X116.325 Y115.703 E111.12162
G0 F6000 X116.947 Y115.703
G1 F1200 X115.634 Y114.39 E111.18956
G0 F6000 X115.634 Y113.767
G1 F1200 X117.569 Y115.703 E111.2897
G0 F6000 X118.192 Y115.703
G1 F1200 X115.634 Y113.145 E111.42205
G0 F6000 X115.634 Y112.523
G1 F1200 X118.814 Y115.703 E111.58659
G0 F6000 X119.436 Y115.703
G1 F1200 X115.634 Y111.901 E111.78331
G0 F6000 X115.634 Y111.278
G1 F1200 X120.058 Y115.703 E112.01223
G0 F6000 X120.681 Y115.703
G1 F1200 X115.634 Y110.656 E112.27337
G0 F6000 X115.634 Y110.034
G1 F1200 X121.303 Y115.703 E112.56668
G0 F6000 X121.925 Y115.703
G1 F1200 X115.634 Y109.412 E112.89218
G0 F6000 X115.634 Y108.789
G1 F1200 X122.547 Y115.703 E113.24989
G0 F6000 X123.17 Y115.703
G1 F1200 X115.634 Y108.167 E113.63981
G0 F6000 X115.634 Y107.545
G1 F1200 X123.792 Y115.703 E114.06191
G0 F6000 X124.414 Y115.703
G1 F1200 X115.634 Y106.923 E114.51619
G0 F6000 X115.634 Y106.3
G1 F1200 X125.036 Y115.703 E115.00268
G0 F6000 X125.659 Y115.703
G1 F1200 X115.634 Y105.678 E115.52138
G0 F6000 X115.634 Y105.056
G1 F1200 X126.281 Y115.703 E116.07227
G0 F6000 X126.903 Y115.703
G1 F1200 X115.634 Y104.434 E116.65533
G0 F6000 X115.958 Y104.135
G1 F1200 X127.526 Y115.703 E117.25387
G0 F6000 X128.148 Y115.703
G1 F1200 X116.58 Y104.135 E117.8524
G0 F6000 X117.202 Y104.135
G1 F1200 X128.77 Y115.703 E118.45094
G0 F6000 X129.392 Y115.703
G1 F1200 X117.825 Y104.135 E119.04945
G0 F6000 X118.447 Y104.135
G1 F1200 X130.015 Y115.703 E119.64798
G0 F6000 X130.637 Y115.703
G1 F1200 X119.069 Y104.135 E120.24652
G0 F6000 X119.691 Y104.135
G1 F1200 X131.259 Y115.703 E120.84506
G0 F6000 X131.881 Y115.703
G1 F1200 X120.314 Y104.135 E121.44357
G0 F6000 X120.936 Y104.135
G1 F1200 X132.504 Y115.703 E122.0421
G0 F6000 X133.126 Y115.703
G1 F1200 X121.558 Y104.135 E122.64064
G0 F6000 X122.18 Y104.135
G1 F1200 X133.748 Y115.703 E123.23917
G0 F6000 X134.37 Y115.703
G1 F1200 X122.803 Y104.135 E123.83768
G0 F6000 X123.425 Y104.135
G1 F1200 X134.993 Y115.703 E124.43622
G0 F6000 X135.615 Y115.703
G1 F1200 X124.047 Y104.135 E125.03475
G0 F6000 X124.669 Y104.135
G1 F1200 X136.237 Y115.703 E125.63329
G0 F6000 X136.859 Y115.703
G1 F1200 X125.292 Y104.135 E126.2318
G0 F6000 X125.914 Y104.135
G1 F1200 X137.482 Y115.703 E126.83033
G0 F6000 X138.104 Y115.703
G1 F1200 X126.536 Y104.135 E127.42887
G0 F6000 X127.159 Y104.135
G1 F1200 X138.726 Y115.703 E128.02738
G0 F6000 X139.202 Y115.556
G1 F1200 X127.781 Y104.135 E128.61831
G0 F6000 X128.403 Y104.135
G1 F1200 X139.202 Y114.934 E129.17706
G0 F6000 X139.202 Y114.312
G1 F1200 X129.025 Y104.135 E129.70362
G0 F6000 X129.648 Y104.135
G1 F1200 X139.202 Y113.69 E130.19798
G0 F6000 X139.202 Y113.067
G1 F1200 X130.27 Y104.135 E130.66012
G0 F6000 X130.892 Y104.135
G1 F1200 X139.202 Y112.445 E131.09009
G0 F6000 X139.202 Y111.823
G1 F1200 X131.514 Y104.135 E131.48787
G0 F6000 X132.137 Y104.135
G1 F1200 X139.202 Y111.201 E131.85344
G0 F6000 X139.202 Y110.578
G1 F1200 X132.759 Y104.135 E132.18681
G0 F6000 X133.381 Y104.135
G1 F1200 X139.202 Y109.956 E132.48799
G0 F6000 X139.202 Y109.334
G1 F1200 X134.003 Y104.135 E132.75699
G0 F6000 X134.626 Y104.135
G1 F1200 X139.202 Y108.712 E132.99378
G0 F6000 X139.202 Y108.089
G1 F1200 X135.248 Y104.135 E133.19836
G0 F6000 X135.87 Y104.135
G1 F1200 X139.202 Y107.467 E133.37076
G0 F6000 X139.202 Y106.845
G1 F1200 X136.492 Y104.135 E133.51098
G0 F6000 X137.115 Y104.135
G1 F1200 X139.202 Y106.222 E133.61896
G0 F6000 X139.202 Y105.6
G1 F1200 X137.737 Y104.135 E133.69476
G0 F6000 X138.359 Y104.135
G1 F1200 X139.202 Y104.978 E133.73838
G0 F6000 X139.202 Y104.356
G1 F1200 X138.981 Y104.135 E133.74981
G1 F2400 E132.74981
G1 F240 Z0.6
G0 F6000 X144.65 Y71.48 Z0.6
;TYPE:WALL-INNER
G1 F240 Z0.2
G1 F2400 E133.74981
G1 F1200 X144.65 Y63.68 E134.03519
G1 X55.35 Y63.68 E137.30233
G1 X55.35 Y71.48 E137.5877
G1 X144.65 Y71.48 E140.85484
G0 F6000 X145.09 Y71.92
G1 F1200 X145.09 Y63.24 E141.17241
G1 X54.91 Y63.24 E144.47175
G1 X54.91 Y71.92 E144.78932
G1 X145.09 Y71.92 E148.08866
G0 F6000 X145.53 Y72.36
;TYPE:WALL-OUTER
G1 F1200 X145.53 Y62.8 E148.43842
G1 X54.47 Y62.8 E151.76996
G1 X54.47 Y72.36 E152.11972
G1 X145.53 Y72.36 E155.45125
G1 F2400 E154.45125
G1 F240 Z0.6
G0 F6000 X144.254 Y71.084 Z0.6
;TYPE:SKIN
G1 F240 Z0.2
G1 F2400 E155.45125
G1 F1200 X55.746 Y71.084 E158.68942
G1 X55.746 Y64.076 E158.94582
G1 X144.254 Y64.076 E162.18398
G1 X144.254 Y71.084 E162.44038
G1 F2400 E161.44038
G1 F240 Z0.6
G0 F6000 X144.033 Y64.384 Z0.6
G1 F240 Z0.2
G1 F2400 E162.44038
G1 F1200 X143.944 Y64.295 E162.44498
G0 F6000 X143.322 Y64.295
G1 F1200 X144.033 Y65.007 E162.4818
G0 F6000 X144.033 Y65.629
G1 F1200 X142.699 Y64.295 E162.55082
G0 F6000 X142.077 Y64.295
G1 F1200 X144.033 Y66.251 E162.65202
G0 F6000 X144.033 Y66.873
G1 F1200 X141.455 Y64.295 E162.78541
G0 F6000 X140.833 Y64.295
G1 F1200 X144.033 Y67.496 E162.95101
G0 F6000 X144.033 Y68.118
G1 F1200 X140.21 Y64.295 E163.14881
G0 F6000 X139.588 Y64.295
G1 F1200 X144.033 Y68.74 E163.3788
G0 F6000 X144.033 Y69.362
G1 F1200 X138.966 Y64.295 E163.64097
G0 F6000 X138.344 Y64.295
