;FLAVOR:Marlin
;TIME:12504
;Filament used: 11.0037m
;Layer height: 0.2
;MINX:71.86
;MINY:47.402
;MINZ:0.2
;MAXX:129.02
;MAXY:131.722
;MAXZ:55.4
;Generated with Cura_SteamEngine 5.4.0
M140 S60
M105
M190 S60
M104 S200
M105
M109 S200
M82 ;absolute extrusion mode
G28 ; home all axes
 M117 Purge extruder
 G92 E0 ; reset extruder
 G1 Z1.0 F3000 ; move z up little to prevent scratching of surface
 G1 X2 Y20 Z0.3 F5000.0 ; move to start-line position
 G1 X2 Y175.0 Z0.3 F1500.0 E15 ; draw 1st line
 G1 X2 Y175.0 Z0.4 F5000.0 ; move to side a little
 G1 X2 Y20 Z0.4 F1500.0 E30 ; draw 2nd line
 G92 E0 ; reset extruder
 G1 Z1.0 F3000 ; move z up little to prevent scratching of surface
G92 E0
G92 E0
G1 F2400 E-1
;LAYER_COUNT:277
;LAYER:0
M107
G1 F240 Z0.6
G0 F6000 X118.06 Y51.802 Z0.6
;TYPE:SUPPORT
G1 F240 Z0.2
G1 F2400 E0
G1 F1200 X118.061 Y61.142 E0.34171
G1 X118.28 Y61.57 E0.3593
G1 X118.52 Y62.166 E0.38281
G1 X118.7 Y62.749 E0.40513
G1 X118.863 Y63.493 E0.433
G1 X118.961 Y64.239 E0.46053
G1 X119.011 Y64.996 E0.48828
G1 X119.095 Y127.322 E2.76855
G1 X124.62 Y127.322 E2.97069
G1 X124.62 Y51.802 E5.73368
G1 X118.06 Y51.802 E5.97368
G0 F6000 X117.62 Y51.362
G1 F1200 X117.621 Y61.25 E6.33545
G1 X117.872 Y61.734 E6.35539
G1 X118.112 Y62.33 E6.3789
G1 X118.266 Y62.828 E6.39797
G1 X118.427 Y63.551 E6.42507
G1 X118.522 Y64.268 E6.45153
G1 X118.572 Y65.039 E6.4798
G1 X118.655 Y127.762 E8.7746
G1 X125.06 Y127.762 E9.00893
G1 X125.06 Y51.362 E11.80411
G1 X117.62 Y51.362 E12.07631
G0 F6000 X118.8 Y51.89
G1 F1200 X118.8 Y62.793 E12.47521
G0 F6000 X118.991 Y63.8
G1 F1200 X124.532 Y63.8 E12.67794
G1 F2400 E11.67794
G1 F240 Z0.6
G0 F6000 X124.532 Y66 Z0.6
G1 F240 Z0.2
G1 F2400 E12.67794
G1 F1200 X119.101 Y66 E12.87664
G1 F2400 E11.87664
G1 F240 Z0.6
G0 F6000 X119.104 Y68.2 Z0.6
G1 F240 Z0.2
G1 F2400 E12.87664
G1 F1200 X124.532 Y68.2 E13.07523
G1 F2400 E12.07523
G1 F240 Z0.6
G0 F6000 X124.532 Y70.4 Z0.6
G1 F240 Z0.2
G1 F2400 E13.07523
G1 F1200 X119.107 Y70.4 E13.2737
G1 F2400 E12.2737
G1 F240 Z0.6
G0 F6000 X119.109 Y72.6 Z0.6
G1 F240 Z0.2
G1 F2400 E13.2737
G1 F1200 X124.532 Y72.6 E13.47211
G1 F2400 E12.47211
G1 F240 Z0.6
G0 F6000 X124.532 Y74.8 Z0.6
G1 F240 Z0.2
G1 F2400 E13.47211
G1 F1200 X119.112 Y74.8 E13.67041
G1 F2400 E12.67041
G1 F240 Z0.6
G0 F6000 X119.115 Y77 Z0.6
G1 F240 Z0.2
G1 F2400 E13.67041
G1 F1200 X124.532 Y77 E13.8686
G1 F2400 E12.8686
G1 F240 Z0.6
G0 F6000 X124.532 Y79.2 Z0.6
G1 F240 Z0.2
G1 F2400 E13.8686
G1 F1200 X119.118 Y79.2 E14.06667
G1 F2400 E13.06667
G1 F240 Z0.6
G0 F6000 X119.121 Y81.4 Z0.6
G1 F240 Z0.2
G1 F2400 E14.06667
G1 F1200 X124.532 Y81.4 E14.26464
G1 F2400 E13.26464
G1 F240 Z0.6
G0 F6000 X124.532 Y83.6 Z0.6
G1 F240 Z0.2
G1 F2400 E14.26464
G1 F1200 X119.124 Y83.6 E14.4625
G1 F2400 E13.4625
G1 F240 Z0.6
G0 F6000 X119.127 Y85.8 Z0.6
G1 F240 Z0.2
G1 F2400 E14.4625
G1 F1200 X124.532 Y85.8 E14.66025
G1 F2400 E13.66025
G1 F240 Z0.6
G0 F6000 X124.532 Y88 Z0.6
G1 F240 Z0.2
G1 F2400 E14.66025
G1 F1200 X119.13 Y88 E14.85789
G1 F2400 E13.85789
G1 F240 Z0.6
G0 F6000 X119.133 Y90.2 Z0.6
G1 F240 Z0.2
G1 F2400 E14.85789
G1 F1200 X124.532 Y90.2 E15.05541
G1 F2400 E14.05541
G1 F240 Z0.6
G0 F6000 X124.532 Y92.4 Z0.6
G1 F240 Z0.2
G1 F2400 E15.05541
G1 F1200 X119.136 Y92.4 E15.25283
G1 F2400 E14.25283
G1 F240 Z0.6
G0 F6000 X119.138 Y94.6 Z0.6
G1 F240 Z0.2
G1 F2400 E15.25283
G1 F1200 X124.532 Y94.6 E15.45018
G1 F2400 E14.45018
G1 F240 Z0.6
G0 F6000 X124.532 Y96.8 Z0.6
G1 F240 Z0.2
G1 F2400 E15.45018
G1 F1200 X119.141 Y96.8 E15.64741
G1 F2400 E14.64741
G1 F240 Z0.6
G0 F6000 X119.144 Y99 Z0.6
G1 F240 Z0.2
G1 F2400 E15.64741
G1 F1200 X124.532 Y99 E15.84454
G1 F2400 E14.84454
G1 F240 Z0.6
G0 F6000 X124.532 Y101.2 Z0.6
G1 F240 Z0.2
G1 F2400 E15.84454
G1 F1200 X119.147 Y101.2 E16.04156
G1 F2400 E15.04156
G1 F240 Z0.6
G0 F6000 X119.15 Y103.4 Z0.6
G1 F240 Z0.2
G1 F2400 E16.04156
G1 F1200 X124.532 Y103.4 E16.23846
G1 F2400 E15.23846
G1 F240 Z0.6
G0 F6000 X124.532 Y105.6 Z0.6
G1 F240 Z0.2
G1 F2400 E16.23846
G1 F1200 X119.153 Y105.6 E16.43526
G1 F2400 E15.43526
G1 F240 Z0.6
G0 F6000 X119.156 Y107.8 Z0.6
G1 F240 Z0.2
G1 F2400 E16.43526
G1 F1200 X124.532 Y107.8 E16.63195
G1 F2400 E15.63195
G1 F240 Z0.6
G0 F6000 X124.532 Y110 Z0.6
G1 F240 Z0.2
G1 F2400 E16.63195
G1 F1200 X119.159 Y110 E16.82852
G1 F2400 E15.82852
G1 F240 Z0.6
G0 F6000 X119.162 Y112.2 Z0.6
G1 F240 Z0.2
G1 F2400 E16.82852
G1 F1200 X124.532 Y112.2 E17.02499
G1 F2400 E16.02499
G1 F240 Z0.6
G0 F6000 X124.532 Y114.4 Z0.6
G1 F240 Z0.2
G1 F2400 E17.02499
G1 F1200 X119.165 Y114.4 E17.22135
G1 F2400 E16.22135
G1 F240 Z0.6
G0 F6000 X119.167 Y116.6 Z0.6
G1 F240 Z0.2
G1 F2400 E17.22135
G1 F1200 X124.532 Y116.6 E17.41763
G1 F2400 E16.41763
G1 F240 Z0.6
G0 F6000 X124.532 Y118.8 Z0.6
G1 F240 Z0.2
G1 F2400 E17.41763
G1 F1200 X119.17 Y118.8 E17.61381
G1 F2400 E16.61381
G1 F240 Z0.6
G0 F6000 X119.172 Y121 Z0.6
G1 F240 Z0.2
G1 F2400 E17.61381
G1 F1200 X124.531 Y121 E17.80988
G1 F2400 E16.80988
G1 F240 Z0.6
G0 F6000 X124.531 Y123.2 Z0.6
G1 F240 Z0.2
G1 F2400 E17.80988
G1 F1200 X119.175 Y123.2 E18.00583
G1 F2400 E17.00583
G1 F240 Z0.6
G0 F6000 X119.178 Y125.4 Z0.6
G1 F240 Z0.2
G1 F2400 E18.00583
G1 F1200 X124.531 Y125.4 E18.20168
G1 F2400 E17.20168
G1 F240 Z0.6
G0 F6000 X123.2 Y127.234 Z0.6
G1 F240 Z0.2
G1 F2400 E18.20168
G1 F1200 X123.2 Y51.89 E20.95822
G1 F2400 E19.95822
G1 F240 Z0.6
G0 F6000 X124.532 Y52.8 Z0.6
G1 F240 Z0.2
G1 F2400 E20.95822
G1 F1200 X118.148 Y52.8 E21.19179
G1 F2400 E20.19179
G1 F240 Z0.6
G0 F6000 X118.148 Y55 Z0.6
G1 F240 Z0.2
G1 F2400 E21.19179
G1 F1200 X124.532 Y55 E21.42535
G1 F2400 E20.42535
G1 F240 Z0.6
G0 F6000 X124.532 Y57.2 Z0.6
G1 F240 Z0.2
G1 F2400 E21.42535
G1 F1200 X118.148 Y57.2 E21.65892
G1 F2400 E20.65892
G1 F240 Z0.6
G0 F6000 X118.148 Y59.4 Z0.6
G1 F240 Z0.2
G1 F2400 E21.65892
G1 F1200 X124.532 Y59.4 E21.89249
G1 F2400 E20.89249
G1 F240 Z0.6
G0 F6000 X124.532 Y61.6 Z0.6
G1 F240 Z0.2
G1 F2400 E21.89249
G1 F1200 X118.386 Y61.6 E22.11735
G1 F2400 E21.11735
G1 F240 Z0.6
G0 F6000 X121 Y51.89 Z0.6
G1 F240 Z0.2
G1 F2400 E22.11735
G1 F1200 X121 Y127.234 E24.87389
G1 F2400 E23.87389
G1 F240 Z0.6
;MESH:Stair2.stl
G0 F6000 X95.24 Y124.055 Z0.6
;TYPE:WALL-INNER
G1 F240 Z0.2
G1 F2400 E24.87389
G1 F1200 X108.04 Y124.055 E25.34219
G1 X108.04 Y99.255 E26.24953
G1 X95.24 Y99.255 E26.71783
G1 X95.24 Y124.055 E27.62517
G0 F6000 X94.8 Y124.495
G1 F1200 X108.48 Y124.495 E28.12567
G1 X108.48 Y98.815 E29.0652
G1 X94.8 Y98.815 E29.5657
G1 X94.8 Y124.495 E30.50523
G0 F6000 X94.36 Y124.935
;TYPE:WALL-OUTER
G1 F1200 X108.92 Y124.935 E31.03793
G1 X108.92 Y98.375 E32.00965
G1 X94.36 Y98.375 E32.54235
G1 X94.36 Y124.935 E33.51408
G1 F2400 E32.51408
G1 F240 Z0.6
G0 F6000 X95.636 Y123.659 Z0.6
;TYPE:SKIN
G1 F240 Z0.2
G1 F2400 E33.51408
G1 F1200 X95.636 Y99.651 E34.39244
G1 X107.644 Y99.651 E34.83176
G1 X107.644 Y123.659 E35.71012
G1 X95.636 Y123.659 E36.14945
G0 F6000 X96.059 Y123.438
G1 F1200 X95.855 Y123.234 E36.16001
G0 F6000 X95.855 Y122.612
G1 F1200 X96.681 Y123.438 E36.20274
G0 F6000 X97.303 Y123.438
G1 F1200 X95.855 Y121.99 E36.27766
G0 F6000 X95.855 Y121.367
G1 F1200 X97.925 Y123.438 E36.38479
G0 F6000 X98.548 Y123.438
G1 F1200 X95.855 Y120.745 E36.52413
G0 F6000 X95.855 Y120.123
G1 F1200 X99.17 Y123.438 E36.69565
G0 F6000 X99.792 Y123.438
G1 F1200 X95.855 Y119.501 E36.89935
G0 F6000 X95.855 Y118.878
G1 F1200 X100.414 Y123.438 E37.13526
G0 F6000 X101.037 Y123.438
G1 F1200 X95.855 Y118.256 E37.40338
G0 F6000 X95.855 Y117.634
G1 F1200 X101.659 Y123.438 E37.70369
G0 F6000 X102.281 Y123.438
G1 F1200 X95.855 Y117.012 E38.03617
G0 F6000 X95.855 Y116.389
G1 F1200 X102.903 Y123.438 E38.40087
G0 F6000 X103.526 Y123.438
G1 F1200 X95.855 Y115.767 E38.79777
G0 F6000 X95.855 Y115.145
G1 F1200 X104.148 Y123.438 E39.22685
G0 F6000 X104.77 Y123.438
G1 F1200 X95.855 Y114.523 E39.68812
G0 F6000 X95.855 Y113.9
G1 F1200 X105.392 Y123.438 E40.1816
G0 F6000 X106.015 Y123.438
G1 F1200 X95.855 Y113.278 E40.70728
G0 F6000 X95.855 Y112.656
G1 F1200 X106.637 Y123.438 E41.26515
G0 F6000 X107.259 Y123.438
G1 F1200 X95.855 Y112.033 E41.85523
G0 F6000 X95.855 Y111.411
G1 F1200 X107.423 Y122.98 E42.45379
G0 F6000 X107.423 Y122.357
G1 F1200 X95.855 Y110.789 E43.05232
G0 F6000 X95.855 Y110.167
G1 F1200 X107.423 Y121.735 E43.65086
G0 F6000 X107.423 Y121.113
G1 F1200 X95.855 Y109.544 E44.24942
G0 F6000 X95.855 Y108.922
G1 F1200 X107.423 Y120.49 E44.84796
G0 F6000 X107.423 Y119.868
G1 F1200 X95.855 Y108.3 E45.44649
G0 F6000 X95.855 Y107.678
G1 F1200 X107.423 Y119.246 E46.04503
G0 F6000 X107.423 Y118.624
G1 F1200 X95.855 Y107.055 E46.64359
G0 F6000 X95.855 Y106.433
G1 F1200 X107.423 Y118.001 E47.24212
G0 F6000 X107.423 Y117.379
G1 F1200 X95.855 Y105.811 E47.84066
G0 F6000 X95.855 Y105.189
G1 F1200 X107.423 Y116.757 E48.43919
G0 F6000 X107.423 Y116.135
G1 F1200 X95.855 Y104.566 E49.03776
G0 F6000 X95.855 Y103.944
G1 F1200 X107.423 Y115.512 E49.63629
G0 F6000 X107.423 Y114.89
G1 F1200 X95.855 Y103.322 E50.23483
G0 F6000 X95.855 Y102.7
G1 F1200 X107.423 Y114.268 E50.83336
G0 F6000 X107.423 Y113.646
G1 F1200 X95.855 Y102.077 E51.43192
G0 F6000 X95.855 Y101.455
G1 F1200 X107.423 Y113.023 E52.03046
G0 F6000 X107.423 Y112.401
G1 F1200 X95.855 Y100.833 E52.629
G0 F6000 X95.855 Y100.211
G1 F1200 X107.423 Y111.779 E53.22753
G0 F6000 X107.423 Y111.157
G1 F1200 X96.137 Y99.871 E53.81148
G0 F6000 X96.759 Y99.871
G1 F1200 X107.423 Y110.534 E54.36321
G0 F6000 X107.423 Y109.912
G1 F1200 X97.382 Y99.871 E54.88274
G0 F6000 X98.004 Y99.871
G1 F1200 X107.423 Y109.29 E55.37008
G0 F6000 X107.423 Y108.668
G1 F1200 X98.626 Y99.871 E55.82525
G0 F6000 X99.248 Y99.871
G1 F1200 X107.423 Y108.045 E56.2482
G0 F6000 X107.423 Y107.423
G1 F1200 X99.871 Y99.871 E56.63895
G0 F6000 X100.493 Y99.871
G1 F1200 X107.423 Y106.801 E56.99751
G0 F6000 X107.423 Y106.179
G1 F1200 X101.115 Y99.871 E57.32389
G0 F6000 X101.737 Y99.871
G1 F1200 X107.423 Y105.556 E57.61806
G0 F6000 X107.423 Y104.934
G1 F1200 X102.36 Y99.871 E57.88002
G0 F6000 X102.982 Y99.871
G1 F1200 X107.423 Y104.312 E58.1098
G0 F6000 X107.423 Y103.69
G1 F1200 X103.604 Y99.871 E58.3074
G0 F6000 X104.226 Y99.871
G1 F1200 X107.423 Y103.067 E58.47279
G0 F6000 X107.423 Y102.445
G1 F1200 X104.849 Y99.871 E58.60597
G0 F6000 X105.471 Y99.871
G1 F1200 X107.423 Y101.823 E58.70697
G0 F6000 X107.423 Y101.201
G1 F1200 X106.093 Y99.871 E58.77578
G0 F6000 X106.715 Y99.871
G1 F1200 X107.423 Y100.578 E58.81239
G0 F6000 X107.423 Y99.956
G1 F1200 X107.338 Y99.871 E58.81679
G1 F2400 E57.81679
G1 F240 Z0.6
G0 F6000 X85.04 Y130.838 Z0.6
;TYPE:WALL-INNER
G1 F240 Z0.2
G1 F2400 E58.81679
G1 F1200 X85.04 Y67.038 E61.15098
G1 X72.74 Y67.038 E61.60099
G1 X72.74 Y130.838 E63.93519
G1 X85.04 Y130.838 E64.3852
G0 F6000 X85.48 Y131.278
G1 F1200 X85.48 Y66.598 E66.75159
G1 X72.3 Y66.598 E67.2338
G1 X72.3 Y131.278 E69.60019
G1 X85.48 Y131.278 E70.08239
G0 F6000 X85.92 Y131.718
;TYPE:WALL-OUTER
G1 F1200 X85.92 Y66.158 E72.48098
G1 X71.86 Y66.158 E72.99538
G1 X71.86 Y131.718 E75.39397
G1 X85.92 Y131.718 E75.90837
G1 F2400 E74.90837
G1 F240 Z0.6
G0 F6000 X84.644 Y130.442 Z0.6
;TYPE:SKIN
G1 F240 Z0.2
G1 F2400 E75.90837
G1 F1200 X73.136 Y130.442 E76.3294
G1 X73.136 Y67.434 E78.63463
G1 X84.644 Y67.434 E79.05566
G1 X84.644 Y130.442 E81.36088
G1 F2400 E80.36088
G1 F240 Z0.6
G0 F6000 X73.596 Y130.221 Z0.6
G1 F240 Z0.2
G1 F2400 E81.36088
G1 F1200 X73.355 Y129.98 E81.37335
G0 F6000 X73.355 Y129.358
G1 F1200 X74.218 Y130.221 E81.418
G0 F6000 X74.84 Y130.221
G1 F1200 X73.355 Y128.735 E81.49486
G0 F6000 X73.355 Y128.113
G1 F1200 X75.463 Y130.221 E81.60393
G0 F6000 X76.085 Y130.221
G1 F1200 X73.355 Y127.491 E81.74518
G0 F6000 X73.355 Y126.869
G1 F1200 X76.707 Y130.221 E81.91862
G0 F6000 X77.329 Y130.221
G1 F1200 X73.355 Y126.246 E82.12426
G0 F6000 X73.355 Y125.624
G1 F1200 X77.952 Y130.221 E82.36211
G0 F6000 X78.574 Y130.221
G1 F1200 X73.355 Y125.002 E82.63215
G0 F6000 X73.355 Y124.38
G1 F1200 X79.196 Y130.221 E82.93436
G0 F6000 X79.818 Y130.221
G1 F1200 X73.355 Y123.757 E83.26879
G0 F6000 X73.355 Y123.135
G1 F1200 X80.441 Y130.221 E83.63542
G0 F6000 X81.063 Y130.221
G1 F1200 X73.355 Y122.513 E84.03424
G0 F6000 X73.355 Y121.891
G1 F1200 X81.685 Y130.221 E84.46524
G0 F6000 X82.307 Y130.221
G1 F1200 X73.355 Y121.268 E84.92845
G0 F6000 X73.355 Y120.646
G1 F1200 X82.93 Y130.221 E85.42386
G0 F6000 X83.552 Y130.221
G1 F1200 X73.355 Y120.024 E85.95146
G0 F6000 X73.355 Y119.402
G1 F1200 X84.174 Y130.221 E86.51124
G0 F6000 X84.423 Y129.848
G1 F1200 X73.355 Y118.779 E87.08394
G0 F6000 X73.355 Y118.157
G1 F1200 X84.423 Y129.225 E87.6566
G0 F6000 X84.423 Y128.603
G1 F1200 X73.355 Y117.535 E88.22927
G0 F6000 X73.355 Y116.913
G1 F1200 X84.423 Y127.981 E88.80193
G0 F6000 X84.423 Y127.359
G1 F1200 X73.355 Y116.29 E89.37462
G0 F6000 X73.355 Y115.668
G1 F1200 X84.423 Y126.736 E89.94729
G0 F6000 X84.423 Y126.114
G1 F1200 X73.355 Y115.046 E90.51995
G0 F6000 X73.355 Y114.424
G1 F1200 X84.423 Y125.492 E91.09262
G0 F6000 X84.423 Y124.87
G1 F1200 X73.355 Y113.801 E91.66531
G0 F6000 X73.355 Y113.179
G1 F1200 X84.423 Y124.247 E92.23797
G0 F6000 X84.423 Y123.625
G1 F1200 X73.355 Y112.557 E92.81064
G0 F6000 X73.355 Y111.935
G1 F1200 X84.423 Y123.003 E93.3833
G0 F6000 X84.423 Y122.381
G1 F1200 X73.355 Y111.312 E93.956
G0 F6000 X73.355 Y110.69
G1 F1200 X84.423 Y121.758 E94.52866
G0 F6000 X84.423 Y121.136
G1 F1200 X73.355 Y110.068 E95.10133
G0 F6000 X73.355 Y109.445
G1 F1200 X84.423 Y120.514 E95.67402
G0 F6000 X84.423 Y119.892
G1 F1200 X73.355 Y108.823 E96.24671
G0 F6000 X73.355 Y108.201
G1 F1200 X84.423 Y119.269 E96.81937
G0 F6000 X84.423 Y118.647
G1 F1200 X73.355 Y107.579 E97.39204
G0 F6000 X73.355 Y106.956
G1 F1200 X84.423 Y118.025 E97.96473
G0 F6000 X84.423 Y117.403
G1 F1200 X73.355 Y106.334 E98.53742
G0 F6000 X73.355 Y105.712
G1 F1200 X84.423 Y116.78 E99.11009
G0 F6000 X84.423 Y116.158
G1 F1200 X73.355 Y105.09 E99.68275
G0 F6000 X73.355 Y104.467
G1 F1200 X84.423 Y115.536 E100.25544
G0 F6000 X84.423 Y114.914
G1 F1200 X73.355 Y103.845 E100.82813
G0 F6000 X73.355 Y103.223
G1 F1200 X84.423 Y114.291 E101.4008
G0 F6000 X84.423 Y113.669
G1 F1200 X73.355 Y102.601 E101.97346
G0 F6000 X73.355 Y101.978
G1 F1200 X84.423 Y113.047 E102.54616
G0 F6000 X84.423 Y112.425
G1 F1200 X73.355 Y101.356 E103.11885
G0 F6000 X73.355 Y100.734
G1 F1200 X84.423 Y111.802 E103.69151
G0 F6000 X84.423 Y111.18
G1 F1200 X73.355 Y100.112 E104.26418
G0 F6000 X73.355 Y99.489
G1 F1200 X84.423 Y110.558 E104.83687
G0 F6000 X84.423 Y109.936
G1 F1200 X73.355 Y98.867 E105.40956
G0 F6000 X73.355 Y98.245
G1 F1200 X84.423 Y109.313 E105.98223
G0 F6000 X84.423 Y108.691
G1 F1200 X73.355 Y97.623 E106.55489
G0 F6000 X73.355 Y97
G1 F1200 X84.423 Y108.069 E107.12758
G0 F6000 X84.423 Y107.446
G1 F1200 X73.355 Y96.378 E107.70025
G0 F6000 X73.355 Y95.756
G1 F1200 X84.423 Y106.824 E108.27291
G0 F6000 X84.423 Y106.202
G1 F1200 X73.355 Y95.134 E108.84558
G0 F6000 X73.355 Y94.511
G1 F1200 X84.423 Y105.58 E109.41827
G0 F6000 X84.423 Y104.957
G1 F1200 X73.355 Y93.889 E109.99093
G0 F6000 X73.355 Y93.267
G1 F1200 X84.423 Y104.335 E110.5636
G0 F6000 X84.423 Y103.713
G1 F1200 X73.355 Y92.645 E111.13626
G0 F6000 X73.355 Y92.022
G1 F1200 X84.423 Y103.091 E111.70896
G0 F6000 X84.423 Y102.468
G1 F1200 X73.355 Y91.4 E112.28162
G0 F6000 X73.355 Y90.778
G1 F1200 X84.423 Y101.846 E112.85429
G0 F6000 X84.423 Y101.224
G1 F1200 X73.355 Y90.156 E113.42695
G0 F6000 X73.355 Y89.533
G1 F1200 X84.423 Y100.602 E113.99964
G0 F6000 X84.423 Y99.979
G1 F1200 X73.355 Y88.911 E114.57231
G0 F6000 X73.355 Y88.289
G1 F1200 X84.423 Y99.357 E115.14497
G0 F6000 X84.423 Y98.735
G1 F1200 X73.355 Y87.667 E115.71764
G0 F6000 X73.355 Y87.044
G1 F1200 X84.423 Y98.113 E116.29033
G0 F6000 X84.423 Y97.49
G1 F1200 X73.355 Y86.422 E116.86299
G0 F6000 X73.355 Y85.8
G1 F1200 X84.423 Y96.868 E117.43566
G0 F6000 X84.423 Y96.246
G1 F1200 X73.355 Y85.178 E118.00833
G0 F6000 X73.355 Y84.555
G1 F1200 X84.423 Y95.624 E118.58102
G0 F6000 X84.423 Y95.001
G1 F1200 X73.355 Y83.933 E119.15368
G0 F6000 X73.355 Y83.311
G1 F1200 X84.423 Y94.379 E119.72635
G0 F6000 X84.423 Y93.757
G1 F1200 X73.355 Y82.689 E120.29901
G0 F6000 X73.355 Y82.066
