;FLAVOR:Marlin
;TIME:4570
;Filament used: 2.67931m
;Layer height: 0.2
;MINX:57.84
;MINY:62.47
;MINZ:0.2
;MAXX:141.28
;MAXY:118.41
;MAXZ:45.2
;Generated with Cura_SteamEngine 5.4.0
M140 S60
M105
M190 S60
M104 S200
M105
M109 S200
M82 ;absolute extrusion mode
G28 ; home all axes
 M117 Purge extruder
 G92 E0 ; reset extruder
 G1 Z1.0 F3000 ; move z up little to prevent scratching of surface
 G1 X2 Y20 Z0.3 F5000.0 ; move to start-line position
 G1 X2 Y175.0 Z0.3 F1500.0 E15 ; draw 1st line
 G1 X2 Y175.0 Z0.4 F5000.0 ; move to side a little
 G1 X2 Y20 Z0.4 F1500.0 E30 ; draw 2nd line
 G92 E0 ; reset extruder
 G1 Z1.0 F3000 ; move z up little to prevent scratching of surface
G92 E0
G92 E0
G1 F2400 E-1
;LAYER_COUNT:224
;LAYER:0
M107
G1 F240 Z0.6
G0 F6000 X62.24 Y107.5 Z0.6
;TYPE:SUPPORT
G1 F240 Z0.2
G1 F2400 E0
G1 F1200 X62.24 Y114.01 E0.23818
G1 X67.76 Y114.01 E0.44013
G1 X67.76 Y107.5 E0.67831
G1 X62.24 Y107.5 E0.88026
G0 F6000 X61.8 Y107.06
G1 F1200 X61.8 Y114.45 E1.15063
G1 X68.2 Y114.45 E1.38479
G1 X68.2 Y107.06 E1.65516
G1 X61.8 Y107.06 E1.88931
G0 F6000 X62.327 Y107.8
G1 F1200 X67.672 Y107.8 E2.08486
G1 F2400 E1.08486
G1 F240 Z0.6
G0 F6000 X66 Y107.588 Z0.6
G1 F240 Z0.2
G1 F2400 E2.08486
G1 F1200 X66 Y113.922 E2.3166
G1 F2400 E1.3166
G1 F240 Z0.6
G0 F6000 X63.8 Y113.922 Z0.6
G1 F240 Z0.2
G1 F2400 E2.3166
G1 F1200 X63.8 Y107.588 E2.54834
G1 F2400 E1.54834
G1 F240 Z0.6
G0 F6000 X62.327 Y110 Z0.6
G1 F240 Z0.2
G1 F2400 E2.54834
G1 F1200 X67.672 Y110 E2.74389
G1 F2400 E1.74389
G1 F240 Z0.6
G0 F6000 X67.672 Y112.2 Z0.6
G1 F240 Z0.2
G1 F2400 E2.74389
G1 F1200 X62.327 Y112.2 E2.93944
G1 F2400 E1.93944
G1 F240 Z0.6
;MESH:Stair6.stl
G0 F6000 X59.625 Y100.875 Z0.6
;TYPE:WALL-INNER
G1 F240 Z0.2
G1 F2400 E2.93944
G1 F1079.8 X71.219 Y100.875 E3.41086
G0 F6000 X71.335 Y101.339
G1 F1163 X71.679 Y101.14 E3.42586
G1 F1031.2 X71.946 Y100.946 E3.43991
G1 F954.8 X72.099 Y100.867 E3.44783
G1 F934.5 X72.396 Y100.691 E3.46405
G1 F1035.3 X73.17 Y100.356 E3.49981
G1 F1160.4 X74.478 Y99.638 E3.55627
G1 F1025.2 X74.745 Y99.446 E3.57035
G1 F942.9 X75.049 Y99.285 E3.58637
G1 F983.2 X75.212 Y99.223 E3.59415
G1 F1109.2 X75.971 Y98.856 E3.62752
G1 F1163 X77.279 Y98.139 E3.68383
G1 F1027.2 X77.546 Y97.946 E3.69791
G1 F942.9 X77.849 Y97.785 E3.71389
G1 F983.2 X78.013 Y97.723 E3.72172
G1 F1109.2 X78.772 Y97.356 E3.75509
G1 F1160.4 X80.078 Y96.638 E3.81147
G1 F1025.2 X80.345 Y96.446 E3.82555
G1 F942.9 X80.649 Y96.285 E3.84157
G1 F983.2 X80.812 Y96.223 E3.84936
G1 F1109.2 X81.572 Y95.856 E3.88276
G1 F1163 X82.879 Y95.139 E3.93904
G1 F1027.2 X83.146 Y94.946 E3.95312
G1 F942.9 X83.449 Y94.785 E3.9691
G1 F983.2 X83.613 Y94.723 E3.97693
G1 F1109.2 X84.372 Y94.356 E4.01029
G1 F1160.4 X85.678 Y93.638 E4.06668
G1 F1025.2 X85.945 Y93.446 E4.08076
G1 F942.9 X86.249 Y93.285 E4.09678
G1 F983.2 X86.412 Y93.223 E4.10457
G1 F1109.2 X87.172 Y92.856 E4.13797
G1 F1163 X88.479 Y92.139 E4.19425
G1 F1027.2 X88.746 Y91.946 E4.20833
G1 F942.9 X89.049 Y91.785 E4.2243
G1 F983.2 X89.213 Y91.723 E4.23213
G1 F1109.2 X89.972 Y91.356 E4.2655
G1 F1160.4 X91.278 Y90.638 E4.32189
G1 F1025.2 X91.545 Y90.446 E4.33597
G1 F942.9 X91.849 Y90.285 E4.35199
G1 F983.2 X92.013 Y90.223 E4.35982
G1 F1109.2 X92.772 Y89.856 E4.39319
G1 F1163 X94.079 Y89.139 E4.44946
G1 F1027.2 X94.346 Y88.946 E4.46354
G1 F942.9 X94.65 Y88.785 E4.47956
G1 F983.2 X94.813 Y88.723 E4.48735
G1 F1109.2 X95.572 Y88.356 E4.52072
G1 F1160.4 X96.879 Y87.638 E4.57713
G1 F1025.2 X97.145 Y87.446 E4.59118
G1 F942.9 X97.449 Y87.285 E4.6072
G1 F983.2 X97.613 Y87.223 E4.61503
G1 F1109.2 X98.372 Y86.856 E4.6484
G1 F1163 X99.679 Y86.139 E4.70467
G1 F1027.2 X99.946 Y85.946 E4.71875
G1 F942.9 X100.25 Y85.785 E4.73477
G1 F983.2 X100.413 Y85.723 E4.74256
G1 F1109.2 X101.172 Y85.356 E4.77593
G1 F1163 X102.479 Y84.639 E4.8322
G1 F1027.2 X102.746 Y84.446 E4.84628
G1 F942.9 X103.049 Y84.285 E4.86226
G1 F983.2 X103.213 Y84.223 E4.87009
G1 F1109.2 X103.972 Y83.856 E4.90346
G1 F1163 X105.279 Y83.139 E4.95973
G1 F1027.2 X105.546 Y82.946 E4.97382
G1 F942.9 X105.85 Y82.785 E4.98983
G1 F983.2 X106.013 Y82.723 E4.99762
G1 F1109.2 X106.772 Y82.356 E5.03099
G1 F1163 X108.079 Y81.639 E5.08726
G1 F1027.2 X108.346 Y81.446 E5.10135
G1 F942.9 X108.649 Y81.285 E5.11732
G1 F983.2 X108.813 Y81.223 E5.12515
G1 F1109.2 X109.572 Y80.856 E5.15852
G1 F1163 X110.879 Y80.139 E5.2148
G1 F1027.2 X111.146 Y79.946 E5.22888
G1 F942.9 X111.45 Y79.785 E5.24489
G1 F983.2 X111.613 Y79.723 E5.25268
G1 F1109.2 X112.372 Y79.356 E5.28605
G1 F1163 X113.679 Y78.639 E5.34233
G1 F1027.2 X113.946 Y78.446 E5.35641
G1 F942.9 X114.249 Y78.285 E5.37238
G1 F983.2 X114.413 Y78.223 E5.38021
G1 F1109.2 X115.172 Y77.856 E5.41358
G1 F1163 X116.479 Y77.139 E5.46986
G1 F1027.2 X116.746 Y76.946 E5.48394
G1 F942.9 X117.05 Y76.785 E5.49996
G1 F983.2 X117.213 Y76.723 E5.50774
G1 F1109.2 X117.972 Y76.356 E5.54111
G1 F1163 X119.279 Y75.639 E5.59739
G1 F1027.2 X119.546 Y75.446 E5.61147
G1 F942.9 X119.849 Y75.285 E5.62744
G1 F983.2 X120.013 Y75.223 E5.63527
G1 F1109.2 X120.772 Y74.856 E5.66864
G1 F1160.4 X122.078 Y74.138 E5.72503
G1 F1025.2 X122.345 Y73.946 E5.73911
G1 F942.9 X122.649 Y73.785 E5.75513
G1 F985.1 X122.813 Y73.723 E5.76294
G1 F1109.2 X123.572 Y73.356 E5.79631
G1 F1163 X124.879 Y72.639 E5.85259
G1 F1027.2 X125.146 Y72.446 E5.86667
G1 F942.9 X125.449 Y72.285 E5.88264
G1 F983.2 X125.613 Y72.223 E5.89047
G1 F1109.2 X126.372 Y71.856 E5.92384
G1 F1160.4 X127.678 Y71.138 E5.98023
G1 F1025.2 X127.945 Y70.946 E5.99431
G1 F942.9 X128.249 Y70.785 E6.01033
G1 F985.1 X128.413 Y70.723 E6.01814
G1 F1109.2 X129.172 Y70.356 E6.05151
G1 F1163 X130.479 Y69.639 E6.10779
G1 F1027.2 X130.746 Y69.446 E6.12187
G1 F942.9 X131.049 Y69.285 E6.13784
G1 F983.2 X131.213 Y69.223 E6.14567
G1 F1109.2 X131.972 Y68.856 E6.17904
G1 F1093.2 X133.236 Y68.13 E6.23758
G1 F946.2 X133.339 Y68.05 E6.24363
G1 F894.9 X133.462 Y68.022 E6.24982
G1 F936.2 X133.568 Y68.041 E6.25487
G1 F1079.8 X134.2 Y68.09 E6.28065
G1 F1200 X140.84 Y68.09 E6.52358
G1 X140.84 Y62.91 E6.7131
G1 X139.36 Y62.91 E6.76724
G1 X139.36 Y63.75 E6.79798
G1 X139.351 Y63.864 E6.80216
G1 X139.254 Y64.11 E6.81183
G1 X139.017 Y64.33 E6.82367
G1 X138.777 Y64.406 E6.83288
G1 X136.56 Y64.41 E6.91399
G1 X136.56 Y65.25 E6.94472
G1 X136.505 Y65.514 E6.95459
G1 X136.384 Y65.699 E6.96267
G1 X136.175 Y65.851 E6.97213
G1 X136.014 Y65.901 E6.9783
G1 X135.9 Y65.91 E6.98248
G1 X133.76 Y65.91 E7.06077
G1 X133.754 Y66.845 E7.09498
G1 X133.658 Y67.104 E7.10509
G1 F1079.8 X133.415 Y67.386 E7.12022
G1 F936.2 X133.329 Y67.45 E7.12525
G1 F894.9 X133.206 Y67.478 E7.13144
G1 F946.2 X133.066 Y67.453 E7.13804
G1 F1093.2 X131.705 Y67.41 E7.19273
G1 F1200 X130.96 Y67.41 E7.21998
G1 X130.96 Y68.25 E7.25072
G1 F1109.2 X130.818 Y68.717 E7.27003
G1 F983.2 X130.745 Y68.817 E7.27556
G1 F947.9 X130.639 Y68.881 E7.2813
G1 F949.6 X130.527 Y68.934 E7.28703
G1 F1027.2 X130.3 Y68.924 E7.29674
G1 F1163 X128.16 Y68.91 E7.37752
G1 F1200 X128.16 Y69.75 E7.40826
G1 F1109.2 X128.018 Y70.217 E7.42758
G1 F985.1 X127.945 Y70.317 E7.43309
G1 F949.6 X127.839 Y70.382 E7.43884
G1 X127.727 Y70.434 E7.44455
G1 F1056 X126.105 Y70.41 E7.51199
G1 F1200 X125.36 Y70.41 E7.53925
G1 X125.36 Y71.25 E7.56998
G1 F1109.2 X125.218 Y71.717 E7.5893
G1 F983.2 X125.145 Y71.817 E7.59483
G1 F947.9 X125.039 Y71.881 E7.60057
G1 F949.6 X124.927 Y71.934 E7.60629
G1 F1027.2 X124.7 Y71.924 E7.61601
G1 F1163 X122.56 Y71.91 E7.69679
G1 F1200 X122.56 Y72.75 E7.72752
G1 F1109.2 X122.418 Y73.217 E7.74684
G1 F985.1 X122.345 Y73.317 E7.75236
G1 F949.6 X122.239 Y73.382 E7.75811
G1 X122.127 Y73.434 E7.76382
G1 F1056 X120.505 Y73.41 E7.83126
G1 F1200 X119.76 Y73.41 E7.85852
G1 X119.76 Y74.25 E7.88925
G1 F1109.2 X119.618 Y74.717 E7.90857
G1 F983.2 X119.545 Y74.817 E7.9141
G1 F947.9 X119.439 Y74.881 E7.91983
G1 F949.6 X119.327 Y74.934 E7.92556
G1 F1027.2 X119.1 Y74.924 E7.93527
G1 F1163 X116.96 Y74.91 E8.01606
G1 F1200 X116.96 Y75.75 E8.04679
G1 F1109.2 X116.818 Y76.217 E8.06611
G1 F983.2 X116.745 Y76.317 E8.07164
G1 F947.9 X116.639 Y76.381 E8.07737
G1 F949.6 X116.527 Y76.434 E8.0831
G1 F1027.2 X116.3 Y76.424 E8.09281
G1 F1163 X114.16 Y76.41 E8.1736
G1 F1200 X114.16 Y77.25 E8.20433
G1 F1109.2 X114.018 Y77.717 E8.22365
G1 F983.2 X113.945 Y77.817 E8.22918
G1 F947.9 X113.839 Y77.881 E8.23492
G1 F949.6 X113.727 Y77.934 E8.24064
G1 F1027.2 X113.5 Y77.924 E8.25036
G1 F1163 X111.36 Y77.91 E8.33114
G1 F1200 X111.36 Y78.75 E8.36188
G1 F1109.2 X111.218 Y79.217 E8.3812
G1 F983.2 X111.145 Y79.317 E8.38672
G1 F947.9 X111.039 Y79.381 E8.39246
G1 F949.6 X110.927 Y79.434 E8.39819
G1 F1027.2 X110.7 Y79.424 E8.4079
G1 F1163 X108.56 Y79.41 E8.48869
G1 F1200 X108.56 Y80.25 E8.51942
G1 F1109.2 X108.418 Y80.717 E8.53874
G1 F983.2 X108.345 Y80.817 E8.54427
G1 F947.9 X108.239 Y80.881 E8.55
G1 F949.6 X108.127 Y80.934 E8.55573
G1 F1027.2 X107.9 Y80.924 E8.56544
G1 F1163 X105.76 Y80.91 E8.64623
G1 F1200 X105.76 Y81.75 E8.67696
G1 F1109.2 X105.618 Y82.217 E8.69628
G1 F983.2 X105.545 Y82.317 E8.70181
G1 F947.9 X105.439 Y82.381 E8.70754
G1 F949.6 X105.327 Y82.434 E8.71327
G1 F1027.2 X105.1 Y82.424 E8.72298
G1 F1163 X102.96 Y82.41 E8.80377
G1 F1200 X102.96 Y83.25 E8.8345
G1 F1109.2 X102.818 Y83.717 E8.85382
G1 F983.2 X102.745 Y83.817 E8.85935
G1 F947.9 X102.639 Y83.881 E8.86508
G1 F949.6 X102.527 Y83.934 E8.87081
G1 F1027.2 X102.3 Y83.924 E8.88052
G1 F1163 X100.16 Y83.91 E8.96131
G1 F1200 X100.16 Y84.75 E8.99204
G1 F1109.2 X100.018 Y85.217 E9.01136
G1 F983.2 X99.945 Y85.317 E9.01689
G1 F947.9 X99.839 Y85.381 E9.02262
G1 F949.6 X99.727 Y85.434 E9.02835
G1 F1027.2 X99.5 Y85.424 E9.03806
G1 F1163 X97.36 Y85.41 E9.11885
G1 F1200 X97.36 Y86.25 E9.14958
G1 F1109.2 X97.217 Y86.717 E9.16891
G1 F983.2 X97.145 Y86.817 E9.17442
G1 F949.6 X97.039 Y86.882 E9.18017
G1 X96.927 Y86.934 E9.18587
G1 F1056 X95.305 Y86.91 E9.25332
G1 F1200 X94.56 Y86.91 E9.28057
G1 X94.56 Y87.75 E9.31131
G1 F1109.2 X94.418 Y88.217 E9.33063
G1 F983.2 X94.345 Y88.317 E9.33615
G1 F947.9 X94.239 Y88.381 E9.34189
G1 F949.6 X94.127 Y88.434 E9.34762
G1 F1027.2 X93.9 Y88.424 E9.35733
G1 F1163 X91.76 Y88.41 E9.43812
G1 F1200 X91.76 Y89.25 E9.46885
G1 F1109.2 X91.617 Y89.717 E9.48818
G1 F983.2 X91.545 Y89.817 E9.49368
G1 F949.6 X91.439 Y89.882 E9.49943
G1 X91.327 Y89.934 E9.50514
G1 F1056 X89.705 Y89.91 E9.57258
G1 F1200 X88.96 Y89.91 E9.59984
G1 X88.96 Y90.75 E9.63057
G1 F1109.2 X88.818 Y91.217 E9.64989
G1 F983.2 X88.745 Y91.317 E9.65542
G1 F947.9 X88.639 Y91.381 E9.66115
G1 F949.6 X88.527 Y91.434 E9.66688
G1 F1027.2 X88.3 Y91.424 E9.67659
G1 F1163 X86.16 Y91.41 E9.75738
G1 F1200 X86.16 Y92.25 E9.78811
G1 F1109.2 X86.017 Y92.717 E9.80744
G1 F983.2 X85.945 Y92.817 E9.81294
G1 F949.6 X85.839 Y92.882 E9.81869
G1 X85.727 Y92.934 E9.8244
G1 F1056 X84.105 Y92.91 E9.89184
G1 F1200 X83.36 Y92.91 E9.9191
G1 X83.36 Y93.75 E9.94983
G1 F1109.2 X83.218 Y94.217 E9.96915
G1 F983.2 X83.145 Y94.317 E9.97468
G1 F947.9 X83.039 Y94.381 E9.98041
G1 F949.6 X82.927 Y94.434 E9.98614
G1 F1027.2 X82.7 Y94.424 E9.99585
G1 F1163 X80.56 Y94.41 E10.07664
G1 F1200 X80.56 Y95.25 E10.10737
G1 F1109.2 X80.417 Y95.717 E10.1267
G1 F983.2 X80.345 Y95.817 E10.13221
G1 F949.6 X80.239 Y95.882 E10.13796
G1 X80.127 Y95.934 E10.14366
G1 F1056 X78.505 Y95.91 E10.21111
G1 F1200 X77.76 Y95.91 E10.23836
G1 X77.76 Y96.75 E10.2691
G1 F1109.2 X77.618 Y97.217 E10.28842
G1 F983.2 X77.545 Y97.317 E10.29394
G1 F947.9 X77.439 Y97.381 E10.29968
G1 F949.6 X77.327 Y97.434 E10.30541
G1 F1027.2 X77.1 Y97.424 E10.31512
G1 F1163 X74.96 Y97.41 E10.39591
G1 F1200 X74.96 Y98.25 E10.42664
G1 F1109.2 X74.817 Y98.717 E10.44597
G1 F983.2 X74.745 Y98.817 E10.45147
G1 F949.6 X74.639 Y98.882 E10.45722
G1 X74.527 Y98.934 E10.46293
G1 F1025.2 X74.3 Y98.925 E10.47266
G1 F1160.4 X72.161 Y98.911 E10.55358
G1 F1200 X72.16 Y99.75 E10.58428
G1 F1035.3 X72.044 Y100.241 E10.60567
G1 F934.5 X71.84 Y100.382 E10.61732
G1 F954.8 X71.727 Y100.435 E10.62306
G1 F1060.2 X71.219 Y100.411 E10.64412
G1 F1200 X59.16 Y100.41 E11.08532
G1 X59.16 Y101.34 E11.11934
G1 X71.335 Y101.339 E11.56478
G1 F2400 E10.56478
G1 F240 Z0.6
G0 F6000 X72.48 Y100.18 Z0.6
G1 F240 Z0.2
G1 F2400 E11.56478
G1 F1007.6 X73.949 Y99.393 E11.63739
G1 X72.643 Y99.393 E11.69429
G1 X72.642 Y99.75 E11.70985
G1 X72.48 Y100.18 E11.72987
G1 F2400 E10.72987
G1 F240 Z0.6
G0 F6000 X75.275 Y98.684 Z0.6
G1 F240 Z0.2
G1 F2400 E11.72987
G1 F1005.7 X76.75 Y97.892 E11.80295
G1 X75.442 Y97.892 E11.86005
G1 X75.442 Y98.25 E11.87568
G1 X75.275 Y98.684 E11.89598
G1 F2400 E10.89598
G1 F240 Z0.6
G0 F6000 X78.076 Y97.184 Z0.6
G1 F240 Z0.2
G1 F2400 E11.89598
G1 F1005.7 X79.55 Y96.392 E11.96903
G1 X78.242 Y96.392 E12.02613
G1 X78.242 Y96.75 E12.04175
G1 X78.076 Y97.184 E12.06204
G1 F2400 E11.06204
G1 F240 Z0.6
G0 F6000 X80.875 Y95.684 Z0.6
G1 F240 Z0.2
G1 F2400 E12.06204
G1 F1005.7 X82.35 Y94.892 E12.13512
G1 X81.042 Y94.892 E12.19222
G1 X81.042 Y95.25 E12.20785
G1 X80.875 Y95.684 E12.22815
G1 F2400 E11.22815
G1 F240 Z0.6
G0 F6000 X83.676 Y94.184 Z0.6
G1 F240 Z0.2
G1 F2400 E12.22815
G1 F1005.7 X85.15 Y93.392 E12.3012
G1 X83.842 Y93.392 E12.3583
G1 X83.842 Y93.75 E12.37392
G1 X83.676 Y94.184 E12.39421
G1 F2400 E11.39421
G1 F240 Z0.6
G0 F6000 X86.475 Y92.684 Z0.6
G1 F240 Z0.2
G1 F2400 E12.39421
G1 F1005.7 X87.95 Y91.892 E12.46729
G1 X86.642 Y91.892 E12.52439
G1 X86.642 Y92.25 E12.54002
G1 X86.475 Y92.684 E12.56032
G1 F2400 E11.56032
G1 F240 Z0.6
G0 F6000 X89.276 Y91.184 Z0.6
G1 F240 Z0.2
G1 F2400 E12.56032
G1 F1005.7 X90.75 Y90.392 E12.63337
G1 X89.442 Y90.392 E12.69047
G1 X89.442 Y90.75 E12.70609
G1 X89.276 Y91.184 E12.72638
G1 F2400 E11.72638
G1 F240 Z0.6
G0 F6000 X92.075 Y89.684 Z0.6
G1 F240 Z0.2
G1 F2400 E12.72638
G1 F1005.7 X93.55 Y88.892 E12.79946
G1 X92.242 Y88.892 E12.85656
G1 X92.242 Y89.25 E12.87219
G1 X92.075 Y89.684 E12.89249
G1 F2400 E11.89249
G1 F240 Z0.6
G0 F6000 X94.876 Y88.184 Z0.6
G1 F240 Z0.2
G1 F2400 E12.89249
G1 F1005.7 X96.35 Y87.392 E12.96554
G1 X95.042 Y87.392 E13.02264
G1 X95.042 Y87.75 E13.03826
G1 X94.876 Y88.184 E13.05855
G1 F2400 E12.05855
G1 F240 Z0.6
G0 F6000 X97.675 Y86.684 Z0.6
G1 F240 Z0.2
G1 F2400 E13.05855
G1 F1005.7 X99.15 Y85.892 E13.13163
G1 X97.842 Y85.892 E13.18873
G1 X97.842 Y86.25 E13.20436
G1 X97.675 Y86.684 E13.22466
G1 F2400 E12.22466
G1 F240 Z0.6
G0 F6000 X100.476 Y85.184 Z0.6
G1 F240 Z0.2
G1 F2400 E13.22466
G1 F1005.7 X101.95 Y84.392 E13.29771
G1 X100.642 Y84.392 E13.35481
G1 X100.642 Y84.75 E13.37043
G1 X100.476 Y85.184 E13.39072
G1 F2400 E12.39072
G1 F240 Z0.6
G0 F6000 X103.276 Y83.684 Z0.6
G1 F240 Z0.2
G1 F2400 E13.39072
G1 F1005.7 X104.75 Y82.892 E13.46376
G1 X103.442 Y82.892 E13.52086
G1 X103.442 Y83.25 E13.53649
G1 X103.276 Y83.684 E13.55678
G1 F2400 E12.55678
G1 F240 Z0.6
G0 F6000 X106.076 Y82.184 Z0.6
G1 F240 Z0.2
G1 F2400 E13.55678
G1 F1005.7 X107.55 Y81.392 E13.62982
G1 X106.242 Y81.392 E13.68692
G1 X106.242 Y81.75 E13.70255
G1 X106.076 Y82.184 E13.72283
G1 F2400 E12.72283
G1 F240 Z0.6
G0 F6000 X108.876 Y80.684 Z0.6
G1 F240 Z0.2
G1 F2400 E13.72283
G1 F1005.7 X110.35 Y79.892 E13.79588
G1 X109.042 Y79.892 E13.85298
G1 X109.042 Y80.25 E13.86861
G1 X108.876 Y80.684 E13.88889
G1 F2400 E12.88889
G1 F240 Z0.6
G0 F6000 X111.676 Y79.184 Z0.6
G1 F240 Z0.2
G1 F2400 E13.88889
G1 F1005.7 X113.15 Y78.392 E13.96194
G1 X111.842 Y78.392 E14.01904
G1 X111.842 Y78.75 E14.03467
G1 X111.676 Y79.184 E14.05495
G1 F2400 E13.05495
G1 F240 Z0.6
G0 F6000 X114.476 Y77.684 Z0.6
G1 F240 Z0.2
G1 F2400 E14.05495
G1 F1005.7 X115.95 Y76.892 E14.128
G1 X114.642 Y76.892 E14.1851
G1 X114.642 Y77.25 E14.20072
G1 X114.476 Y77.684 E14.22101
G1 F2400 E13.22101
G1 F240 Z0.6
G0 F6000 X117.276 Y76.184 Z0.6
G1 F240 Z0.2
G1 F2400 E14.22101
G1 F1005.7 X118.75 Y75.392 E14.29406
G1 X117.442 Y75.392 E14.35115
G1 X117.442 Y75.75 E14.36678
G1 X117.276 Y76.184 E14.38707
G1 F2400 E13.38707
G1 F240 Z0.6
G0 F6000 X120.076 Y74.684 Z0.6
G1 F240 Z0.2
G1 F2400 E14.38707
G1 F1005.7 X121.55 Y73.892 E14.46011
G1 X120.242 Y73.892 E14.51721
G1 X120.242 Y74.25 E14.53284
G1 X120.076 Y74.684 E14.55312
G1 F2400 E13.55312
G1 F240 Z0.6
G0 F6000 X122.876 Y73.184 Z0.6
G1 F240 Z0.2
G1 F2400 E14.55312
G1 F1005.7 X124.35 Y72.392 E14.62617
G1 X123.042 Y72.392 E14.68327
