;FLAVOR:Marlin
;TIME:3332
;Filament used: 2.90033m
;Layer height: 0.2
;MINX:92.97
;MINY:57.22
;MINZ:0.2
;MAXX:107.03
;MAXY:122.78
;MAXZ:33
;Generated with Cura_SteamEngine 5.4.0
M140 S60
M105
M190 S60
M104 S200
M105
M109 S200
M82 ;absolute extrusion mode
G28 ; home all axes
 M117 Purge extruder
 G92 E0 ; reset extruder
 G1 Z1.0 F3000 ; move z up little to prevent scratching of surface
 G1 X2 Y20 Z0.3 F5000.0 ; move to start-line position
 G1 X2 Y175.0 Z0.3 F1500.0 E15 ; draw 1st line
 G1 X2 Y175.0 Z0.4 F5000.0 ; move to side a little
 G1 X2 Y20 Z0.4 F1500.0 E30 ; draw 2nd line
 G92 E0 ; reset extruder
 G1 Z1.0 F3000 ; move z up little to prevent scratching of surface
G92 E0
G92 E0
G1 F2400 E-1
;LAYER_COUNT:165
;LAYER:0
M107
G1 F240 Z0.6
;MESH:Stair5.stl
G0 F6000 X106.15 Y121.9 Z0.6
;TYPE:WALL-INNER
G1 F240 Z0.2
G1 F2400 E0
G1 F1200 X106.15 Y58.1 E2.3342
G1 X93.85 Y58.1 E2.78421
G1 X93.85 Y121.9 E5.1184
G1 X106.15 Y121.9 E5.56841
G0 F6000 X106.59 Y122.34
G1 F1200 X106.59 Y57.66 E7.9348
G1 X93.41 Y57.66 E8.41701
G1 X93.41 Y122.34 E10.7834
G1 X106.59 Y122.34 E11.26561
G0 F6000 X107.03 Y122.78
;TYPE:WALL-OUTER
G1 F1200 X107.03 Y57.22 E13.66419
G1 X92.97 Y57.22 E14.1786
G1 X92.97 Y122.78 E16.57718
G1 X107.03 Y122.78 E17.09159
G1 F2400 E16.09159
G1 F240 Z0.6
G0 F6000 X105.754 Y121.504 Z0.6
;TYPE:SKIN
G1 F240 Z0.2
G1 F2400 E17.09159
G1 F1200 X94.246 Y121.504 E17.51262
G1 X94.246 Y58.496 E19.81784
G1 X105.754 Y58.496 E20.23887
G1 X105.754 Y121.504 E22.54409
G1 F2400 E21.54409
G1 F240 Z0.6
G0 F6000 X95.148 Y121.282 Z0.6
G1 F240 Z0.2
G1 F2400 E22.54409
G1 F1200 X94.465 Y120.6 E22.57941
G0 F6000 X94.465 Y119.978
G1 F1200 X95.77 Y121.282 E22.6469
G0 F6000 X96.392 Y121.282
G1 F1200 X94.465 Y119.356 E22.74658
G0 F6000 X94.465 Y118.733
G1 F1200 X97.015 Y121.282 E22.87849
G0 F6000 X97.637 Y121.282
G1 F1200 X94.465 Y118.111 E23.04259
G0 F6000 X94.465 Y117.489
G1 F1200 X98.259 Y121.282 E23.23887
G0 F6000 X98.881 Y121.282
G1 F1200 X94.465 Y116.867 E23.46733
G0 F6000 X94.465 Y116.244
G1 F1200 X99.504 Y121.282 E23.72802
G0 F6000 X100.126 Y121.282
G1 F1200 X94.465 Y115.622 E24.0209
G0 F6000 X94.465 Y115
G1 F1200 X100.748 Y121.282 E24.34596
G0 F6000 X101.37 Y121.282
G1 F1200 X94.465 Y114.378 E24.7032
G0 F6000 X94.465 Y113.755
G1 F1200 X101.993 Y121.282 E25.09268
G0 F6000 X102.615 Y121.282
G1 F1200 X94.465 Y113.133 E25.51434
G0 F6000 X94.465 Y112.511
G1 F1200 X103.237 Y121.282 E25.96818
G0 F6000 X103.859 Y121.282
G1 F1200 X94.465 Y111.889 E26.45421
G0 F6000 X94.465 Y111.266
G1 F1200 X104.482 Y121.282 E26.97247
G0 F6000 X105.104 Y121.282
G1 F1200 X94.465 Y110.644 E27.52291
G0 F6000 X94.465 Y110.022
G1 F1200 X105.534 Y121.09 E28.0956
G0 F6000 X105.534 Y120.468
G1 F1200 X94.465 Y109.4 E28.66829
G0 F6000 X94.465 Y108.777
G1 F1200 X105.534 Y119.846 E29.24101
G0 F6000 X105.534 Y119.223
G1 F1200 X94.465 Y108.155 E29.8137
G0 F6000 X94.465 Y107.533
G1 F1200 X105.534 Y118.601 E30.38639
G0 F6000 X105.534 Y117.979
G1 F1200 X94.465 Y106.911 E30.95908
G0 F6000 X94.465 Y106.288
G1 F1200 X105.534 Y117.357 E31.5318
G0 F6000 X105.534 Y116.734
G1 F1200 X94.465 Y105.666 E32.10449
G0 F6000 X94.465 Y105.044
G1 F1200 X105.534 Y116.112 E32.67718
G0 F6000 X105.534 Y115.49
G1 F1200 X94.465 Y104.421 E33.2499
G0 F6000 X94.465 Y103.799
G1 F1200 X105.534 Y114.868 E33.82262
G0 F6000 X105.534 Y114.245
G1 F1200 X94.465 Y103.177 E34.39531
G0 F6000 X94.465 Y102.555
G1 F1200 X105.534 Y113.623 E34.968
G0 F6000 X105.534 Y113.001
G1 F1200 X94.465 Y101.932 E35.54072
G0 F6000 X94.465 Y101.31
G1 F1200 X105.534 Y112.379 E36.11343
G0 F6000 X105.534 Y111.756
G1 F1200 X94.465 Y100.688 E36.68612
G0 F6000 X94.465 Y100.066
G1 F1200 X105.534 Y111.134 E37.25882
G0 F6000 X105.534 Y110.512
G1 F1200 X94.465 Y99.443 E37.83153
G0 F6000 X94.465 Y98.821
G1 F1200 X105.534 Y109.89 E38.40425
G0 F6000 X105.534 Y109.267
G1 F1200 X94.465 Y98.199 E38.97694
G0 F6000 X94.465 Y97.577
G1 F1200 X105.534 Y108.645 E39.54963
G0 F6000 X105.534 Y108.023
G1 F1200 X94.465 Y96.954 E40.12235
G0 F6000 X94.465 Y96.332
G1 F1200 X105.534 Y107.401 E40.69507
G0 F6000 X105.534 Y106.778
G1 F1200 X94.465 Y95.71 E41.26776
G0 F6000 X94.465 Y95.088
G1 F1200 X105.534 Y106.156 E41.84045
G0 F6000 X105.534 Y105.534
G1 F1200 X94.465 Y94.465 E42.41317
G0 F6000 X94.465 Y93.843
G1 F1200 X105.534 Y104.912 E42.98588
G0 F6000 X105.534 Y104.289
G1 F1200 X94.465 Y93.221 E43.55857
G0 F6000 X94.465 Y92.599
G1 F1200 X105.534 Y103.667 E44.13126
G0 F6000 X105.534 Y103.045
G1 F1200 X94.465 Y91.976 E44.70398
G0 F6000 X94.465 Y91.354
G1 F1200 X105.534 Y102.423 E45.2767
G0 F6000 X105.534 Y101.8
G1 F1200 X94.465 Y90.732 E45.84939
G0 F6000 X94.465 Y90.11
G1 F1200 X105.534 Y101.178 E46.42208
G0 F6000 X105.534 Y100.556
G1 F1200 X94.465 Y89.487 E46.9948
G0 F6000 X94.465 Y88.865
G1 F1200 X105.534 Y99.933 E47.56749
G0 F6000 X105.534 Y99.311
G1 F1200 X94.465 Y88.243 E48.14018
G0 F6000 X94.465 Y87.621
G1 F1200 X105.534 Y98.689 E48.71287
G0 F6000 X105.534 Y98.067
G1 F1200 X94.465 Y86.998 E49.28559
G0 F6000 X94.465 Y86.376
G1 F1200 X105.534 Y97.444 E49.85828
G0 F6000 X105.534 Y96.822
G1 F1200 X94.465 Y85.754 E50.43097
G0 F6000 X94.465 Y85.132
G1 F1200 X105.534 Y96.2 E51.00366
G0 F6000 X105.534 Y95.578
G1 F1200 X94.465 Y84.509 E51.57638
G0 F6000 X94.465 Y83.887
G1 F1200 X105.534 Y94.955 E52.14907
G0 F6000 X105.534 Y94.333
G1 F1200 X94.465 Y83.265 E52.72176
G0 F6000 X94.465 Y82.643
G1 F1200 X105.534 Y93.711 E53.29445
G0 F6000 X105.534 Y93.089
G1 F1200 X94.465 Y82.02 E53.86717
G0 F6000 X94.465 Y81.398
G1 F1200 X105.534 Y92.466 E54.43986
G0 F6000 X105.534 Y91.844
G1 F1200 X94.465 Y80.776 E55.01255
G0 F6000 X94.465 Y80.154
G1 F1200 X105.534 Y91.222 E55.58524
G0 F6000 X105.534 Y90.6
G1 F1200 X94.465 Y79.531 E56.15796
G0 F6000 X94.465 Y78.909
G1 F1200 X105.534 Y89.977 E56.73065
G0 F6000 X105.534 Y89.355
G1 F1200 X94.465 Y78.287 E57.30334
G0 F6000 X94.465 Y77.665
G1 F1200 X105.534 Y88.733 E57.87603
G0 F6000 X105.534 Y88.111
G1 F1200 X94.465 Y77.042 E58.44875
G0 F6000 X94.465 Y76.42
G1 F1200 X105.534 Y87.488 E59.02144
G0 F6000 X105.534 Y86.866
G1 F1200 X94.465 Y75.798 E59.59413
G0 F6000 X94.465 Y75.176
G1 F1200 X105.534 Y86.244 E60.16682
G0 F6000 X105.534 Y85.622
G1 F1200 X94.465 Y74.553 E60.73954
G0 F6000 X94.465 Y73.931
G1 F1200 X105.534 Y84.999 E61.31223
G0 F6000 X105.534 Y84.377
G1 F1200 X94.465 Y73.309 E61.88492
G0 F6000 X94.465 Y72.687
G1 F1200 X105.534 Y83.755 E62.45761
G0 F6000 X105.534 Y83.133
G1 F1200 X94.465 Y72.064 E63.03033
G0 F6000 X94.465 Y71.442
G1 F1200 X105.534 Y82.51 E63.60302
G0 F6000 X105.534 Y81.888
G1 F1200 X94.465 Y70.82 E64.17571
G0 F6000 X94.465 Y70.198
G1 F1200 X105.534 Y81.266 E64.7484
G0 F6000 X105.534 Y80.644
G1 F1200 X94.465 Y69.575 E65.32112
G0 F6000 X94.465 Y68.953
G1 F1200 X105.534 Y80.021 E65.89381
G0 F6000 X105.534 Y79.399
G1 F1200 X94.465 Y68.331 E66.4665
G0 F6000 X94.465 Y67.709
G1 F1200 X105.534 Y78.777 E67.03919
G0 F6000 X105.534 Y78.155
G1 F1200 X94.465 Y67.086 E67.61191
G0 F6000 X94.465 Y66.464
G1 F1200 X105.534 Y77.532 E68.1846
G0 F6000 X105.534 Y76.91
G1 F1200 X94.465 Y65.842 E68.75729
G0 F6000 X94.465 Y65.219
G1 F1200 X105.534 Y76.288 E69.33001
G0 F6000 X105.534 Y75.666
G1 F1200 X94.465 Y64.597 E69.90273
G0 F6000 X94.465 Y63.975
G1 F1200 X105.534 Y75.043 E70.47542
G0 F6000 X105.534 Y74.421
G1 F1200 X94.465 Y63.353 E71.04811
G0 F6000 X94.465 Y62.73
G1 F1200 X105.534 Y73.799 E71.62083
G0 F6000 X105.534 Y73.177
G1 F1200 X94.465 Y62.108 E72.19354
G0 F6000 X94.465 Y61.486
G1 F1200 X105.534 Y72.554 E72.76624
G0 F6000 X105.534 Y71.932
G1 F1200 X94.465 Y60.864 E73.33893
G0 F6000 X94.465 Y60.241
G1 F1200 X105.534 Y71.31 E73.91164
G0 F6000 X105.534 Y70.688
G1 F1200 X94.465 Y59.619 E74.48436
G0 F6000 X94.465 Y58.997
G1 F1200 X105.534 Y70.065 E75.05705
G0 F6000 X105.534 Y69.443
G1 F1200 X94.806 Y58.716 E75.6121
G0 F6000 X95.429 Y58.716
G1 F1200 X105.534 Y68.821 E76.13494
G0 F6000 X105.534 Y68.199
G1 F1200 X96.051 Y58.716 E76.62559
G0 F6000 X96.673 Y58.716
G1 F1200 X105.534 Y67.576 E77.08404
G0 F6000 X105.534 Y66.954
G1 F1200 X97.295 Y58.716 E77.51031
G0 F6000 X97.918 Y58.716
G1 F1200 X105.534 Y66.332 E77.90436
G0 F6000 X105.534 Y65.71
G1 F1200 X98.54 Y58.716 E78.26624
G0 F6000 X99.162 Y58.716
G1 F1200 X105.534 Y65.087 E78.5959
G0 F6000 X105.534 Y64.465
G1 F1200 X99.784 Y58.716 E78.89339
G0 F6000 X100.407 Y58.716
G1 F1200 X105.534 Y63.843 E79.15866
G0 F6000 X105.534 Y63.221
G1 F1200 X101.029 Y58.716 E79.39175
G0 F6000 X101.651 Y58.716
G1 F1200 X105.534 Y62.598 E79.59264
G0 F6000 X105.534 Y61.976
G1 F1200 X102.273 Y58.716 E79.76134
G0 F6000 X102.896 Y58.716
G1 F1200 X105.534 Y61.354 E79.89783
G0 F6000 X105.534 Y60.731
G1 F1200 X103.518 Y58.716 E80.00211
G0 F6000 X104.14 Y58.716
G1 F1200 X105.534 Y60.109 E80.07421
G0 F6000 X105.534 Y59.487
G1 F1200 X104.762 Y58.716 E80.11413
G0 F6000 X105.385 Y58.716
G1 F1200 X105.534 Y58.865 E80.12184
G1 F2400 E79.12184
G1 F240 Z0.6
;MESH:NONMESH
G0 F6000 X106.15 Y121.9 Z0.6
;TIME_ELAPSED:126.714531
;LAYER:1
M106 S85
;MESH:Stair5.stl
G0 F7500 X106.15 Y121.9 Z0.8
;TYPE:WALL-INNER
G1 F240 Z0.4
G1 F2400 E80.12184
G1 F1500 X106.15 Y58.1 E82.45603
G1 X93.85 Y58.1 E82.90604
G1 X93.85 Y121.9 E85.24024
G1 X106.15 Y121.9 E85.69025
G0 F7500 X106.59 Y122.34
G1 F1500 X106.59 Y57.66 E88.05664
G1 X93.41 Y57.66 E88.53885
G1 X93.41 Y122.34 E90.90524
G1 X106.59 Y122.34 E91.38745
G0 F7500 X107.03 Y122.78
;TYPE:WALL-OUTER
G1 F1500 X107.03 Y57.22 E93.78603
G1 X92.97 Y57.22 E94.30043
G1 X92.97 Y122.78 E96.69902
G1 X107.03 Y122.78 E97.21342
G1 F2400 E96.21342
G1 F240 Z0.8
G0 F7500 X105.754 Y121.504 Z0.8
;TYPE:SKIN
G1 F240 Z0.4
G1 F2400 E97.21342
G1 F1500 X94.246 Y121.504 E97.63446
G1 X94.246 Y58.496 E99.93968
G1 X105.754 Y58.496 E100.36071
G1 X105.754 Y121.504 E102.66593
G0 F7500 X105.216 Y121.283
G1 F1500 X105.533 Y120.966 E102.68233
G0 F7500 X105.533 Y120.344
G1 F1500 X104.594 Y121.283 E102.73092
G0 F7500 X103.972 Y121.283
G1 F1500 X105.533 Y119.722 E102.81168
G0 F7500 X105.533 Y119.1
G1 F1500 X103.35 Y121.283 E102.92463
G0 F7500 X102.727 Y121.283
G1 F1500 X105.533 Y118.477 E103.06982
G0 F7500 X105.533 Y117.855
G1 F1500 X102.105 Y121.283 E103.24718
G0 F7500 X101.483 Y121.283
G1 F1500 X105.533 Y117.233 E103.45673
G0 F7500 X105.533 Y116.611
G1 F1500 X100.861 Y121.283 E103.69847
G0 F7500 X100.238 Y121.283
G1 F1500 X105.533 Y115.988 E103.97243
G0 F7500 X105.533 Y115.366
G1 F1500 X99.616 Y121.283 E104.27858
G0 F7500 X98.994 Y121.283
G1 F1500 X105.533 Y114.744 E104.61691
G0 F7500 X105.533 Y114.122
G1 F1500 X98.371 Y121.283 E104.98745
G0 F7500 X97.749 Y121.283
G1 F1500 X105.533 Y113.499 E105.3902
G0 F7500 X105.533 Y112.877
G1 F1500 X97.127 Y121.283 E105.82514
G0 F7500 X96.505 Y121.283
G1 F1500 X105.533 Y112.255 E106.29225
G0 F7500 X105.533 Y111.633
G1 F1500 X95.882 Y121.283 E106.79157
G0 F7500 X95.26 Y121.283
G1 F1500 X105.533 Y111.01 E107.3231
G0 F7500 X105.533 Y110.388
G1 F1500 X94.638 Y121.283 E107.88682
G0 F7500 X94.465 Y120.833
G1 F1500 X105.533 Y109.766 E108.45946
G0 F7500 X105.533 Y109.144
G1 F1500 X94.465 Y120.211 E109.0321
G0 F7500 X94.465 Y119.589
G1 F1500 X105.533 Y108.521 E109.60476
G0 F7500 X105.533 Y107.899
G1 F1500 X94.465 Y118.967 E110.17743
G0 F7500 X94.465 Y118.344
G1 F1500 X105.533 Y107.277 E110.75007
G0 F7500 X105.533 Y106.655
G1 F1500 X94.465 Y117.722 E111.32271
G0 F7500 X94.465 Y117.1
G1 F1500 X105.533 Y106.032 E111.89537
G0 F7500 X105.533 Y105.41
G1 F1500 X94.465 Y116.478 E112.46804
G0 F7500 X94.465 Y115.855
G1 F1500 X105.533 Y104.788 E113.04068
G0 F7500 X105.533 Y104.166
G1 F1500 X94.465 Y115.233 E113.61332
G0 F7500 X94.465 Y114.611
G1 F1500 X105.533 Y103.543 E114.18598
G0 F7500 X105.533 Y102.921
G1 F1500 X94.465 Y113.989 E114.75865
G0 F7500 X94.465 Y113.366
G1 F1500 X105.533 Y102.299 E115.33129
G0 F7500 X105.533 Y101.677
G1 F1500 X94.465 Y112.744 E115.90393
G0 F7500 X94.465 Y112.122
G1 F1500 X105.533 Y101.054 E116.47659
G0 F7500 X105.533 Y100.432
G1 F1500 X94.465 Y111.5 E117.04926
G0 F7500 X94.465 Y110.877
G1 F1500 X105.533 Y99.81 E117.6219
G0 F7500 X105.533 Y99.187
G1 F1500 X94.465 Y110.255 E118.19456
G0 F7500 X94.465 Y109.633
G1 F1500 X105.533 Y98.565 E118.76723
G0 F7500 X105.533 Y97.943
G1 F1500 X94.465 Y109.011 E119.33989
G0 F7500 X94.465 Y108.388
G1 F1500 X105.533 Y97.321 E119.91253
G0 F7500 X105.533 Y96.698
G1 F1500 X94.465 Y107.766 E120.4852
G0 F7500 X94.465 Y107.144
G1 F1500 X105.533 Y96.076 E121.05786
G0 F7500 X105.533 Y95.454
G1 F1500 X94.465 Y106.522 E121.63053
G0 F7500 X94.465 Y105.899
G1 F1500 X105.533 Y94.832 E122.20317
G0 F7500 X105.533 Y94.209
G1 F1500 X94.465 Y105.277 E122.77583
G0 F7500 X94.465 Y104.655
G1 F1500 X105.533 Y93.587 E123.3485
G0 F7500 X105.533 Y92.965
G1 F1500 X94.465 Y104.033 E123.92116
G0 F7500 X94.465 Y103.41
G1 F1500 X105.533 Y92.343 E124.4938
G0 F7500 X105.533 Y91.72
G1 F1500 X94.465 Y102.788 E125.06647
G0 F7500 X94.465 Y102.166
G1 F1500 X105.533 Y91.098 E125.63913
G0 F7500 X105.533 Y90.476
G1 F1500 X94.465 Y101.544 E126.2118
G0 F7500 X94.465 Y100.921
G1 F1500 X105.533 Y89.854 E126.78444
G0 F7500 X105.533 Y89.231
G1 F1500 X94.465 Y100.299 E127.3571
G0 F7500 X94.465 Y99.677
G1 F1500 X105.533 Y88.609 E127.92977
G0 F7500 X105.533 Y87.987
G1 F1500 X94.465 Y99.055 E128.50243
G0 F7500 X94.465 Y98.432
G1 F1500 X105.533 Y87.365 E129.07507
G0 F7500 X105.533 Y86.742
G1 F1500 X94.465 Y97.81 E129.64774
G0 F7500 X94.465 Y97.188
G1 F1500 X105.533 Y86.12 E130.2204
G0 F7500 X105.533 Y85.498
G1 F1500 X94.465 Y96.566 E130.79307
G0 F7500 X94.465 Y95.943
G1 F1500 X105.533 Y84.876 E131.36571
G0 F7500 X105.533 Y84.253
G1 F1500 X94.465 Y95.321 E131.93837
G0 F7500 X94.465 Y94.699
G1 F1500 X105.533 Y83.631 E132.51104
G0 F7500 X105.533 Y83.009
G1 F1500 X94.465 Y94.077 E133.0837
G0 F7500 X94.465 Y93.454
G1 F1500 X105.533 Y82.387 E133.65634
G0 F7500 X105.533 Y81.764
G1 F1500 X94.465 Y92.832 E134.22901
G0 F7500 X94.465 Y92.21
G1 F1500 X105.533 Y81.142 E134.80167
G0 F7500 X105.533 Y80.52
G1 F1500 X94.465 Y91.588 E135.37434
G0 F7500 X94.465 Y90.965
G1 F1500 X105.533 Y79.898 E135.94698
G0 F7500 X105.533 Y79.275
G1 F1500 X94.465 Y90.343 E136.51964
G0 F7500 X94.465 Y89.721
G1 F1500 X105.533 Y78.653 E137.09231
G0 F7500 X105.533 Y78.031
G1 F1500 X94.465 Y89.098 E137.66495
G0 F7500 X94.465 Y88.476
G1 F1500 X105.533 Y77.409 E138.23759
G0 F7500 X105.533 Y76.786
G1 F1500 X94.465 Y87.854 E138.81025
G0 F7500 X94.465 Y87.232
G1 F1500 X105.533 Y76.164 E139.38292
G0 F7500 X105.533 Y75.542
G1 F1500 X94.465 Y86.609 E139.95556
G0 F7500 X94.465 Y85.987
G1 F1500 X105.533 Y74.92 E140.5282
G0 F7500 X105.533 Y74.297
G1 F1500 X94.465 Y85.365 E141.10086
G0 F7500 X94.465 Y84.743
G1 F1500 X105.533 Y73.675 E141.67353
G0 F7500 X105.533 Y73.053
G1 F1500 X94.465 Y84.12 E142.24617
G0 F7500 X94.465 Y83.498
G1 F1500 X105.533 Y72.431 E142.8188
G0 F7500 X105.533 Y71.808
G1 F1500 X94.465 Y82.876 E143.39147
G0 F7500 X94.465 Y82.254
G1 F1500 X105.533 Y71.186 E143.96414
G0 F7500 X105.533 Y70.564
G1 F1500 X94.465 Y81.631 E144.53677
G0 F7500 X94.465 Y81.009
G1 F1500 X105.533 Y69.942 E145.10941
G0 F7500 X105.533 Y69.319
G1 F1500 X94.465 Y80.387 E145.68208
G0 F7500 X94.465 Y79.765
G1 F1500 X105.533 Y68.697 E146.25474
G0 F7500 X105.533 Y68.075
G1 F1500 X94.465 Y79.142 E146.82738
G0 F7500 X94.465 Y78.52
G1 F1500 X105.533 Y67.453 E147.40002
G0 F7500 X105.533 Y66.83
G1 F1500 X94.465 Y77.898 E147.97269
G0 F7500 X94.465 Y77.276
G1 F1500 X105.533 Y66.208 E148.54535
G0 F7500 X105.533 Y65.586
G1 F1500 X94.465 Y76.653 E149.11799
G0 F7500 X94.465 Y76.031
G1 F1500 X105.533 Y64.964 E149.69063
G0 F7500 X105.533 Y64.341
G1 F1500 X94.465 Y75.409 E150.2633
G0 F7500 X94.465 Y74.787
G1 F1500 X105.533 Y63.719 E150.83596
G0 F7500 X105.533 Y63.097
G1 F1500 X94.465 Y74.164 E151.4086
G0 F7500 X94.465 Y73.542
G1 F1500 X105.533 Y62.475 E151.98124
G0 F7500 X105.533 Y61.852
G1 F1500 X94.465 Y72.92 E152.55391
G0 F7500 X94.465 Y72.298
G1 F1500 X105.533 Y61.23 E153.12657
G0 F7500 X105.533 Y60.608
G1 F1500 X94.465 Y71.675 E153.69921
G0 F7500 X94.465 Y71.053
G1 F1500 X105.533 Y59.985 E154.27188
G0 F7500 X105.533 Y59.363
G1 F1500 X94.465 Y70.431 E154.84454
G0 F7500 X94.465 Y69.809
G1 F1500 X105.533 Y58.741 E155.41721
G0 F7500 X104.936 Y58.716
