;FLAVOR:Marlin
;TIME:13130
;Filament used: 11.4863m
;Layer height: 0.2
;MINX:71.86
;MINY:47.402
;MINZ:0.2
;MAXX:129.02
;MAXY:131.722
;MAXZ:55.4
;Generated with Cura_SteamEngine 5.4.0
M140 S60
M105
M190 S60
M104 S200
M105
M109 S200
M82 ;absolute extrusion mode
G28 ; home all axes
 M117 Purge extruder
 G92 E0 ; reset extruder
 G1 Z1.0 F3000 ; move z up little to prevent scratching of surface
 G1 X2 Y20 Z0.3 F5000.0 ; move to start-line position
 G1 X2 Y175.0 Z0.3 F1500.0 E15 ; draw 1st line
 G1 X2 Y175.0 Z0.4 F5000.0 ; move to side a little
 G1 X2 Y20 Z0.4 F1500.0 E30 ; draw 2nd line
 G92 E0 ; reset extruder
 G1 Z1.0 F3000 ; move z up little to prevent scratching of surface
G92 E0
G92 E0
G1 F2400 E-1
;LAYER_COUNT:277
;LAYER:0
M107
G1 F240 Z0.6
G0 F6000 X120.86 Y51.802 Z0.6
;TYPE:SUPPORT
G1 F240 Z0.2
G1 F2400 E0
G1 F1200 X120.86 Y65.902 E0.51586
G1 X120.851 Y66.016 E0.52005
G1 X120.833 Y66.093 E0.52294
G1 X120.756 Y66.26 E0.52967
G1 X120.646 Y66.39 E0.5359
G1 X120.521 Y66.48 E0.54154
G1 X120.392 Y66.534 E0.54665
G1 X120.2 Y66.562 E0.55375
G1 X119.1 Y66.562 E0.594
G1 X119.1 Y127.322 E2.81697
G1 X124.62 Y127.322 E3.01893
G1 X124.62 Y51.802 E5.78191
G1 X120.86 Y51.802 E5.91948
G0 F6000 X120.42 Y51.362
G1 F1200 X120.417 Y65.94 E6.45283
G1 X120.386 Y66.022 E6.45604
G1 X120.349 Y66.065 E6.45811
G1 X120.264 Y66.113 E6.46168
G1 X120.2 Y66.122 E6.46405
G1 X118.66 Y66.122 E6.52039
G1 X118.66 Y127.762 E8.77556
G1 X125.06 Y127.762 E9.00971
G1 X125.06 Y51.362 E11.80489
G1 X120.42 Y51.362 E11.97465
G0 F6000 X121 Y51.89
G1 F1200 X121 Y127.234 E14.7312
G1 F2400 E13.7312
G1 F240 Z0.6
G0 F6000 X123.2 Y127.234 Z0.6
G1 F240 Z0.2
G1 F2400 E14.7312
G1 F1200 X123.2 Y51.89 E17.48775
G1 F2400 E16.48775
G1 F240 Z0.6
G0 F6000 X124.532 Y52.8 Z0.6
G1 F240 Z0.2
G1 F2400 E17.48775
G1 F1200 X120.948 Y52.8 E17.61887
G1 F2400 E16.61887
G1 F240 Z0.6
G0 F6000 X120.948 Y55 Z0.6
G1 F240 Z0.2
G1 F2400 E17.61887
G1 F1200 X124.532 Y55 E17.75
G1 F2400 E16.75
G1 F240 Z0.6
G0 F6000 X124.532 Y57.2 Z0.6
G1 F240 Z0.2
G1 F2400 E17.75
G1 F1200 X120.948 Y57.2 E17.88112
G1 F2400 E16.88112
G1 F240 Z0.6
G0 F6000 X120.948 Y59.4 Z0.6
G1 F240 Z0.2
G1 F2400 E17.88112
G1 F1200 X124.532 Y59.4 E18.01225
G1 F2400 E17.01225
G1 F240 Z0.6
G0 F6000 X124.532 Y61.6 Z0.6
G1 F240 Z0.2
G1 F2400 E18.01225
G1 F1200 X120.948 Y61.6 E18.14337
G1 F2400 E17.14337
G1 F240 Z0.6
G0 F6000 X120.948 Y63.8 Z0.6
G1 F240 Z0.2
G1 F2400 E18.14337
G1 F1200 X124.532 Y63.8 E18.27449
G1 F2400 E17.27449
G1 F240 Z0.6
G0 F6000 X124.532 Y66 Z0.6
G1 F240 Z0.2
G1 F2400 E18.27449
G1 F1200 X120.939 Y66 E18.40595
G1 F2400 E17.40595
G1 F240 Z0.6
G0 F6000 X119.188 Y68.2 Z0.6
G1 F240 Z0.2
G1 F2400 E18.40595
G1 F1200 X124.532 Y68.2 E18.60146
G1 F2400 E17.60146
G1 F240 Z0.6
G0 F6000 X124.532 Y70.4 Z0.6
G1 F240 Z0.2
G1 F2400 E18.60146
G1 F1200 X119.188 Y70.4 E18.79698
G1 F2400 E17.79698
G1 F240 Z0.6
G0 F6000 X119.188 Y72.6 Z0.6
G1 F240 Z0.2
G1 F2400 E18.79698
G1 F1200 X124.532 Y72.6 E18.9925
G1 F2400 E17.9925
G1 F240 Z0.6
G0 F6000 X124.532 Y74.8 Z0.6
G1 F240 Z0.2
G1 F2400 E18.9925
G1 F1200 X119.188 Y74.8 E19.18801
G1 F2400 E18.18801
G1 F240 Z0.6
G0 F6000 X119.188 Y77 Z0.6
G1 F240 Z0.2
G1 F2400 E19.18801
G1 F1200 X124.532 Y77 E19.38353
G1 F2400 E18.38353
G1 F240 Z0.6
G0 F6000 X124.532 Y79.2 Z0.6
G1 F240 Z0.2
G1 F2400 E19.38353
G1 F1200 X119.188 Y79.2 E19.57905
G1 F2400 E18.57905
G1 F240 Z0.6
G0 F6000 X119.188 Y81.4 Z0.6
G1 F240 Z0.2
G1 F2400 E19.57905
G1 F1200 X124.532 Y81.4 E19.77456
G1 F2400 E18.77456
G1 F240 Z0.6
G0 F6000 X124.532 Y83.6 Z0.6
G1 F240 Z0.2
G1 F2400 E19.77456
G1 F1200 X119.188 Y83.6 E19.97008
G1 F2400 E18.97008
G1 F240 Z0.6
G0 F6000 X119.188 Y85.8 Z0.6
G1 F240 Z0.2
G1 F2400 E19.97008
G1 F1200 X124.532 Y85.8 E20.1656
G1 F2400 E19.1656
G1 F240 Z0.6
G0 F6000 X124.532 Y88 Z0.6
G1 F240 Z0.2
G1 F2400 E20.1656
G1 F1200 X119.188 Y88 E20.36111
G1 F2400 E19.36111
G1 F240 Z0.6
G0 F6000 X119.188 Y90.2 Z0.6
G1 F240 Z0.2
G1 F2400 E20.36111
G1 F1200 X124.532 Y90.2 E20.55663
G1 F2400 E19.55663
G1 F240 Z0.6
G0 F6000 X124.532 Y92.4 Z0.6
G1 F240 Z0.2
G1 F2400 E20.55663
G1 F1200 X119.188 Y92.4 E20.75215
G1 F2400 E19.75215
G1 F240 Z0.6
G0 F6000 X119.188 Y94.6 Z0.6
G1 F240 Z0.2
G1 F2400 E20.75215
G1 F1200 X124.532 Y94.6 E20.94766
G1 F2400 E19.94766
G1 F240 Z0.6
G0 F6000 X124.532 Y96.8 Z0.6
G1 F240 Z0.2
G1 F2400 E20.94766
G1 F1200 X119.188 Y96.8 E21.14318
G1 F2400 E20.14318
G1 F240 Z0.6
G0 F6000 X119.188 Y99 Z0.6
G1 F240 Z0.2
G1 F2400 E21.14318
G1 F1200 X124.532 Y99 E21.33869
G1 F2400 E20.33869
G1 F240 Z0.6
G0 F6000 X124.532 Y101.2 Z0.6
G1 F240 Z0.2
G1 F2400 E21.33869
G1 F1200 X119.188 Y101.2 E21.53421
G1 F2400 E20.53421
G1 F240 Z0.6
G0 F6000 X119.188 Y103.4 Z0.6
G1 F240 Z0.2
G1 F2400 E21.53421
G1 F1200 X124.532 Y103.4 E21.72973
G1 F2400 E20.72973
G1 F240 Z0.6
G0 F6000 X124.532 Y105.6 Z0.6
G1 F240 Z0.2
G1 F2400 E21.72973
G1 F1200 X119.188 Y105.6 E21.92524
G1 F2400 E20.92524
G1 F240 Z0.6
G0 F6000 X119.188 Y107.8 Z0.6
G1 F240 Z0.2
G1 F2400 E21.92524
G1 F1200 X124.532 Y107.8 E22.12076
G1 F2400 E21.12076
G1 F240 Z0.6
G0 F6000 X124.532 Y110 Z0.6
G1 F240 Z0.2
G1 F2400 E22.12076
G1 F1200 X119.188 Y110 E22.31628
G1 F2400 E21.31628
G1 F240 Z0.6
G0 F6000 X119.188 Y112.2 Z0.6
G1 F240 Z0.2
G1 F2400 E22.31628
G1 F1200 X124.532 Y112.2 E22.51179
G1 F2400 E21.51179
G1 F240 Z0.6
G0 F6000 X124.532 Y114.4 Z0.6
G1 F240 Z0.2
G1 F2400 E22.51179
G1 F1200 X119.188 Y114.4 E22.70731
G1 F2400 E21.70731
G1 F240 Z0.6
G0 F6000 X119.188 Y116.6 Z0.6
G1 F240 Z0.2
G1 F2400 E22.70731
G1 F1200 X124.532 Y116.6 E22.90283
G1 F2400 E21.90283
G1 F240 Z0.6
G0 F6000 X124.532 Y118.8 Z0.6
G1 F240 Z0.2
G1 F2400 E22.90283
G1 F1200 X119.188 Y118.8 E23.09834
G1 F2400 E22.09834
G1 F240 Z0.6
G0 F6000 X119.187 Y121 Z0.6
G1 F240 Z0.2
G1 F2400 E23.09834
G1 F1200 X124.531 Y121 E23.29386
G1 F2400 E22.29386
G1 F240 Z0.6
G0 F6000 X124.531 Y123.2 Z0.6
G1 F240 Z0.2
G1 F2400 E23.29386
G1 F1200 X119.187 Y123.2 E23.48937
G1 F2400 E22.48937
G1 F240 Z0.6
G0 F6000 X119.187 Y125.4 Z0.6
G1 F240 Z0.2
G1 F2400 E23.48937
G1 F1200 X124.531 Y125.4 E23.68489
G1 F2400 E22.68489
G1 F240 Z0.6
;MESH:Stair2.stl
G0 F6000 X95.24 Y124.055 Z0.6
;TYPE:WALL-INNER
G1 F240 Z0.2
G1 F2400 E23.68489
G1 F1200 X108.04 Y124.055 E24.15319
G1 X108.04 Y99.255 E25.06053
G1 X95.24 Y99.255 E25.52883
G1 X95.24 Y124.055 E26.43617
G0 F6000 X94.8 Y124.495
G1 F1200 X108.48 Y124.495 E26.93667
G1 X108.48 Y98.815 E27.8762
G1 X94.8 Y98.815 E28.3767
G1 X94.8 Y124.495 E29.31623
G0 F6000 X94.36 Y124.935
;TYPE:WALL-OUTER
G1 F1200 X108.92 Y124.935 E29.84893
G1 X108.92 Y98.375 E30.82065
G1 X94.36 Y98.375 E31.35335
G1 X94.36 Y124.935 E32.32508
G1 F2400 E31.32508
G1 F240 Z0.6
G0 F6000 X95.636 Y123.659 Z0.6
;TYPE:SKIN
G1 F240 Z0.2
G1 F2400 E32.32508
G1 F1200 X95.636 Y99.651 E33.20344
G1 X107.644 Y99.651 E33.64276
G1 X107.644 Y123.659 E34.52112
G1 X95.636 Y123.659 E34.96045
G0 F6000 X96.059 Y123.438
G1 F1200 X95.855 Y123.234 E34.971
G0 F6000 X95.855 Y122.612
G1 F1200 X96.681 Y123.438 E35.01374
G0 F6000 X97.303 Y123.438
G1 F1200 X95.855 Y121.99 E35.08866
G0 F6000 X95.855 Y121.367
G1 F1200 X97.925 Y123.438 E35.19579
G0 F6000 X98.548 Y123.438
G1 F1200 X95.855 Y120.745 E35.33513
G0 F6000 X95.855 Y120.123
G1 F1200 X99.17 Y123.438 E35.50665
G0 F6000 X99.792 Y123.438
G1 F1200 X95.855 Y119.501 E35.71035
G0 F6000 X95.855 Y118.878
G1 F1200 X100.414 Y123.438 E35.94626
G0 F6000 X101.037 Y123.438
G1 F1200 X95.855 Y118.256 E36.21438
G0 F6000 X95.855 Y117.634
G1 F1200 X101.659 Y123.438 E36.51469
G0 F6000 X102.281 Y123.438
G1 F1200 X95.855 Y117.012 E36.84717
G0 F6000 X95.855 Y116.389
G1 F1200 X102.903 Y123.438 E37.21186
G0 F6000 X103.526 Y123.438
G1 F1200 X95.855 Y115.767 E37.60877
G0 F6000 X95.855 Y115.145
G1 F1200 X104.148 Y123.438 E38.03785
G0 F6000 X104.77 Y123.438
G1 F1200 X95.855 Y114.523 E38.49912
G0 F6000 X95.855 Y113.9
G1 F1200 X105.392 Y123.438 E38.9926
G0 F6000 X106.015 Y123.438
G1 F1200 X95.855 Y113.278 E39.51828
G0 F6000 X95.855 Y112.656
G1 F1200 X106.637 Y123.438 E40.07615
G0 F6000 X107.259 Y123.438
G1 F1200 X95.855 Y112.033 E40.66622
G0 F6000 X95.855 Y111.411
G1 F1200 X107.423 Y122.98 E41.26479
G0 F6000 X107.423 Y122.357
G1 F1200 X95.855 Y110.789 E41.86332
G0 F6000 X95.855 Y110.167
G1 F1200 X107.423 Y121.735 E42.46186
G0 F6000 X107.423 Y121.113
G1 F1200 X95.855 Y109.544 E43.06042
G0 F6000 X95.855 Y108.922
G1 F1200 X107.423 Y120.49 E43.65895
G0 F6000 X107.423 Y119.868
G1 F1200 X95.855 Y108.3 E44.25749
G0 F6000 X95.855 Y107.678
G1 F1200 X107.423 Y119.246 E44.85603
G0 F6000 X107.423 Y118.624
G1 F1200 X95.855 Y107.055 E45.45459
G0 F6000 X95.855 Y106.433
G1 F1200 X107.423 Y118.001 E46.05312
G0 F6000 X107.423 Y117.379
G1 F1200 X95.855 Y105.811 E46.65166
G0 F6000 X95.855 Y105.189
G1 F1200 X107.423 Y116.757 E47.25019
G0 F6000 X107.423 Y116.135
G1 F1200 X95.855 Y104.566 E47.84875
G0 F6000 X95.855 Y103.944
G1 F1200 X107.423 Y115.512 E48.44729
G0 F6000 X107.423 Y114.89
G1 F1200 X95.855 Y103.322 E49.04583
G0 F6000 X95.855 Y102.7
G1 F1200 X107.423 Y114.268 E49.64436
G0 F6000 X107.423 Y113.646
G1 F1200 X95.855 Y102.077 E50.24292
G0 F6000 X95.855 Y101.455
G1 F1200 X107.423 Y113.023 E50.84146
G0 F6000 X107.423 Y112.401
G1 F1200 X95.855 Y100.833 E51.43999
G0 F6000 X95.855 Y100.211
G1 F1200 X107.423 Y111.779 E52.03853
G0 F6000 X107.423 Y111.157
G1 F1200 X96.137 Y99.871 E52.62247
G0 F6000 X96.759 Y99.871
G1 F1200 X107.423 Y110.534 E53.17421
G0 F6000 X107.423 Y109.912
G1 F1200 X97.382 Y99.871 E53.69374
G0 F6000 X98.004 Y99.871
G1 F1200 X107.423 Y109.29 E54.18108
G0 F6000 X107.423 Y108.668
G1 F1200 X98.626 Y99.871 E54.63625
G0 F6000 X99.248 Y99.871
G1 F1200 X107.423 Y108.045 E55.0592
G0 F6000 X107.423 Y107.423
G1 F1200 X99.871 Y99.871 E55.44994
G0 F6000 X100.493 Y99.871
G1 F1200 X107.423 Y106.801 E55.80851
G0 F6000 X107.423 Y106.179
G1 F1200 X101.115 Y99.871 E56.13489
G0 F6000 X101.737 Y99.871
G1 F1200 X107.423 Y105.556 E56.42906
G0 F6000 X107.423 Y104.934
G1 F1200 X102.36 Y99.871 E56.69102
G0 F6000 X102.982 Y99.871
G1 F1200 X107.423 Y104.312 E56.9208
G0 F6000 X107.423 Y103.69
G1 F1200 X103.604 Y99.871 E57.1184
G0 F6000 X104.226 Y99.871
G1 F1200 X107.423 Y103.067 E57.28379
G0 F6000 X107.423 Y102.445
G1 F1200 X104.849 Y99.871 E57.41697
G0 F6000 X105.471 Y99.871
G1 F1200 X107.423 Y101.823 E57.51797
G0 F6000 X107.423 Y101.201
G1 F1200 X106.093 Y99.871 E57.58678
G0 F6000 X106.715 Y99.871
G1 F1200 X107.423 Y100.578 E57.62339
G0 F6000 X107.423 Y99.956
G1 F1200 X107.338 Y99.871 E57.62779
G1 F2400 E56.62779
G1 F240 Z0.6
G0 F6000 X85.04 Y130.838 Z0.6
;TYPE:WALL-INNER
G1 F240 Z0.2
G1 F2400 E57.62779
G1 F1200 X85.04 Y67.038 E59.96198
G1 X72.74 Y67.038 E60.41199
G1 X72.74 Y130.838 E62.74619
G1 X85.04 Y130.838 E63.1962
G0 F6000 X85.48 Y131.278
G1 F1200 X85.48 Y66.598 E65.56259
G1 X72.3 Y66.598 E66.04479
G1 X72.3 Y131.278 E68.41119
G1 X85.48 Y131.278 E68.89339
G0 F6000 X85.92 Y131.718
;TYPE:WALL-OUTER
G1 F1200 X85.92 Y66.158 E71.29198
G1 X71.86 Y66.158 E71.80638
G1 X71.86 Y131.718 E74.20497
G1 X85.92 Y131.718 E74.71937
G1 F2400 E73.71937
G1 F240 Z0.6
G0 F6000 X84.644 Y130.442 Z0.6
;TYPE:SKIN
G1 F240 Z0.2
G1 F2400 E74.71937
G1 F1200 X73.136 Y130.442 E75.1404
G1 X73.136 Y67.434 E77.44562
G1 X84.644 Y67.434 E77.86666
G1 X84.644 Y130.442 E80.17188
G1 F2400 E79.17188
G1 F240 Z0.6
G0 F6000 X73.596 Y130.221 Z0.6
G1 F240 Z0.2
G1 F2400 E80.17188
G1 F1200 X73.355 Y129.98 E80.18435
G0 F6000 X73.355 Y129.358
G1 F1200 X74.218 Y130.221 E80.229
G0 F6000 X74.84 Y130.221
G1 F1200 X73.355 Y128.735 E80.30586
G0 F6000 X73.355 Y128.113
G1 F1200 X75.463 Y130.221 E80.41493
G0 F6000 X76.085 Y130.221
G1 F1200 X73.355 Y127.491 E80.55618
G0 F6000 X73.355 Y126.869
G1 F1200 X76.707 Y130.221 E80.72962
G0 F6000 X77.329 Y130.221
G1 F1200 X73.355 Y126.246 E80.93526
G0 F6000 X73.355 Y125.624
G1 F1200 X77.952 Y130.221 E81.17311
G0 F6000 X78.574 Y130.221
G1 F1200 X73.355 Y125.002 E81.44314
G0 F6000 X73.355 Y124.38
G1 F1200 X79.196 Y130.221 E81.74536
G0 F6000 X79.818 Y130.221
G1 F1200 X73.355 Y123.757 E82.07979
G0 F6000 X73.355 Y123.135
G1 F1200 X80.441 Y130.221 E82.44642
G0 F6000 X81.063 Y130.221
G1 F1200 X73.355 Y122.513 E82.84524
G0 F6000 X73.355 Y121.891
G1 F1200 X81.685 Y130.221 E83.27624
G0 F6000 X82.307 Y130.221
G1 F1200 X73.355 Y121.268 E83.73945
G0 F6000 X73.355 Y120.646
G1 F1200 X82.93 Y130.221 E84.23486
G0 F6000 X83.552 Y130.221
G1 F1200 X73.355 Y120.024 E84.76246
G0 F6000 X73.355 Y119.402
G1 F1200 X84.174 Y130.221 E85.32224
G0 F6000 X84.423 Y129.848
G1 F1200 X73.355 Y118.779 E85.89493
G0 F6000 X73.355 Y118.157
G1 F1200 X84.423 Y129.225 E86.4676
G0 F6000 X84.423 Y128.603
G1 F1200 X73.355 Y117.535 E87.04026
G0 F6000 X73.355 Y116.913
G1 F1200 X84.423 Y127.981 E87.61293
G0 F6000 X84.423 Y127.359
G1 F1200 X73.355 Y116.29 E88.18562
G0 F6000 X73.355 Y115.668
G1 F1200 X84.423 Y126.736 E88.75829
G0 F6000 X84.423 Y126.114
G1 F1200 X73.355 Y115.046 E89.33095
G0 F6000 X73.355 Y114.424
G1 F1200 X84.423 Y125.492 E89.90362
G0 F6000 X84.423 Y124.87
G1 F1200 X73.355 Y113.801 E90.47631
G0 F6000 X73.355 Y113.179
G1 F1200 X84.423 Y124.247 E91.04897
G0 F6000 X84.423 Y123.625
G1 F1200 X73.355 Y112.557 E91.62164
G0 F6000 X73.355 Y111.935
G1 F1200 X84.423 Y123.003 E92.1943
G0 F6000 X84.423 Y122.381
G1 F1200 X73.355 Y111.312 E92.76699
G0 F6000 X73.355 Y110.69
G1 F1200 X84.423 Y121.758 E93.33966
G0 F6000 X84.423 Y121.136
G1 F1200 X73.355 Y110.068 E93.91233
G0 F6000 X73.355 Y109.445
G1 F1200 X84.423 Y120.514 E94.48502
G0 F6000 X84.423 Y119.892
G1 F1200 X73.355 Y108.823 E95.05771
G0 F6000 X73.355 Y108.201
G1 F1200 X84.423 Y119.269 E95.63037
G0 F6000 X84.423 Y118.647
G1 F1200 X73.355 Y107.579 E96.20304
G0 F6000 X73.355 Y106.956
G1 F1200 X84.423 Y118.025 E96.77573
G0 F6000 X84.423 Y117.403
G1 F1200 X73.355 Y106.334 E97.34842
G0 F6000 X73.355 Y105.712
G1 F1200 X84.423 Y116.78 E97.92109
G0 F6000 X84.423 Y116.158
G1 F1200 X73.355 Y105.09 E98.49375
G0 F6000 X73.355 Y104.467
G1 F1200 X84.423 Y115.536 E99.06644
G0 F6000 X84.423 Y114.914
G1 F1200 X73.355 Y103.845 E99.63913
G0 F6000 X73.355 Y103.223
G1 F1200 X84.423 Y114.291 E100.2118
G0 F6000 X84.423 Y113.669
G1 F1200 X73.355 Y102.601 E100.78446
G0 F6000 X73.355 Y101.978
G1 F1200 X84.423 Y113.047 E101.35715
G0 F6000 X84.423 Y112.425
G1 F1200 X73.355 Y101.356 E101.92985
G0 F6000 X73.355 Y100.734
G1 F1200 X84.423 Y111.802 E102.50251
G0 F6000 X84.423 Y111.18
G1 F1200 X73.355 Y100.112 E103.07518
G0 F6000 X73.355 Y99.489
G1 F1200 X84.423 Y110.558 E103.64787
G0 F6000 X84.423 Y109.936
G1 F1200 X73.355 Y98.867 E104.22056
G0 F6000 X73.355 Y98.245
G1 F1200 X84.423 Y109.313 E104.79322
G0 F6000 X84.423 Y108.691
G1 F1200 X73.355 Y97.623 E105.36589
G0 F6000 X73.355 Y97
G1 F1200 X84.423 Y108.069 E105.93858
G0 F6000 X84.423 Y107.446
G1 F1200 X73.355 Y96.378 E106.51125
G0 F6000 X73.355 Y95.756
G1 F1200 X84.423 Y106.824 E107.08391
G0 F6000 X84.423 Y106.202
G1 F1200 X73.355 Y95.134 E107.65658
G0 F6000 X73.355 Y94.511
G1 F1200 X84.423 Y105.58 E108.22927
G0 F6000 X84.423 Y104.957
G1 F1200 X73.355 Y93.889 E108.80193
G0 F6000 X73.355 Y93.267
G1 F1200 X84.423 Y104.335 E109.3746
G0 F6000 X84.423 Y103.713
G1 F1200 X73.355 Y92.645 E109.94726
G0 F6000 X73.355 Y92.022
G1 F1200 X84.423 Y103.091 E110.51995
G0 F6000 X84.423 Y102.468
G1 F1200 X73.355 Y91.4 E111.09262
G0 F6000 X73.355 Y90.778
G1 F1200 X84.423 Y101.846 E111.66528
G0 F6000 X84.423 Y101.224
G1 F1200 X73.355 Y90.156 E112.23795
G0 F6000 X73.355 Y89.533
G1 F1200 X84.423 Y100.602 E112.81064
G0 F6000 X84.423 Y99.979
G1 F1200 X73.355 Y88.911 E113.38331
G0 F6000 X73.355 Y88.289
G1 F1200 X84.423 Y99.357 E113.95597
G0 F6000 X84.423 Y98.735
G1 F1200 X73.355 Y87.667 E114.52864
G0 F6000 X73.355 Y87.044
G1 F1200 X84.423 Y98.113 E115.10133
G0 F6000 X84.423 Y97.49
G1 F1200 X73.355 Y86.422 E115.67399
G0 F6000 X73.355 Y85.8
G1 F1200 X84.423 Y96.868 E116.24666
G0 F6000 X84.423 Y96.246
G1 F1200 X73.355 Y85.178 E116.81932
G0 F6000 X73.355 Y84.555
G1 F1200 X84.423 Y95.624 E117.39202
G0 F6000 X84.423 Y95.001
G1 F1200 X73.355 Y83.933 E117.96468
G0 F6000 X73.355 Y83.311
G1 F1200 X84.423 Y94.379 E118.53735
G0 F6000 X84.423 Y93.757
G1 F1200 X73.355 Y82.689 E119.11001
G0 F6000 X73.355 Y82.066
G1 F1200 X84.423 Y93.135 E119.6827
G0 F6000 X84.423 Y92.512
