;FLAVOR:Marlin
;TIME:12163
;Filament used: 11.2719m
;Layer height: 0.2
;MINX:76.311
;MINY:63.741
;MINZ:0.2
;MAXX:123.689
;MAXY:116.259
;MAXZ:50.2
;Generated with Cura_SteamEngine 5.4.0
M140 S60
M105
M190 S60
M104 S200
M105
M109 S200
M82 ;absolute extrusion mode
G28 ; home all axes
 M117 Purge extruder
 G92 E0 ; reset extruder
 G1 Z1.0 F3000 ; move z up little to prevent scratching of surface
 G1 X2 Y20 Z0.3 F5000.0 ; move to start-line position
 G1 X2 Y175.0 Z0.3 F1500.0 E15 ; draw 1st line
 G1 X2 Y175.0 Z0.4 F5000.0 ; move to side a little
 G1 X2 Y20 Z0.4 F1500.0 E30 ; draw 2nd line
 G92 E0 ; reset extruder
 G1 Z1.0 F3000 ; move z up little to prevent scratching of surface
G92 E0
G92 E0
G1 F2400 E-1
;LAYER_COUNT:249
;LAYER:0
M107
G1 F240 Z0.6
G0 F6000 X91.697 Y92.065 Z0.6
;TYPE:SUPPORT
G1 F240 Z0.2
G1 F2400 E0
G1 F1200 X91.693 Y103.155 E0.40574
G1 X91.66 Y103.305 E0.41136
G1 X91.606 Y103.422 E0.41607
G1 X91.559 Y103.492 E0.41916
G1 X91.431 Y103.617 E0.4257
G1 X91.288 Y103.699 E0.43174
G1 X91.14 Y103.741 E0.43736
G1 X91.036 Y103.748 E0.44118
G1 X81.661 Y103.748 E0.78417
G1 X81.147 Y104.446 E0.81589
G1 X80.711 Y104.899 E0.83889
G1 X80.711 Y106.13 E0.88393
G1 X82.374 Y106.136 E0.94477
G1 X83.455 Y106.177 E0.98435
G1 X84.21 Y106.251 E1.0121
G1 X84.75 Y106.349 E1.03218
G1 X85.499 Y106.532 E1.06039
G1 X86.258 Y106.8 E1.08984
G1 X87.092 Y107.214 E1.12391
G1 X87.657 Y107.575 E1.14844
G1 X89.283 Y107.579 E1.20793
G1 X89.888 Y107.602 E1.23008
G1 X90.499 Y107.654 E1.25251
G1 X91.023 Y107.731 E1.27189
G1 X91.697 Y107.88 E1.29714
G1 X92.296 Y108.055 E1.31997
G1 X92.93 Y108.304 E1.34489
G1 X93.808 Y108.784 E1.3815
G1 X94.399 Y109.218 E1.40833
G1 X94.744 Y109.514 E1.42496
G1 X95.165 Y109.92 E1.44636
G1 X95.495 Y110.291 E1.46453
G1 X95.994 Y110.959 E1.49503
G1 X96.406 Y111.68 E1.52541
G1 X96.485 Y111.859 E1.53257
G1 X106.059 Y111.858 E1.88285
G1 X106.3 Y111.629 E1.89501
G1 X107.002 Y111.069 E1.92786
G1 X107.81 Y110.573 E1.96255
G1 X108.457 Y110.267 E1.98874
G1 X108.97 Y110.061 E2.00896
G1 X109.523 Y109.892 E2.03012
G1 X110.091 Y109.763 E2.05143
G1 X110.708 Y109.658 E2.07433
G1 X111.452 Y109.581 E2.10169
G1 X113.619 Y109.489 E2.18105
G1 X115.683 Y109.495 E2.25656
G1 X116.263 Y109.124 E2.28175
G1 X116.281 Y91.03 E2.94374
G1 X116.32 Y90.032 E2.98028
G1 X116.383 Y89.369 E3.00465
G1 X116.514 Y88.651 E3.03135
G1 X116.646 Y88.138 E3.05073
G1 X116.868 Y87.502 E3.07537
G1 X117.216 Y86.762 E3.10529
G1 X117.613 Y86.111 E3.13319
G1 X118.134 Y85.425 E3.16471
G1 X118.837 Y84.722 E3.20108
G1 X119.289 Y84.359 E3.22229
G1 X119.289 Y69.898 E3.75136
G1 X119.108 Y70.058 E3.7602
G1 X118.444 Y70.513 E3.78965
G1 X117.99 Y70.773 E3.80879
G1 X117.38 Y71.055 E3.83338
G1 X116.592 Y71.323 E3.86383
G1 X115.726 Y71.514 E3.89627
G1 X115.126 Y71.577 E3.91835
G1 X114.544 Y71.604 E3.93966
G1 X109.182 Y71.613 E4.13584
G1 X108.873 Y71.601 E4.14715
G1 X108.873 Y74.154 E4.24056
G1 X112.188 Y74.154 E4.36184
G1 X112.443 Y74.204 E4.37135
G1 X112.645 Y74.336 E4.38017
G1 X112.772 Y74.505 E4.38791
G1 X112.838 Y74.694 E4.39523
G1 X112.849 Y74.814 E4.39964
G1 X112.848 Y91.404 E5.00661
G1 X112.84 Y91.519 E5.01082
G1 X112.814 Y91.618 E5.01457
G1 X112.718 Y91.8 E5.0221
G1 X112.585 Y91.933 E5.02898
G1 X112.443 Y92.014 E5.03496
G1 X112.308 Y92.054 E5.04011
G1 X112.188 Y92.064 E5.04452
G1 X91.697 Y92.065 E5.7942
G0 F6000 X91.257 Y91.625
G1 F1200 X91.257 Y103.088 E6.21359
G1 X91.244 Y103.161 E6.2163
G1 X91.211 Y103.223 E6.21887
G1 X91.168 Y103.265 E6.22107
G1 X91.12 Y103.292 E6.22309
G1 X91.071 Y103.306 E6.22495
G1 X81.417 Y103.308 E6.57815
G1 X81.329 Y103.458 E6.58452
G1 X80.793 Y104.184 E6.61753
G1 X80.271 Y104.719 E6.64488
G1 X80.271 Y106.569 E6.71256
G1 X82.358 Y106.576 E6.78892
G1 X83.413 Y106.615 E6.82754
G1 X84.115 Y106.682 E6.85334
G1 X84.647 Y106.777 E6.87312
G1 X85.355 Y106.948 E6.89976
G1 X86.064 Y107.195 E6.92723
G1 X86.855 Y107.585 E6.9595
G1 X87.528 Y108.015 E6.98872
G1 X89.267 Y108.019 E7.05234
G1 X89.851 Y108.04 E7.07372
G1 X90.436 Y108.09 E7.0952
G1 X90.929 Y108.161 E7.11343
G1 X91.575 Y108.303 E7.13762
G1 X92.136 Y108.465 E7.15899
G1 X92.743 Y108.702 E7.18283
G1 X93.555 Y109.145 E7.21667
G1 X94.125 Y109.562 E7.24251
G1 X94.44 Y109.832 E7.25769
G1 X94.838 Y110.214 E7.27787
G1 X95.132 Y110.541 E7.29396
G1 X95.612 Y111.177 E7.32311
G1 X96.036 Y111.923 E7.3545
G1 X96.192 Y112.299 E7.3694
G1 X106.236 Y112.298 E7.73687
G1 X106.577 Y111.971 E7.75415
G1 X107.232 Y111.444 E7.78491
G1 X108.027 Y110.956 E7.81904
G1 X108.623 Y110.675 E7.84315
G1 X109.099 Y110.482 E7.86194
G1 X109.643 Y110.316 E7.88275
G1 X110.201 Y110.19 E7.90368
G1 X110.754 Y110.096 E7.9242
G1 X111.471 Y110.021 E7.95058
G1 X113.618 Y109.929 E8.0292
G1 X115.811 Y109.935 E8.10943
G1 X116.485 Y109.504 E8.1387
G1 X116.703 Y109.386 E8.14777
G1 X116.721 Y91.047 E8.81872
G1 X116.761 Y90.036 E8.85574
G1 X116.821 Y89.412 E8.87868
G1 X116.94 Y88.761 E8.90289
G1 X117.072 Y88.248 E8.92227
G1 X117.267 Y87.688 E8.94396
G1 X117.593 Y86.989 E8.97218
G1 X117.963 Y86.377 E8.99835
G1 X118.484 Y85.691 E9.02986
G1 X119.113 Y85.065 E9.06233
G1 X119.668 Y84.62 E9.08836
G1 X119.729 Y84.581 E9.09101
G1 X119.729 Y68.861 E9.66614
G1 X119.52 Y69.107 E9.67795
G1 X118.796 Y69.744 E9.71323
G1 X118.197 Y70.149 E9.73969
G1 X117.806 Y70.373 E9.75617
G1 X117.174 Y70.664 E9.78163
G1 X116.518 Y70.888 E9.80699
G1 X115.679 Y71.076 E9.83845
G1 X115.106 Y71.137 E9.85953
G1 X114.514 Y71.164 E9.88121
G1 X109.2 Y71.173 E10.07563
G1 X108.434 Y71.141 E10.10368
G1 X108.433 Y74.594 E10.23001
G1 X112.188 Y74.594 E10.36739
G1 X112.273 Y74.61 E10.37056
G1 X112.341 Y74.654 E10.37352
G1 X112.383 Y74.711 E10.37611
G1 X112.405 Y74.774 E10.37855
G1 X112.406 Y91.443 E10.9884
G1 X112.365 Y91.536 E10.99212
G1 X112.321 Y91.581 E10.99443
G1 X112.228 Y91.621 E10.99813
G1 X91.257 Y91.625 E11.76538
G0 F6000 X91.785 Y92.4
G1 F1200 X116.191 Y92.4 E12.6583
G1 F2400 E11.6583
G1 F240 Z0.6
G0 F6000 X116.189 Y94.6 Z0.6
G1 F240 Z0.2
G1 F2400 E12.6583
G1 F1200 X91.785 Y94.6 E13.55115
G1 F2400 E12.55115
G1 F240 Z0.6
G0 F6000 X91.785 Y96.8 Z0.6
G1 F240 Z0.2
G1 F2400 E13.55115
G1 F1200 X116.187 Y96.8 E14.44392
G1 F2400 E13.44392
G1 F240 Z0.6
G0 F6000 X116.185 Y99 Z0.6
G1 F240 Z0.2
G1 F2400 E14.44392
G1 F1200 X91.784 Y99 E15.33666
G1 F2400 E14.33666
G1 F240 Z0.6
G0 F6000 X91.784 Y101.2 Z0.6
G1 F240 Z0.2
G1 F2400 E15.33666
G1 F1200 X116.182 Y101.2 E16.22929
G1 F2400 E15.22929
G1 F240 Z0.6
G0 F6000 X116.18 Y103.4 Z0.6
G1 F240 Z0.2
G1 F2400 E16.22929
G1 F1200 X91.713 Y103.4 E17.12444
G1 F2400 E16.12444
G1 F240 Z0.6
G0 F6000 X90.2 Y103.834 Z0.6
G1 F240 Z0.2
G1 F2400 E17.12444
G1 F1200 X90.2 Y107.541 E17.26007
G1 F2400 E16.26007
G1 F240 Z0.6
G0 F6000 X91.734 Y107.8 Z0.6
G1 F240 Z0.2
G1 F2400 E17.26007
G1 F1200 X116.176 Y107.8 E18.15431
G1 F2400 E17.15431
G1 F240 Z0.6
G0 F6000 X116.178 Y105.6 Z0.6
G1 F240 Z0.2
G1 F2400 E18.15431
G1 F1200 X80.799 Y105.6 E19.44869
G0 F6000 X81.4 Y106.044
G1 F1200 X81.4 Y104.25 E19.51432
G1 F2400 E18.51432
G1 F240 Z0.6
G0 F6000 X83.6 Y103.835 Z0.6
G1 F240 Z0.2
G1 F2400 E19.51432
G1 F1200 X83.6 Y106.102 E19.59727
G1 F2400 E18.59727
G1 F240 Z0.6
G0 F6000 X85.8 Y106.543 Z0.6
G1 F240 Z0.2
G1 F2400 E19.59727
G1 F1200 X85.8 Y103.835 E19.69634
G1 F2400 E18.69634
G1 F240 Z0.6
G0 F6000 X88 Y103.834 Z0.6
G1 F240 Z0.2
G1 F2400 E19.69634
G1 F1200 X88 Y107.487 E19.82999
G1 F2400 E18.82999
G1 F240 Z0.6
G0 F6000 X92.4 Y108 Z0.6
G1 F240 Z0.2
G1 F2400 E19.82999
G1 F1200 X92.4 Y92.152 E20.40981
G1 F2400 E19.40981
G1 F240 Z0.6
G0 F6000 X94.6 Y92.152 Z0.6
G1 F240 Z0.2
G1 F2400 E20.40981
G1 F1200 X94.6 Y109.274 E21.03623
G0 F6000 X95.352 Y110
G1 F1200 X108.888 Y110 E21.53146
G0 F6000 X110 Y109.694
G1 F1200 X110 Y92.152 E22.17326
G1 F2400 E21.17326
G1 F240 Z0.6
G0 F6000 X107.8 Y92.152 Z0.6
G1 F240 Z0.2
G1 F2400 E22.17326
G1 F1200 X107.8 Y110.482 E22.84388
G1 F2400 E21.84388
G1 F240 Z0.6
G0 F6000 X105.6 Y111.771 Z0.6
G1 F240 Z0.2
G1 F2400 E22.84388
G1 F1200 X105.6 Y92.152 E23.56167
G1 F2400 E22.56167
G1 F240 Z0.6
G0 F6000 X103.4 Y92.152 Z0.6
G1 F240 Z0.2
G1 F2400 E23.56167
G1 F1200 X103.4 Y111.771 E24.27945
G1 F2400 E23.27945
G1 F240 Z0.6
G0 F6000 X101.2 Y111.771 Z0.6
G1 F240 Z0.2
G1 F2400 E24.27945
G1 F1200 X101.2 Y92.152 E24.99723
G1 F2400 E23.99723
G1 F240 Z0.6
G0 F6000 X99 Y92.152 Z0.6
G1 F240 Z0.2
G1 F2400 E24.99723
G1 F1200 X99 Y111.771 E25.71502
G1 F2400 E24.71502
G1 F240 Z0.6
G0 F6000 X96.8 Y111.771 Z0.6
G1 F240 Z0.2
G1 F2400 E25.71502
G1 F1200 X96.8 Y92.152 E26.4328
G1 F2400 E25.4328
G1 F240 Z0.6
G0 F6000 X112.2 Y92.15 Z0.6
G1 F240 Z0.2
G1 F2400 E26.4328
G1 F1200 X112.2 Y109.462 E27.06618
G1 F2400 E26.06618
G1 F240 Z0.6
G0 F6000 X114.4 Y109.402 Z0.6
G1 F240 Z0.2
G1 F2400 E27.06618
G1 F1200 X114.4 Y71.692 E28.44584
G1 F2400 E27.44584
G1 F240 Z0.6
G0 F6000 X112.2 Y71.694 Z0.6
G1 F240 Z0.2
G1 F2400 E28.44584
G1 F1200 X112.2 Y74.07 E28.53277
G0 F6000 X112.934 Y74.8
G1 F1200 X119.201 Y74.8 E28.76206
G1 F2400 E27.76206
G1 F240 Z0.6
G0 F6000 X119.201 Y77 Z0.6
G1 F240 Z0.2
G1 F2400 E28.76206
G1 F1200 X112.937 Y77 E28.99123
G1 F2400 E27.99123
G1 F240 Z0.6
G0 F6000 X112.937 Y79.2 Z0.6
G1 F240 Z0.2
G1 F2400 E28.99123
G1 F1200 X119.201 Y79.2 E29.22041
G1 F2400 E28.22041
G1 F240 Z0.6
G0 F6000 X119.201 Y81.4 Z0.6
G1 F240 Z0.2
G1 F2400 E29.22041
G1 F1200 X112.937 Y81.4 E29.44959
G1 F2400 E28.44959
G1 F240 Z0.6
G0 F6000 X112.937 Y83.6 Z0.6
G1 F240 Z0.2
G1 F2400 E29.44959
G1 F1200 X119.201 Y83.6 E29.67876
G0 F6000 X118.8 Y84.64
G1 F1200 X118.8 Y70.378 E30.20055
G1 X118.769 Y70.4
G1 X119.201 Y70.4 E30.21636
G1 F2400 E29.21636
G1 F240 Z0.6
G0 F6000 X119.201 Y72.6 Z0.6
G1 F240 Z0.2
G1 F2400 E30.21636
G1 F1200 X108.961 Y72.6 E30.591
G0 F6000 X110 Y71.696
G1 F1200 X110 Y74.066 E30.67771
G1 F2400 E29.67771
G1 F240 Z0.6
G0 F6000 X116.6 Y71.406 Z0.6
G1 F240 Z0.2
G1 F2400 E30.67771
G1 F1200 X116.6 Y87.998 E31.28475
G1 X116.598 Y88
G1 X112.937 Y88 E31.41869
G1 F2400 E30.41869
G1 F240 Z0.6
G0 F6000 X112.937 Y90.2 Z0.6
G1 F240 Z0.2
G1 F2400 E31.41869
G1 F1200 X116.225 Y90.2 E31.53898
G1 F2400 E30.53898
G1 F240 Z0.6
G0 F6000 X117.738 Y85.8 Z0.6
G1 F240 Z0.2
G1 F2400 E31.53898
G1 F1200 X112.937 Y85.8 E31.71463
G1 F2400 E30.71463
G1 F240 Z0.6
G0 F6000 X86.856 Y80.49 Z0.6
;TYPE:SUPPORT-INTERFACE
G1 F240 Z0.2
G1 F2400 E31.71463
G1 F1200 X86.856 Y98.908 E32.38848
G1 X81.468 Y98.908 E32.5856
G1 X81.468 Y80.49 E33.25945
G1 X86.856 Y80.49 E33.45657
G0 F6000 X86.635 Y81.373
G1 F1200 X81.687 Y86.32 E33.71256
G0 F6000 X81.687 Y85.42
G1 F1200 X86.635 Y90.368 E33.96857
G1 F2400 E32.96857
G1 F240 Z0.6
G0 F6000 X86.635 Y88.84 Z0.6
G1 F240 Z0.2
G1 F2400 E33.96857
G1 F1200 X81.688 Y93.787 E34.22453
G0 F6000 X81.687 Y92.888
G1 F1200 X86.635 Y97.836 E34.48055
G1 F2400 E33.48055
G1 F240 Z0.6
G0 F6000 X86.635 Y96.307 Z0.6
G1 F240 Z0.2
G1 F2400 E34.48055
G1 F1200 X84.255 Y98.687 E34.60369
G0 F6000 X83.753 Y98.687
G1 F1200 X81.687 Y96.621 E34.71059
G0 F6000 X81.688 Y97.52
G1 F1200 X86.635 Y92.573 E34.96655
G1 F2400 E33.96655
G1 F240 Z0.6
G0 F6000 X86.635 Y94.102 Z0.6
G1 F240 Z0.2
G1 F2400 E34.96655
G1 F1200 X81.687 Y89.154 E35.22256
G0 F6000 X81.688 Y90.053
G1 F1200 X86.635 Y85.106 E35.47852
G1 F2400 E34.47852
G1 F240 Z0.6
G0 F6000 X86.635 Y86.635 Z0.6
G1 F240 Z0.2
G1 F2400 E35.47852
G1 F1200 X81.687 Y81.687 E35.73453
G0 F6000 X81.687 Y82.587
G1 F1200 X83.565 Y80.709 E35.8317
G0 F6000 X84.443 Y80.709
G1 F1200 X86.635 Y82.901 E35.94512
G1 F2400 E34.94512
G1 F240 Z0.6
;MESH:?????????.stl
G0 F6000 X106.248 Y85.464 Z0.6
;TYPE:WALL-INNER
G1 F240 Z0.2
G1 F2400 E35.94512
G1 F1200 X106.248 Y80.754 E36.11744
G1 X103.373 Y80.754 E36.22262
G1 X103.12 Y80.725 E36.23194
G1 X102.887 Y80.642 E36.24099
G1 X102.688 Y80.516 E36.24961
G1 X102.531 Y80.363 E36.25763
G1 X102.416 Y80.199 E36.26496
G1 X102.34 Y80.034 E36.2716
G1 X102.295 Y79.878 E36.27754
G1 X102.273 Y79.654 E36.28578
G1 X102.273 Y69.695 E36.65014
G1 X100.427 Y69.695 E36.71768
G1 X100.427 Y75.073 E36.91444
G1 X100.411 Y75.263 E36.92141
G1 X100.343 Y75.497 E36.93033
G1 X100.124 Y75.832 E36.94497
G1 X99.845 Y76.044 E36.95779
G1 X99.569 Y76.147 E36.96857
G1 X99.326 Y76.173 E36.97751
G1 X92.249 Y76.173 E37.23643
G1 X92.249 Y85.464 E37.57635
G1 X106.248 Y85.464 E38.08852
G0 F6000 X106.688 Y85.904
G1 F1200 X106.688 Y80.314 E38.29304
G1 X103.373 Y80.314 E38.41432
G1 X103.221 Y80.297 E38.41992
G1 X103.081 Y80.247 E38.42536
G1 X102.962 Y80.171 E38.43052
G1 X102.868 Y80.08 E38.43531
G1 X102.799 Y79.981 E38.43972
G1 X102.753 Y79.882 E38.44372
G1 X102.726 Y79.788 E38.4473
G1 X102.713 Y79.654 E38.45222
G1 X102.713 Y69.255 E38.83268
G1 X99.987 Y69.255 E38.93241
G1 X99.987 Y75.073 E39.14527
G1 X99.977 Y75.187 E39.14946
G1 X99.937 Y75.327 E39.15479
G1 X99.805 Y75.529 E39.16361
G1 X99.637 Y75.656 E39.17132
G1 X99.472 Y75.718 E39.17777
G1 X99.326 Y75.733 E39.18314
G1 X91.809 Y75.733 E39.45816
G1 X91.809 Y85.904 E39.83027
G1 X106.688 Y85.904 E40.37464
G0 F6000 X107.128 Y86.344
;TYPE:WALL-OUTER
G1 F1200 X107.128 Y79.874 E40.61135
G1 X103.296 Y79.869 E40.75155
G1 X103.189 Y79.784 E40.75655
G1 X103.157 Y79.699 E40.75987
G1 X103.153 Y68.815 E41.15808
G1 X99.547 Y68.815 E41.29001
G1 X99.543 Y75.138 E41.52134
G1 X99.486 Y75.225 E41.52514
G1 X99.43 Y75.268 E41.52773
G1 X99.375 Y75.288 E41.52987
G1 X91.369 Y75.293 E41.82278
G1 X91.369 Y86.344 E42.22709
G1 X107.128 Y86.344 E42.80365
G1 F2400 E41.80365
G1 F240 Z0.6
G0 F6000 X105.852 Y85.068 Z0.6
;TYPE:SKIN
G1 F240 Z0.2
G1 F2400 E42.80365
G1 F1200 X105.852 Y85.068
G1 X92.646 Y85.068 E43.28681
G1 X92.646 Y76.57 E43.59772
G1 X99.347 Y76.568 E43.84288
G1 X99.686 Y76.525 E43.85538
G1 X100.001 Y76.408 E43.86768
G1 X100.057 Y76.377 E43.87002
G1 X100.385 Y76.129 E43.88506
G1 X100.437 Y76.074 E43.88783
G1 X100.693 Y75.682 E43.90496
G1 X100.72 Y75.622 E43.90737
G1 X100.802 Y75.335 E43.91829
G1 X100.823 Y75.086 E43.92743
G1 X100.823 Y70.091 E44.11018
G1 X101.877 Y70.091 E44.14874
G1 X101.878 Y79.679 E44.49953
G1 X101.907 Y79.963 E44.50997
G1 X101.959 Y80.146 E44.51694
G1 X102.068 Y80.385 E44.52655
G1 X102.213 Y80.598 E44.53597
G1 X102.426 Y80.812 E44.54702
G1 X102.737 Y81.009 E44.56049
G1 X102.998 Y81.103 E44.57064
G1 X103.355 Y81.149 E44.58381
G1 X105.852 Y81.15 E44.67516
G1 X105.852 Y85.068 E44.81851
G1 F2400 E43.81851
G1 F240 Z0.6
G0 F6000 X92.937 Y84.847 Z0.6
G1 F240 Z0.2
G1 F2400 E44.81851
G1 F1200 X92.865 Y84.775 E44.82223
G0 F6000 X92.865 Y84.153
G1 F1200 X93.559 Y84.847 E44.85814
G0 F6000 X94.181 Y84.847
G1 F1200 X92.865 Y83.531 E44.92623
G0 F6000 X92.865 Y82.908
G1 F1200 X94.803 Y84.847 E45.02653
G0 F6000 X95.426 Y84.847
G1 F1200 X92.865 Y82.286 E45.15904
G0 F6000 X92.865 Y81.664
G1 F1200 X96.048 Y84.847 E45.32373
G0 F6000 X96.67 Y84.847
G1 F1200 X92.865 Y81.042 E45.5206
G0 F6000 X92.865 Y80.419
G1 F1200 X97.292 Y84.847 E45.74968
G0 F6000 X97.915 Y84.847
G1 F1200 X92.865 Y79.797 E46.01097
G0 F6000 X92.865 Y79.175
G1 F1200 X98.537 Y84.847 E46.30445
G0 F6000 X99.159 Y84.847
G1 F1200 X92.865 Y78.553 E46.6301
G0 F6000 X92.865 Y77.93
G1 F1200 X99.781 Y84.847 E46.98797
G0 F6000 X100.404 Y84.847
G1 F1200 X92.865 Y77.308 E47.37804
G0 F6000 X92.968 Y76.789
G1 F1200 X101.026 Y84.847 E47.79496
G0 F6000 X101.648 Y84.847
G1 F1200 X93.59 Y76.789 E48.21189
G0 F6000 X94.212 Y76.789
G1 F1200 X102.27 Y84.847 E48.62882
G0 F6000 X102.893 Y84.847
G1 F1200 X94.834 Y76.788 E49.04579
G0 F6000 X95.456 Y76.788
G1 F1200 X103.515 Y84.847 E49.46277
G0 F6000 X104.137 Y84.847
G1 F1200 X96.078 Y76.788 E49.87975
G0 F6000 X96.7 Y76.788
G1 F1200 X104.759 Y84.847 E50.29673
G0 F6000 X105.382 Y84.847
G1 F1200 X97.322 Y76.788 E50.71373
G0 F6000 X97.944 Y76.787
G1 F1200 X105.631 Y84.474 E51.11146
G0 F6000 X105.631 Y83.852
G1 F1200 X103.123 Y81.344 E51.24123
G0 F6000 X103.77 Y81.368
G1 F1200 X105.631 Y83.23 E51.33754
G0 F6000 X105.631 Y82.607
G1 F1200 X104.393 Y81.369 E51.4016
G0 F6000 X105.015 Y81.37
G1 F1200 X105.631 Y81.985 E51.43344
G1 F2400 E50.43344
G1 F240 Z0.6
G0 F6000 X101.679 Y79.9 Z0.6
G1 F240 Z0.2
G1 F2400 E51.43344
G1 F1200 X98.566 Y76.787 E51.59451
G0 F6000 X99.188 Y76.787
G1 F1200 X101.657 Y79.256 E51.72226
G0 F6000 X101.657 Y78.634
G1 F1200 X99.756 Y76.733 E51.82062
G0 F6000 X100.194 Y76.549
G1 F1200 X101.657 Y78.012 E51.89631
G0 F6000 X101.657 Y77.39
